/* XPM */
static char *dumpling[] = {
/* columns rows colors chars-per-pixel */
"64 64 182 2 ",
"   c #73B435",
".  c #76B539",
"X  c #7BB63C",
"o  c #7BB83E",
"O  c #7EB941",
"+  c #82B13F",
"@  c #97A948",
"#  c #9CAF4F",
"$  c #83B541",
"%  c #8CB246",
"&  c #81BA45",
"*  c #8DB448",
"=  c #86BD4B",
"-  c #8ABD4E",
";  c #94B54E",
":  c #90BA4F",
">  c #8CBF52",
",  c #9DB051",
"<  c #94BD55",
"1  c #ADA655",
"2  c #AAAB56",
"3  c #ADAD59",
"4  c #BCA45D",
"5  c #B2AF5E",
"6  c #A5B358",
"7  c #AAB05A",
"8  c #A1BC5C",
"9  c #B6AF61",
"0  c #BEAD64",
"q  c #A6BC60",
"w  c #AABB62",
"e  c #B7B667",
"r  c #B3BA67",
"t  c #B8BC6C",
"y  c #C09E5B",
"u  c #C4A564",
"i  c #C3A865",
"p  c #C6AC6A",
"a  c #CAAD6D",
"s  c #C8B26F",
"d  c #C0B96F",
"f  c #CDAF70",
"g  c #CDB373",
"h  c #C3BA71",
"j  c #CEBF7E",
"k  c #D1B475",
"l  c #D1B779",
"z  c #D2BA7C",
"x  c #D8BC7F",
"c  c #8EC054",
"v  c #91C157",
"b  c #94C35B",
"n  c #9AC561",
"m  c #9FC868",
"M  c #A0C262",
"N  c #A4C769",
"B  c #A3CA6C",
"V  c #A5CB70",
"C  c #ABCD75",
"Z  c #ADCE79",
"A  c #B3C774",
"S  c #BFC77A",
"D  c #B0CF7B",
"F  c #BFCC7F",
"G  c #B1D07D",
"H  c #C5C67E",
"J  c #D5BE82",
"K  c #D9BE83",
"L  c #BCCE80",
"P  c #B6D282",
"I  c #BAD385",
"U  c #BDD58B",
"Y  c #C3CC81",
"T  c #C8CA85",
"R  c #CECF8B",
"E  c #D6C185",
"W  c #D9C186",
"Q  c #D7C489",
"!  c #DAC58B",
"~  c #DCC88E",
"^  c #C3D48C",
"/  c #DEC790",
"(  c #DDCB94",
")  c #DFCE99",
"_  c #CAD692",
"`  c #C4D994",
"'  c #CADC9B",
"]  c #D3D394",
"[  c #D8D497",
"{  c #D0D897",
"}  c #D4D699",
"|  c #D4D99B",
" . c #E1CC95",
".. c #E2CF9A",
"X. c #E3D19D",
"o. c #CEDEA0",
"O. c #D2DFA4",
"+. c #DEDBA5",
"@. c #E5D5A3",
"#. c #E8D7A5",
"$. c #E6D8A7",
"%. c #E9D8A6",
"&. c #E7D7A8",
"*. c #E7DAA9",
"=. c #EADBAC",
"-. c #ECDFB1",
";. c #D5E0A7",
":. c #D8E0A7",
">. c #D6E1A9",
",. c #DBE3AD",
"<. c #DEE5B2",
"1. c #E7E0AF",
"2. c #E2E6B4",
"3. c #EEE1B4",
"4. c #E4E7B8",
"5. c #EFE3B9",
"6. c #E6E8BC",
"7. c #EAE9BD",
"8. c #F0E3B7",
"9. c #F1E6BC",
"0. c #F1E6BD",
"q. c #F2E6BD",
"w. c #F2E7BE",
"e. c #F2E7BE",
"r. c #F1E5BC",
"t. c #F1E5BB",
"y. c #F2E8BF",
"u. c #EDEBC3",
"i. c #F2E7C0",
"p. c #F2E8C0",
"a. c #F3E8C0",
"s. c #F3E8C1",
"d. c #F3E9C1",
"f. c #F3E9C2",
"g. c #F3EAC3",
"h. c #F4E9C2",
"j. c #F3EAC4",
"k. c #F4EAC4",
"l. c #F4EBC5",
"z. c #F4EBC4",
"x. c #F6EBC5",
"c. c #F1ECC6",
"v. c #F5ECC7",
"b. c #F4ECC6",
"n. c #F6ECC7",
"m. c #F4EAC3",
"M. c #F3EEC9",
"N. c #F5EDC8",
"B. c #F5EDC9",
"V. c #F6EDC9",
"C. c #F6EDC8",
"Z. c #F6EECA",
"A. c #F6EECB",
"S. c #F7EECB",
"D. c #F6EFCB",
"F. c #F7EECA",
"G. c #F5EECA",
"H. c #F5EFCC",
"J. c #F6EFCC",
"K. c #F7EFCC",
"L. c #F6EFCD",
"P. c #F7EFCD",
"I. c #F6EECC",
"U. c #F7EFCE",
"Y. c #F6EECB",
"T. c #F8EFCD",
"R. c #F8EFCE",
"E. c #F7F0CD",
"W. c #F7F0CE",
"Q. c #F7F0CF",
"!. c #F6F0CF",
"~. c #F7F0CE",
"^. c #F8F0CE",
"/. c #F8F0CF",
"(. c #F9F0CF",
"). c #F8F0CF",
"_. c #F8F0D0",
"`. c #F9F1D1",
"'. c #F9F0D0",
"]. c #F9F1D2",
"[. c #FAF1D2",
"{. c #F9F1D1",
/* pixels */
"                                                                                                                                ",
"                                                                                                                                ",
"                                                                                                                                ",
"                                                      o v O                                                                     ",
"                                                      G c.,.c                                                                   ",
"                                                    o :.c.C.<.=                                                                 ",
"                                                    c 7.r.r.C.' o                                                               ",
"                                                    D c.3.3.r.C.Z                                                               ",
"                                                  O ,.c.3.r.-.C.7.c                                                             ",
"                                                  Z C.r.-.r.-.r.`.' o                                                           ",
"                                                b 7.c.3.=.r.3.3./.c.N                                                           ",
"                                              c 2.C.r.=.=.r.r.-.C.C.+.-                                                         ",
"                                            n 2.C.r.=.%.3.c.r.-.C.C.r.] b                                                       ",
"                                        o G u.c.r.3.=.-.c.C.c.3.C./.c.=.*.P -                                                   ",
"                                      b ;.C.C.c.c.r.r.c./.E.c.y./.`.c.3.=.r.2.U c .                                             ",
"                                  = U u./.C.C.C.C.c.C./.`./.C.C.`.`.C.r.=.X.-.c.7.' m O                                         ",
"                              O C 4./.C.c.C.E.C.E.E.`.`.`./.C./.`.`./.c.3.@.#.=.3.r.c.,.P c .                                   ",
"                            b ;.c.c.c.3.r.C.C.C.C.E././.`.E.C./.C.C.`.C.r.=.=.r.r.-.=.3.c.7.' B O                               ",
"                        & U c.`.r.3.-.=.5.c.C.E.E.c.c.C.E.E.C.r.r.c.C.C.C.r.3.r.c.C.y.3.3.r.C.C.<.P -                           ",
"                      n <.`.`./.C.r.=.#.5.C.`.`.C.5.=.c.C.C.c.%.3.C.,.U E.r.3.r.r.c.C.C.c.c.C./.`.<.` P >                       ",
"                  o P c.`.`.`./.C.r.=.5.C.`.`.C.r.=...r.C.E.c.%.r./.,.b O.C.3.3.r.r.r.c.c.C.T.`.E.,.P U O.G o                   ",
"                & _ c.C.C.C.c.c.r.3.c./.`.`.`.c.3.X.#.c.C.E.c.%.r.C.C.7.<.C.C.=.3.r.8.-.3.r.y.c.C./.E.6.' <.` O                 ",
"              = { r.5.r.r.r.3.-.5.C.`.`.`.`.C.c.=.X.3.c.C.E.c.X.=.5.r.c.C.C.`.c.=.3.r.r.8.r.3.3.r.r.c.T.C.c.`.^ .               ",
"            & { 3.=.=.=.=.=.#.r.C.`.`.`.`.E.c.r.#.=.c.C.`.`.c... .X.#.3.c.C.E.E.r.=.3.r.r.c.c.r.3.-.3.r.c.C./.C.B               ",
"          . ^ 3.=.X.X.....X.r./.`.T.C.T.T.c.r.=.=.r.c.T.`.`.C...K  .=.r.C./.' ' `.r.%.-.r.c.c.C.C.c.8.-.3.r.c.T.,.O             ",
"          n 3.=.X. .! ! ..r.`.`./.C.r.r.r.-.#.=.r.c.C./.C.u.C.=.W X.-.c./.c.b b 7./.3.%.-.r.c.C./.E.C.C.r.3.3.c.C.B             ",
"        o _ 3.@. .W K X.c.C.C.`./.c.3.=.X. .@.r.c.c.C.`.C.;.E.r. .X.-.c./.7.= o G C.T.-.%.-.r.c.C.C.<.>.c.C.r.3.c.`             ",
"        > 1.=...! ! -.T.6.;.u.`./.C.c.-... .3.c.c.c.C.`.7.G C.C.=. .=.c.T.C.B   & ` E.C.=.#.=.r.c.C.C.' P >.C.C.C.<.O           ",
"        C 3.@. . .r.`.<.O.u.T.C.c.c.r.=.X.-.c.c.C.C.`.`.^ - <./.r...%.r.C.`.7.V o = ` E.c.=.#.=.8.y.c.E.<.C Z <.E.u.>           ",
"        ^ -.....r.E.O.' C.C.c.p.r.-.#...=.c.c.C.`.`.`.E.2.<.u.`.c.#.X.=.r.C./.C.' > & ' `.c.%.=.-.r.c.c.T.u.C - ` C.P           ",
"      o { =.@.r./.;.V c.C.c.r.-.#...!  .r.c.C.`.`.`.`.`.`.`.`.`.C.r. .@.3.r.c.C.`.6.B = ' /.p.=.=.r.c.c.c.C.C.U > O.,.o         ",
"      & +.#.3.c./.,.2.`.c.c.5.=.#...K #.c.C.`.`.`.`.E.C.C.C.C.E.`.c.@. .@.-.r.c.C./.C.P > >./.r.%.3.r.c.c.c.C.E.' ' c.v         ",
"      - *.=.r.c.C.`.`.C.c.c.r.r.-.X...r.c.T.`.`./.C.C.c.c.c.c.C./.T.3.!  .X.=.r.c.c.T.C.D c 4.T.=.%.-.r.c.y.c.C./.C.C.B         ",
"      - *.-.c.c.C.C.C.c.c.c.c.r.=...=.c.C.`.`.`.C.c.c.c.y.c.c.c.c./.c. .W  .X.=.r.c.c./.u.b V C.c.X.#.=.r.r.r.c.c.C.C.P         ",
"      & +.r.c.c.c.c.c.c.c.c.c.r.#.X.r.c.C.`.`.T.c.c.r.r.r.r.r.c.c.C.C.=.K W  .X.=.r.c.C.`.>.v ,.T.=...#.=.3.r.r.r.c.c.^         ",
"      o } r.r.r.r.r.r.r.r.r.r.=...=.r.c.C._.T.c.p.r.r.r.5.5.5.r.r.c.C.r.! x !  .X.=.r.c.C.C.6.C.T.r. . .@.=.3.r.r.r.r._         ",
"        L 3.3.5.5.5.3.3.r.r.-.@.( -.5.c.C.C.c.r.r.3.3.3.3.3.3.3.r.r.c.c.X.l x !  .@.3.r.c.C.C.C.C.c.X.!  .X.%.-.r.3.3.^         ",
"        b *.=.-.-.-.-.3.3.3.#. .! -.3.r.c.c.r.5.3.3.3.3.3.3.3.3.3.3.5.r.-.z l K ! ..=.5.5.p.c.c.c.c.=.W !  .X.=.-.3.=.Y         ",
"        & [ =.=.=.=.=.-.3.=.X.! W =.-.3.5.5.3.-.=.=.=.=.=.-.=.=.=.-.3.3.3.! l l W ( @.3.3.3.r.p.p.r.3.! x !  .@.=.3.-.S         ",
"        o R @.@.@.@.=.=.-.#. .K J =.=.=.-.-.=.=.=.=.=.=.=.=.=.=.=.=.=.-.3...a l z ! X.-.-.-.-.3.3.3.3.X.z K ! X.#.=.=.A         ",
"          S X.X.X.@.$.=.=.@./ z l *.=.*.*.*.*.*.*.*.*.*.*.*.*.@.@.@.=.=.=.@.f f l ! ..=.=.=.=.=.=.=.=.*.K z W  .@.=.=.M         ",
"          w ! !  .X.@.*.=.X.! l l @.*.$.$.$.$.@.@.@.@.@.@.@.@.@.@.@.$.$.*.@.l a l W  .*.=.$.$.*.*.$.$.*.( z K ( X.*.@.-         ",
"          : z !  .X.@.$.*...! l z X.*.@.@.@.@.@.@.X.X.X.X.X.X.X.X.@.@.@.@.@.l a l J ( $.$.@.@.@.@.@.@.$.X.! ! ( X.*.] o         ",
"          o h ! ( X.X.@.@...! J J ) @.@.@.@.@.X.X.X.........X.X.X.X.X.X.@.@.g a l E ( @.@.X.X.X.X.X.X.@.@.( ( ( X.@.A           ",
"            w W (  .X.@.@...( ! ! ( @.@.@.@.@.X...........X.X.X.X...X.X.@...a a l E ) @.@.X...( ( ( X.X.@.X.( ..@.X.<           ",
"            * z ! ( ( X.X.X...( ( ..@.X.X.X.X.X...( ( ( ( ( ( ( ( ( ..X.@.! f g z ! X.@.X...( ( ( ( ( X.X.X.X.X.X.T o           ",
"              r ! ( ( ) X.X.X.X.X.X.X.X.) ..X.X.) ( ( ~ ! ! ! ! ( ( ) ..X.! l z E ( X.X.) ( ( ~ ! ~ ( ( ..X.X.X.) 8             ",
"              % j ! ~ ( ( ) X.X.X.X.) ( ( ( ) ) ( ( ( ( ! ! ! ( ( ( ( ..X.( ! ! ( ) X.) ( ( ~ ! W ! ( ( ( ) ( ( H o             ",
"                8 E ! ! ( ( ( ( ( ( ( ( ~ ( ( ( ( ( ( ( ( ( ~ ( ( ( ) ..) ( ( ( ) ) ( ( ( ! ! W J ! ! ( ( ( ( Q :               ",
"                o t W ! ! ! ~ ( ( ( ! ! ! ! ( ( ( ( ( ( ( ( ( ( ( ( ) ) ) ( ) ) ( ( ( ! ! ! Q E z E ! ! ! ! Q 8                 ",
"                  $ h J E E ! ! ! ! ! Q E Q ! ! ! ( ( ( ( ( ( ( ( ( ( ( ( ( ( ( ( ! ! ! Q E E z z z E E ! E q                   ",
"                    $ d z J J J E J J J J J E Q Q ! ! ! ( ( ( ( ( ( ( ( ( / ! ! ! Q E E E J z l g l z J j 8                     ",
"                      $ e l z z z z z l l z J J E E E E Q Q ! ! ! ! ! ! ! Q Q E E E J J z z l g a g l h ;                       ",
"                        o 6 s g g g g a g g z z J J J J J E E E E E E E E E J J J J z z z g g a u i 7 $                         ",
"                            % 5 p a a u p g g z z z z z z z z z z z z z z z z z z z l g g a a u 2 %                             ",
"                              o % 2 4 y u p a g g g l z z z z z z z z z j j l g g g g a a 0 2 %                                 ",
"                                    + @ 1 4 i a a g g g g g g g g g g g g g g a a p 0 3 ; +                                     ",
"                                        . o % # 2 9 0 p p p a a a a p p p 0 9 3 , % o                                           ",
"                                                  o o $ % % % ; ; * % % $ o o                                                   ",
"                                                                                                                                ",
"                                                                                                                                ",
"                                                                                                                                ",
"                                                                                                                                ",
"                                                                                                                                "
};
