/* XPM */
static char *monster[] = {
/* columns rows colors chars-per-pixel */
"64 64 246 2 ",
"   c #040302",
".  c #0A0707",
"X  c #090905",
"o  c #150101",
"O  c #1B0001",
"+  c #140C0B",
"@  c #10110E",
"#  c #15130D",
"$  c #161B0A",
"%  c #131314",
"&  c #1A1614",
"*  c #1E1915",
"=  c #13171B",
"-  c #1C1B1C",
";  c #260604",
":  c #2C0102",
">  c #330102",
",  c #3C0203",
"<  c #3F0508",
"1  c #2A1516",
"2  c #201B15",
"3  c #231E1B",
"4  c #321513",
"5  c #19250C",
"6  c #1A250D",
"7  c #1E2B10",
"8  c #252717",
"9  c #26211D",
"0  c #29241E",
"q  c #233310",
"w  c #293A14",
"e  c #333112",
"r  c #1A1C23",
"t  c #301C23",
"y  c #1E222C",
"u  c #242324",
"i  c #2A2522",
"p  c #2D2924",
"a  c #24262A",
"s  c #2A292C",
"d  c #322C26",
"f  c #372A2A",
"g  c #36312A",
"h  c #3B342C",
"j  c #3A3A29",
"k  c #2B2D33",
"l  c #282D38",
"z  c #2E3238",
"x  c #323131",
"c  c #3A3736",
"v  c #32353A",
"b  c #430203",
"n  c #4B0304",
"m  c #4B090A",
"M  c #5B0505",
"N  c #560708",
"B  c #4F1517",
"V  c #65090B",
"C  c #740B0E",
"Z  c #7C0F0F",
"A  c #6D130F",
"S  c #730A10",
"D  c #7C0E11",
"F  c #7E1212",
"G  c #761812",
"H  c #423613",
"J  c #6F3718",
"K  c #4F1C23",
"L  c #542625",
"P  c #45332D",
"I  c #502E32",
"U  c #443B34",
"Y  c #453C35",
"T  c #673330",
"R  c #743D3B",
"E  c #2E4215",
"W  c #354817",
"Q  c #375119",
"!  c #3C531B",
"~  c #3C5B1C",
"^  c #3F601D",
"/  c #384B23",
"(  c #3E5520",
")  c #424E17",
"_  c #554619",
"`  c #435419",
"'  c #465A1B",
"]  c #485C1C",
"[  c #76471C",
"{  c #46641E",
"}  c #424E29",
"|  c #474238",
" . c #4C443B",
".. c #52473E",
"X. c #704837",
"o. c #486A22",
"O. c #506E20",
"+. c #4B7423",
"@. c #4F7924",
"#. c #4D742C",
"$. c #527523",
"%. c #527B25",
"&. c #2E3441",
"*. c #373C46",
"=. c #403A42",
"-. c #723942",
";. c #3C4246",
":. c #3D434C",
">. c #3F4653",
",. c #434649",
"<. c #544B42",
"1. c #594E43",
"2. c #5B5546",
"3. c #444B53",
"4. c #454C55",
"5. c #4A5254",
"6. c #4B535C",
"7. c #525558",
"8. c #714B4C",
"9. c #64584C",
"0. c #675D52",
"q. c #6B6254",
"w. c #6E6558",
"e. c #766859",
"r. c #736C5A",
"t. c #4A5263",
"y. c #545C63",
"u. c #535C6A",
"i. c #6E5E6F",
"p. c #59636C",
"a. c #5F6B75",
"s. c #7D7262",
"d. c #716F72",
"f. c #831010",
"g. c #841312",
"h. c #8B1717",
"j. c #921A15",
"k. c #941A19",
"l. c #9A1D1B",
"z. c #B11915",
"x. c #9C221B",
"c. c #91391C",
"v. c #A2221B",
"b. c #A9251C",
"n. c #AC2A1F",
"m. c #B5251C",
"M. c #8F2D31",
"N. c #A82621",
"B. c #B92C22",
"V. c #BC3426",
"C. c #B83925",
"Z. c #A53A30",
"A. c #D2281A",
"S. c #C73126",
"D. c #E73524",
"F. c #F63B29",
"G. c #94431E",
"H. c #994C23",
"J. c #B24424",
"K. c #A66229",
"L. c #C9482B",
"P. c #D74B2C",
"I. c #CA542D",
"U. c #D6572D",
"Y. c #D85A31",
"T. c #EF4F2F",
"R. c #DC602F",
"E. c #DA6232",
"W. c #F36E35",
"Q. c #FD7838",
"!. c #874747",
"~. c #974748",
"^. c #95514D",
"/. c #8D5152",
"(. c #AB534F",
"). c #8A6A5D",
"_. c #BA635A",
"`. c #8D5A67",
"'. c #A75C62",
"]. c #936C6F",
"[. c #857968",
"{. c #857C69",
"}. c #AD7172",
"|. c #C6574D",
" X c #CD6D54",
".X c #F76843",
"XX c #CA7570",
"oX c #ED756F",
"OX c #588628",
"+X c #5E932C",
"@X c #63972C",
"#X c #659C2E",
"$X c #639832",
"%X c #67A12F",
"&X c #6AA531",
"*X c #6DAB32",
"=X c #70AF34",
"-X c #73B435",
";X c #75B836",
":X c #FF8B3E",
">X c #8A816D",
",X c #8E8471",
"<X c #958877",
"1X c #948A76",
"2X c #9D937D",
"3X c #AD8A79",
"4X c #F88F4A",
"5X c #FFAD48",
"6X c #DE8667",
"7X c #CD8776",
"8X c #667682",
"9X c #787F99",
"0X c #8C7585",
"qX c #B17A83",
"wX c #79839C",
"eX c #A59984",
"rX c #B79391",
"tX c #A9A087",
"yX c #ADA38B",
"uX c #B3A88E",
"iX c #B7AA94",
"pX c #BCB297",
"aX c #9094AC",
"sX c #AC9DA9",
"dX c #CC918B",
"fX c #D2A48F",
"gX c #C3B69B",
"hX c #EDA898",
"jX c #CBB1A3",
"kX c #D3C9AA",
"lX c #DED4B4",
"zX c #E9C8BF",
"xX c #E3D8B7",
"cX c #E5E0BD",
"vX c #A5B3CD",
"bX c #A8B7D0",
"nX c #C7B6C4",
"mX c #B9C6DB",
"MX c #BECDE1",
"NX c #C9C8D4",
"BX c #D2D5DF",
"VX c #FBFBD5",
"CX c #DEEDFC",
"ZX c #DEF1FF",
"AX c #E2F3FF",
"SX c #EDF2F8",
/* pixels */
"-X-X-X-X-X-X-X-X-X-X-X-X-X-X-X-X-X-X-X-X-X-X-X-X-X-X-X-X-X-X-X-X-X-X-X-X-X-X-X-X-X-X-X-X-X-X-X-X-X-X-X-X-X-X-X-X-X-X-X-X-X-X-X-X",
"-X-X-X-X-X-X-X-X-X-X-X-X-X-X-X-X-X-X-X-X-X-X-X-X-X-X-X-X-X-X-X-X-X-X-X-X-X-X-X-X-X-X-X-X-X-X-X-X-X-X-X-X-X-X-X-X-X-X-X-X-X-X-X-X",
"-X-X-X-X-X-X-X-X-X-X-X-X-X-X-X-X-X-X-X-X-X-X-X-X-X-X-X-X-X-X-X-X-X$Xo.o.] ] ' ] ] ] ] OX-X-X-X-X-X-X-X-X-X-X-X-X-X-X-X-X-X-X-X-X",
"-X-X-X-X-X-X-X-X-X-X-X-X-X-X-X-X-X-X-X-X-X-X-X-X-X-X-X-X-X-X-X-X-X#.r & O O o O O O O ) -X-X-X-X-X-X-X-X-X-X-X-X-X-X-X-X-X-X-X-X",
"-X-X-X-X-X-X-X-X-X-X-X-X-X-X-X-X-X-X-X-X-X-X-X-X-X-X-X-X-X#XO.O.#.5.t.I N N N A A T 0.2.O.@X-X-X-X-X-X-X-X-X-X-X-X-X-X-X-X-X-X-X",
"-X-X-X-X-X-X-X-X-X-X-X-X-X-X-X-X-X-X-X-X-X-X-X-X-X-X-X-X-X{ o + r u.bX}.z.m.A.D.F.6XCX0XO ] ;X-X-X-X-X-X-X-X-X-X-X-X-X-X-X-X-X-X",
"-X-X-X-X-X-X-X-X-X-X-X-X-X-X-X-X-X-X-X-X-X-X-X-X-X@X{ ' ' H b m B -.].~.z.m.S.|.XXjXCXvXd.2.] OX-X-X-X-X-X-X-X-X-X-X-X-X-X-X-X-X",
"-X-X-X-X-X-X-X-X-X-X-X-X-X-X-X-X-X-X-X-X-X-X-X-X-X{ o o o < C D f.f.f.j.v.n.V.}.bXMXCXCXAXd.o ) -X-X-X-X-X-X-X-X-X-X-X-X-X-X-X-X",
"-X-X-X-X-X-X-X-X-X-X-X-X-X-X-X-X-X-X-X-X-X#X` W W e , , m V D M.].!.f.j.v.n.V.|.7XjXBXzXhX7XK.[ W OX-X-X-X-X-X-X-X-X-X-X-X-X-X-X",
"-X-X-X-X-X-X-X-X-X-X-X-X-X-X-X-X-X-X-X-X-X%.o o o > N V S D f./.bX0Xf.j.v.n.V.L.Y.7XNXfXQ.4X5XK.O ' -X-X-X-X-X-X-X-X-X-X-X-X-X-X",
"-X-X-X-X-X-X-X-X-X-X-X-X-X#X' ` ` ` ` ` ` e : : : b M V D M./.0XvXaX`.~.v.n.V.L.Y. XdX6XQ.:X5XH.O ' -X-X-X-X-X-X-X-X-X-X-X-X-X-X",
"-X-X-X-X-X-X-X-X-X-X-X-X-X+.o o o o o o o ; b n n N V S f.!.aXaXvXvXvX}.v.n.V.L.R.Y.Y.W.Q.Q.4XH.O ' -X-X-X-X-X-X-X-X-X-X-X-X-X-X",
"-X-X-X-X-X-X-X-X-X-X-X#X! j z t > > , , b b N N N V D f.k.M.-.`.aX0X`.Z.v.~.qX_.L.U.E.E.W.W.:XH.O ' -X-X-X-X-X-X-X-X-X-X-X-X-X-X",
"-X-X-X-X-X-X-X-X-X-X;X%.o 3 t.I b n N M M M M M M C f.j.v.j.C -.aX`.f.j.v.'.bXqXV.L.E.R.Y.W.Q.G.O ' -X-X-X-X-X-X-X-X-X-X-X-X-X-X",
"-X-X-X-X-X-X-X-X-X@X' e ; 4 I K > , , b b b N N M V C F j.j.h.M.`.M.D h.j.M.].(.V.S.L. XfX6XQ.G.O ' -X-X-X-X-X-X-X-X-X-X-X-X-X-X",
"-X-X-X-X-X-X-X-X-X$.o O > , b , : : : : : > m m N M M V f.k.v.v.v.j.D F f.f.f.v.V.V.V.dXZXhXQ.c.O ` -X-X-X-X-X-X-X-X-X-X-X-X-X-X",
"-X-X-X-X-X-X-X-X-X$.O O > > > 4 t t f f f t , , , , b n V F j.k.v.n.C.x.D f.f.l.n.B.V.|.XX XP.L.J.J W %.-X-X-X-X-X-X-X-X-X-X-X-X",
"-X-X-X-X-X-X-X-X-X$.O O > : ; 1 l &.*.*.:.x : : : : : , N V f.j.v.C.E.C.D F f.j.v.N.V.V.V.V.V.P.Q.c.O ) -X-X-X-X-X-X-X-X-X-X-X-X",
"-X-X-X-X-X-X-X-X-X$.o O : 4 x &.>.*.z :.u.6.=.f + 1 4 4 , b n V j.n.L.XXnX}.Z f.j.l.n.B.V.V.V.XXzXe.O ) -X-X-X-X-X-X-X-X-X-X-X-X",
"-X-X-X-X-X-X-X-X-X$.o O ; 1 *.>.t.>.l :.a.p.t.*.# 2 d 1 : : : m f.x.V.dXAXrXC F f.j.v.n.V.V.V.dXAXd.O ) -X-X-X-X-X-X-X-X-X-X-X-X",
"-X-X-X-X-X-X-X-X-X$.o + 3 a l *.>.4.6.4.>.*.a u 9 9 3 h 1.8.e.X.N G x.(.XX XI.n.D f.j.x.n.'.rXnXCXbXaXe.W OX-X-X-X-X-X-X-X-X-X-X",
"-X-X-X-X-X-X-X-X-X%.+ & l l y l *.4.a.6.l a # * d 0 - U [.1XyX)., N f.x.V.I.Q.J.Z F f.j.v.}.bXMXCXCXAXeXO ` -X-X-X-X-X-X-X-X-X-X",
"-X-X-X-X-X-X-X-X-X&XOX( = y &.z l &.4.4.>.v # * d 0 -  .2XuXkXgXeX/.N G k.N.L.U.E.J.D f.j.Z._.rXMXdXXX XI.[ e OX-X-X-X-X-X-X-X-X",
"-X-X-X-X-X-X-X-X-X-X;XOX# r *.&.y l *.>.6.*.% * d 0 * <.eXgXxXxXxX1Xb V f.x.V.Y.4XI.D F f.v.V.}.bX}.B.Y.:XG.O { -X-X-X-X-X-X-X-X",
"-X-X-X-X-X-X-X-X-X-X-X&X+./ r y l l l &.>.v # 3 U h 0 h 1.[.pXkXVXeXB B M G l.C.U.U.L.n.D k.N.Z.'.(.V.L.U.L.J.J e %.-X-X-X-X-X-X",
"-X-X-X-X-X-X-X-X-X-X-X-X;X%.# r l l y l *.l # i <.U p d t 8.eXgXVXuXL B b N f.x.V.P.Q.J.S h.l.v.b.B.V.V.V.P.Q.J O ` -X-X-X-X-X-X",
"-X-X-X-X-X-X-X-X-X-X-X-X-X&XOX/ = r l a - - 3 g <.U p h I T X.1XSXiXK 8.[.X.N F N.S.T.B.S f.h.k.v.v.v.v.l.S.T.G O ` -X-X-X-X-X-X",
"-X-X-X-X-X-X-X-X-X-X-X-X-X-X;X+.@ = l a # & d h <.U d h I I K ].SXsXL e.eX/.b V l.B.F.B.f.f.f.h.l.l.v.x.M.S.F.G O ` -X-X-X-X-X-X",
"-X-X-X-X-X-X-X-X-X-X-X-X-X-X-X*X+X( # & i f  .U f U  .U f I T 8.8.!.!.R T L b V D j.N.S.D.b.f.h.k.C.I.7XNXoXF.G O ` -X-X-X-X-X-X",
"-X-X-X-X-X-X-X-X-X-X-X-X-X-X-X-X*Xo.X & d h <.U p U <.U p I R T T R ^.R L B b M S f.l.S.F.B.h.h.k.C.R.fXCXhXF.G O ] -X-X-X-X-X-X",
"-X-X-X-X-X-X-X-X-X-X-X-X-X-X-XOXq 8 9 f  ...2.1.<... .U p I !.!.^.3XxX3X-.R T B n V D l.m.}.nX7XP.T.T..XoXZ.N _ OX#X-X-X-X-X-X-X",
"-X-X-X-X-X-X-X-X-X-X-X-X-X-X-Xo.  # d P <.1.9.9.9.1. .U d I !./.(.fXVXfX/.!.R L b N C h.x.rXCXhXQ.T.F.F.F.f.O { ;X-X-X-X-X-X-X-X",
"-X-X-X-X-X-X-X-X-X-X-X-X-X-X-X{   # d U 0.0.e.e.e.0.2.<.U P h 9.3XgXcXdX^.^.!.R T L n -.0XaXmXNXBXXXb.v.l.N O { -X-X-X-X-X-X-X-X",
"-X-X-X-X-X-X-X-X-X-X-X-X-X-X*X~ X & h  .0.q.e.e.e.0.2.<.U h p 1.eXpXlXrX(.^.^.!.R T m 1.wXaXvXMXCXqXl.h.f.m ; O.-X-X-X-X-X-X-X-X",
"-X-X-X-X-X-X-X-X-X-X-X-X-XOXq 8 i d U U c c c c c  ...U 3 f  . . .e.iX3X(.}.gX3X^.}.iX).K i.aX0X~.M.f.V > H OX&X-X-X-X-X-X-X-X-X",
"-X-X-X-X-X-X-X-X-X-X-X-X-X+.  & h h U c l k v v v c  .h & d ..U p 2.eX].^.3XkX3X^.3XkX)., 1.9X8.Z S S m ; { -X-X-X-X-X-X-X-X-X-X",
"-X-X-X-X-X-X-X-X-X-X-X-X-X+.X * h f a v ;.4.6.y.a.4.u p p 0 3 d  . .U P P U  .U P h h f a K B m n , : H @X*X-X-X-X-X-X-X-X-X-X-X",
"-X-X-X-X-X-X-X-X-X-X-X-X-X+.X & f f a k ,.5.y.p.8X5.r u f i * p  .U d f f d d p i 9 - u a 4 b , , ; 1 ] -X-X-X-X-X-X-X-X-X-X-X-X",
"-X-X-X-X-X-X-X-X-X-X-X-X-X+.X % u s v *.4.4.y.y.p.,.y u d g h f * d ...... .U f & i h p & a v 3 . E #X*X-X-X-X-X-X-X-X-X-X-X-X-X",
"-X-X-X-X-X-X-X-X-X=X%X*X-X+.X % a s v *.4.4.y.y.y.;.u u d g c d * d  ..... .U f * i c p & a v a # Q #X*X-X*X&X*X-X-X-X-X-X-X-X-X",
"-X-X-X-X-X-X-X-X;XOX5 W -X+.  % s l v *.4.4.4.;.z l s a u i f h U g 3 f  .h 2 d U U c p & a v :.6.k # ~ -X{ $ +.-X-X-X-X-X-X-X-X",
"-X-X-X-X-X-X-X*X#Xo.& w OX~ . % a l v *.,.:.;.*.v v v v k s d h  .h 3 d U f 9 g  .U c i & a v :.7.z = w OX( i ' @X&X-X-X-X-X-X-X",
"-X-X-X-X-X-X;XOX$ d e.2.# # u - % r v v v v l *.y.p.8X8X8X4.* 0 c  .2.h * g 2. .U h f 0 & u k k k 6.a.;.X w.kX2.X ^ -X-X-X-X-X-X",
"-X-X-X-X-X*X#XO.# h [.q.. # i - % - v v v v l ;.y.a.8X8Xa.5.0 d h | 2.h & f 2. .h g d d d s s s k 6.8X:.. e.lXq.* / #X*X-X-X-X-X",
"-X-X-X-X-X%.$ 0 q.[.eX[.0 9 i - % - l l a l :.5.y.p.p.5.p 2.2Xe.2 d | d & i  .f * * * w.kXe.3 v ,.6.p.,.2 q.uXpXgXq.$ +.-X-X-X-X",
"-X-X-X-X-XO.  0 s.1XiX1Xp 0 i 3 & - a a a l :.4.y.7.5.,.d q.yXs.* 0 j p * i h p * * & e.lX>X| | *.5.y.| 2 0.eXgXlXq.  { -X-X-X-X",
"-X-X-X-X;Xo.  9 s.2XlXuXd 0 i i d u % r l k v *.4.c 0 | e.,XyXs.2 * * 0 d 0 * 9 d 0 * 0.yXgXkX[.0 v 4.v * ..[.2XuX2.  { ;X-X-X-X",
"-X-X-X*XOX( 2 h s.,XtX[.8 * - 9 d i - - a a l k v c P 2.>X2XpX[.2 2 2 9 i 0 2 0 d 9 # 1.2XpXkX2X..| c s # j 0.[.eXq.d } OX#X-X-X",
"-X-X-XOXX i 0.w.[.2.. X       # i i f u % % % % # U [.,XeXpXxX2X2 9 f 9 & 9 f p i &   U [.2XyXgXlXe.* #     X <.[.1XeX .X ~ -X-X",
"-X-X-X%.  0 q.q.q...5 5 5 5 5 * 3 3 i 9 & & & % # | [.1XiXiXpX[.2 9 d 9 & 3 d i 3 * $ j q.[.eXiXkXe.# # 5 5 5 | q.>XyX .  Q -X-X",
"-X-X-X%.  0 q.<.# w #X&X&X&X&X~       % f f f i & | [.eXlX,X0 0 0 0 0 3 & 3 i &   w #X! . ..[.1XyX<.  E &X&X#XE . 2.yX .  Q -X-X",
"-X-X-X@.  0 q.<.. w -X-X-X-X-XOXq q 7 7 9 9 p d h 2.>XyXxX[.# & * * * & + % - 7 7 o.-X~   U s.>XeX0.f / %.#X-XE   <.eX .  Q -X-X",
"-X-X-X@.  i w.<.. w -X-X-X-X-X-X*X*X*X{   X * U s.,XeXpXxX[.                  Q *X-X-X^   h w.e.[.1XeX2.X ^ -XW   | [.h   Q -X-X",
"-X-X-X@.X 3 <.| 5 ~ -X-X-X-X-X-X-X-X-XOX7 $ # U [.1XeXyXuXe.7 7 5 5 5 5 5 5 5 o.-X-X-X@.7 j <.0.s.1XyX0.  ~ -X{ 5 | 0.d   Q -X-X",
"-X-X-X+.X . . q #X*X-X-X-X-X-X-X-X-X-X-X*Xo.X g [.1XyXe.# Q &X*X*X&X&X&X&X&X&X=X-X-X-X-X&XQ . g w.,XyX0.  ~ -X*X&X! . X   Q -X-X",
"-X-X-X@.X # q ~ -X-X-X-X-X-X-X-X-X-X-X-X;X@.  f [.s.s.2.q +.-X-X-X-X-X-X-X-X-X-X-X-X-X-X-X+.q j  .s.eX2.  ~ -X-X-X%.q #   Q -X-X",
"-X-X-X@.  w *X-X-X-X-X-X-X-X-X-X-X-X-X-X;X@.  f [. .  w *X-X-X-X-X-X-X-X-X-X-X-X-X-X-X-X-X-X=X~    .[. .  ~ ;X-X-X-X*XE   Q -X-X",
"-X-X-X+XE O.-X-X-X-X-X-X-X-X-X-X-X-X-X#X+.( p h <.} E +.-X-X-X-X-X-X-X-X-X-X-X-X-X-X-X-X-X-X-XOXE / <.U i / O.#X-X-X-X+.E @.-X-X",
"-X-X-X-X-X-X-X-X-X-X-X-X-X-X-X-X-X-X-X+.  9 q.U   Q -X-X-X-X-X-X-X-X-X-X-X-X-X-X-X-X-X-X-X-X-X-X-XQ   f w.g   { -X-X-X-X-X-X-X-X",
"-X-X-X-X-X-X-X-X-X-X-X-X-X-X-X-X-X-X-Xo.  *  .j q +.-X-X-X-X-X-X-X-X-X-X-X-X-X-X-X-X-X-X-X-X-X-X-X@.q j  .0   { -X-X-X-X-X-X-X-X",
"-X-X-X-X-X-X-X-X-X-X-X-X-X-X-X-X-X-X-Xo.      w *X-X-X-X-X-X-X-X-X-X-X-X-X-X-X-X-X-X-X-X-X-X-X-X-X-X=X~       { -X-X-X-X-X-X-X-X",
"-X-X-X-X-X-X-X-X-X-X-X-X-X-X-X-X-X-X-XOXW E E +.-X-X-X-X-X-X-X-X-X-X-X-X-X-X-X-X-X-X-X-X-X-X-X-X-X-X-XOXW E E OX-X-X-X-X-X-X-X-X",
"-X-X-X-X-X-X-X-X-X-X-X-X-X-X-X-X-X-X-X-X-X-X-X-X-X-X-X-X-X-X-X-X-X-X-X-X-X-X-X-X-X-X-X-X-X-X-X-X-X-X-X-X-X-X-X-X-X-X-X-X-X-X-X-X",
"-X-X-X-X-X-X-X-X-X-X-X-X-X-X-X-X-X-X-X-X-X-X-X-X-X-X-X-X-X-X-X-X-X-X-X-X-X-X-X-X-X-X-X-X-X-X-X-X-X-X-X-X-X-X-X-X-X-X-X-X-X-X-X-X"
};
