/* XPM */
static char *player[] = {
/* columns rows colors chars-per-pixel */
"64 64 238 2 ",
"   c #05020B",
".  c #09050C",
"X  c #090408",
"o  c #180A0B",
"O  c #0A0514",
"+  c #0D0913",
"@  c #0E0A1B",
"#  c #070315",
"$  c #110C16",
"%  c #120D1B",
"&  c #18091B",
"*  c #16121D",
"=  c #181619",
"-  c #111311",
";  c #250D0B",
":  c #2B140C",
">  c #34150C",
",  c #281617",
"<  c #371916",
"1  c #260F12",
"2  c #19220E",
"3  c #29251C",
"4  c #36231A",
"5  c #303116",
"6  c #160E22",
"7  c #1A1523",
"8  c #1D1925",
"9  c #1E192A",
"0  c #181324",
"q  c #231C25",
"w  c #221C2C",
"e  c #281728",
"r  c #251F31",
"t  c #371D25",
"y  c #272629",
"u  c #392729",
"i  c #363627",
"p  c #262133",
"a  c #2A2335",
"s  c #2B2639",
"d  c #2E293C",
"f  c #2D2A33",
"g  c #312C3D",
"h  c #322934",
"j  c #383836",
"k  c #2B3825",
"l  c #1F2024",
"z  c #48261A",
"x  c #552A1A",
"c  c #51321E",
"v  c #6C341E",
"b  c #5A3425",
"n  c #563831",
"m  c #492B26",
"M  c #653723",
"N  c #733A28",
"B  c #451F16",
"V  c #30481B",
"C  c #384925",
"Z  c #3D5924",
"A  c #394131",
"S  c #43572B",
"D  c #495637",
"F  c #4F4836",
"G  c #774D32",
"H  c #486627",
"J  c #4E6835",
"K  c #56783B",
"L  c #52762B",
"P  c #6D722F",
"I  c #322D41",
"U  c #363145",
"Y  c #3A354A",
"T  c #3D394D",
"R  c #383346",
"E  c #39394E",
"W  c #113245",
"Q  c #433E53",
"!  c #41394A",
"~  c #3F4141",
"^  c #485947",
"/  c #454156",
"(  c #49445A",
")  c #4B485B",
"_  c #565854",
"`  c #4C4D48",
"'  c #4D6743",
"]  c #536A46",
"[  c #596756",
"{  c #5B784C",
"}  c #65645C",
"|  c #687557",
" . c #4F4B61",
".. c #514E63",
"X. c #565569",
"o. c #5A596E",
"O. c #575567",
"+. c #5D5D72",
"@. c #5C6B64",
"#. c #656864",
"$. c #616276",
"%. c #666A73",
"&. c #727671",
"*. c #775843",
"=. c #854829",
"-. c #935434",
";. c #AA582F",
":. c #B96838",
">. c #9D613C",
",. c #CA703C",
"<. c #97734A",
"1. c #AE7949",
"2. c #835E47",
"3. c #CF7B43",
"4. c #58862C",
"5. c #5A8435",
"6. c #5B9127",
"7. c #628A3A",
"8. c #689A36",
"9. c #639A2C",
"0. c #6FB22E",
"q. c #70B32F",
"w. c #6EAC34",
"e. c #6BA534",
"r. c #71AC3B",
"t. c #70A939",
"y. c #72B433",
"u. c #76B53A",
"i. c #78B63D",
"p. c #76B838",
"a. c #69A72E",
"s. c #749958",
"d. c #6B8B4A",
"f. c #73AA43",
"g. c #76A94A",
"h. c #7BB742",
"j. c #7DB845",
"k. c #7FB948",
"l. c #7BB149",
"z. c #7CA855",
"x. c #7FB153",
"c. c #798870",
"v. c #5E8444",
"b. c #B38955",
"n. c #82BA4C",
"m. c #87B947",
"M. c #86BC53",
"N. c #88BD56",
"B. c #8CBE5C",
"V. c #84B359",
"C. c #89B255",
"Z. c #838A75",
"A. c #8EBE62",
"S. c #8AB366",
"D. c #8BAA77",
"F. c #96B877",
"G. c #8DB26D",
"H. c #D28B50",
"J. c #E48A4C",
"K. c #E69755",
"L. c #F89B56",
"P. c #FBA65D",
"I. c #D7A864",
"U. c #FEAC61",
"Y. c #F4AB61",
"T. c #FEBB6C",
"R. c #F9B467",
"E. c #EAB368",
"W. c #D2A450",
"Q. c #8DC15C",
"!. c #92C065",
"~. c #96C26C",
"^. c #98C36F",
"/. c #9BC474",
"(. c #9EC579",
"). c #9EC877",
"_. c #A1C77D",
"`. c #A0C87A",
"'. c #FECB76",
"]. c #FCC773",
"[. c #FFD17A",
"{. c #FFC06F",
"}. c #9A9839",
"|. c #737B84",
" X c #7E868D",
".X c #8A9297",
"XX c #8E928E",
"oX c #96A988",
"OX c #9AB784",
"+X c #9CAD99",
"@X c #A6B898",
"#X c #A1B88F",
"$X c #9198A3",
"%X c #B9BCB7",
"&X c #ABB4A6",
"*X c #A3C781",
"=X c #A5C883",
"-X c #AACB8B",
";X c #A7C68A",
":X c #AECC92",
">X c #ABC399",
",X c #B1CD95",
"<X c #B4CE9C",
"1X c #B2C79E",
"2X c #B7D09F",
"3X c #B5D19A",
"4X c #B7C7AA",
"5X c #BAD1A4",
"6X c #BDD2A9",
"7X c #B7D0A0",
"8X c #BBC7B4",
"9X c #BDCAB6",
"0X c #B4C7A6",
"qX c #C0D4AE",
"wX c #C2D8AD",
"eX c #C2CBBD",
"rX c #C0CDB6",
"tX c #C3D5B3",
"yX c #C6D5B9",
"uX c #C8D7BB",
"iX c #CBD8BE",
"pX c #C7CCC4",
"aX c #CAD2C5",
"sX c #CED9C3",
"dX c #CED3CA",
"fX c #D3DBCB",
"gX c #D0D9C9",
"hX c #D6DDD1",
"jX c #D9DED5",
"kX c #DCDED9",
"lX c #D3D6D2",
"zX c #DEE0DC",
"xX c #E0E1DF",
"cX c #E3E2E4",
"vX c #E6E4E9",
"bX c #E8E5EB",
"nX c #EAE9EB",
"mX c #E0DFE1",
/* pixels */
"@XeX1Xg.f.F.eX9XG.f.g.4XeX#Xf.f.OXeX9XS.f.V.4X9XOXf.f.>XpX4Xx.f.S.9XeXF.f.g.>XpX0Xg.f.F.eXeXG.f.g.4XpX>Xf.f.OXeX8XV.f.V.8XeXOXg.",
"8XvXsXi.q.=XcXcX^.0.k.gXvX6Xy.y.,XvXzXN.0.N.zXvX,Xy.y.6XvXgXn.q.!.cXcX=Xq.u.iXvXsXi.q.=XcXcX^.0.k.gXvXyXy.q.-XvXzXB.0.N.kXvX:Xr.",
"@XuX5XN.n._.yXyX/.n.B.5XuX,XN.8.c.&XhX^.n.A.yXiX-Xn.M.:XuX6XB.n.~.yXyX_.n.M.<XuX5XN.n._.yXyX/.n.B.5XuX<XM.n.=XyXyX~.n.!.yXyX=Xx.",
"g.u.B.gXjX-Xu.i.<XjXiXn.u.!.jX&.q j %XeXaXyXk.u./.hXgX!.u.n.uXjX<Xi.u.-XjXgXB.u.B.gXjX-Xu.u.,XjXiXn.u.!.gXjX=Xu.j.wXjXyXk.u./.9X",
"f.q.M.kXvX,Xy.y.6XvXhXn.y.!.xXpX} q j j XXiXi.y./.cXcX!.0.j.gXvX6Xy.y.,XvXzXB.0.M.zXvX,Xy.y.3XvXgXk.0.!.cXvX-X0.u.uXvXsXi.0.(.aX",
"F.=X-X<X<X-X*X=X-X-X(.K H K #.#.] S y g ) } J e.7.#.;X=X=X*X,X<X=X_.=X:X<X<X=X*X=X<X<X-X=X=X-X<X:X_.=X-X<X3X-X=X=X-X,X,X=X=X-X;X",
"8XcXgXj.y.=XmX%Xz.9.4.y 7 w 9 7 S 4.y T Y d d L H k 5.0XvXhXn.y.!.xXcX*Xy.u.yXvXsXi.y.=XcXcX^.y.j.gXvXyXu.y.-XcXzXB.0.N.kXcX,Xr.",
"4XcXsXj.y.=XdX~ 8 8 8 p R / / / g 8 0 Y ..O./ y S 8.j XXkXgXM.y.!.zXcX_.y.i.yXcXuXj.y.*XxXzX~.y.k.sXcXwXu.y.-XcXjXB.y.N.jXcX:Xr.",
"S.!./.5X6X-XB.7.Z.#.% 6 0 w U / Q Y U p Y ..O.p y k y a { ~.<X6X-X!.~.-X6X5X/.!./.5X6X-X!.!.-X6X<X~.!./.5X5X*X!.~.,X6X<X~.!._.>X",
"f.0.M.jX+Xs.y.y.wX%X_ C ^ _ Q I Y ) ..U I Y ..a % % r O Z k.gXbX6Xy.0.,XbXzXM.0.M.zXvX<Xy.y.7XbXhXk.0.B.xXvX=X0.y.uXbXsXu.0.(.aX",
"x.k.!.yXA C t.n.3XyX&Xf.OX&X..a d / o. .U a Y p 0 @ 9 O S B.yXsX,Xn.n.-XsXuX~.k.A.uXsX:Xn.n.:XsXyXB.n.~.iXsX*Xn.M.5XsX6XM.k.(.4X",
"0XgXyXk.k 9 ` 8X/.7.j j ) ..) / d r ( ( Y p 7 7 % O O # #.iXB.i.!.sXgX_.i.j.6XhXyXn.i._.hXgX^.i.n.uXjX5Xk.i.-XhXgXB.i.B.sXhX-Xf.",
"8XvXsXu.6.Z h o.[ _ / ..O.o.O.( Q U I Q Y r O O O # O * j } D S D #.} d.y.u.yXbXsXi.0.*XvXcX~.0.j.gXvXyXy.0.-XvXzXM.0.M.zXbX,Xt.",
"#X5X,X/./.s.C a I U U T ) o.O...( Y s I a e < & % % % a h h h h h a a S L 4.F.5X<X~.!.=X6X5X_.!.~.<X5X,X~.~.=X5X5X(.~./.<X&XOXS.",
"f.y.M.pXkX<X8.i q 7 O @ s Q / O./ s p @ % , N u r a w Y ( ( ( ( / Y Y d a y 4.e.V.hXcX:Xy.u.5XcXgXn.y.!.zXcX=Xy.j.uXcXuXf.^ XXpX",
"f.y.8.A &X2Xj.&X%X&.+ 7 0 0 6 0 6 @ @ # z N u r g Q T / ( ( ( ( ( ) ( Q Q Q j i D dXcX,Xy.y.<XcXgXk.0.!.zXcX=Xy.i.uXcX8X[ ` Z.aX",
"OX,XF.H [ [ D #.%._ d a w 7 7 7 @ # O , < m w I Y T .. .( ( ( ..o.o.O. .( ( / R h } G.=X,X:X_./.(.-X,X-X/./.=X,X:X=XoXc.{ F | F.",
"9XvXgXj.V = O + @ 9 I a r a g g 9 @ O < , 7 a Y T Q o...( (  .+.+.O.o...( ..O.) R h H F.cXcX~.0.j.gXvXyXy.0.-XvXkXV.{ @.r.S J r.",
"0XgXyXM.j.J * * w 9 @ O O 9 / Q g 9 O O 7 s Q U / +.( / ( ) +.+. .I Q (  .o.( ) ..( g } pXgX/.j.M.uXjX6Xk.j.-XjXpX%. X@Xr.D K k.",
"x.n.B.uXgXF.L , O O # # 0 d Q a 7 @ O 7 p d / ( O.+.( I Q o...Q s s I ( o.( I T ..o.p w D k.,XgXyXB.n./.sXgX=Xz.%.$XoXg.^ 5.F.8X",
"f.0.M.kXvX-Xa.L | &.&.8 r U s 6 C Z + w a s I ( .. .I s / o.Q r 6 e Y Q T r 7 a Y  .s w i w.3XbXhXk.0.!.cXcXoX| .XD.s.' ] e.`.aX",
"V.B.~.6XyX=XB.Q.,X8XXXg r s w k d.z.* w a a a Q / Y a I /  .a 6 e n ! d h n n m a / I y j V.-XyX5X!.B./.9X%X.X|.@Xs.] ] B.B._.>X",
"4XzXuXj.y.=XzXzX^.4.y Q p @ = 8.-X%X7 9 a a a T U a a U Y I 6 & G K.u 6 n Y.L.>.7 Q U 9 d pX/.y.k.sXxX6Xf.@..X@Xf.^ K n.gXzX:Xf.",
"8XcXsXi.q.=XcXcX^.4.3 h J Z = 8.-X%X7 O 8 d d d s a a I s 6 @ -.J.K.t G I.{.T.<.6 U K S d pX^.0.k.gXvX&X[ $XD.g.' 7.e.M.jXvX:Xr.",
"F.-X=X-X-X-X-X-X-Xs.y J 8.L y F.-XD.* # 7 a q *.<.2.e s r & G H.J.-.e n b.[.'.<.@ y D.| y F.=X-X=X-X#X.X XOXs.K { F.-X-X-X-X=XOX",
"f.q.n.jXvX,Xy.y.wX$Xi e.p.4.` pX-X9.* # 0 8 % H.U.H.n h e e H.U.1., , & m I.{.<.* F &XXXk e.<XvXgXg.| |.@Xg.K ' u.yXvXsXi.0.(.pX",
"g.u.M.gXzX:Xu.i.5XXXi t.i.A.aXkX-X8.* # # O % H.K.,.K.n & t H.P.K.;.;.x & u I.<.y &XjX:Xr.u.<XcXdX%..X#Xf.^ { u.i.6XxXuXk.y.(.eX",
"@XuX5X!.B.=XyXyX_.g.8.5XiX,XB.B.-X8XXXy # O & H.K.:.R.n n H.L.T.T.I.}.S u b.T.<.y V.B.*XyXyX=XD.|.$XD.s.' 5.F.yXwX~.B.^.yXyX-XV.",
"8XvXsXi.0.=XvXcX~.0.n.hXvX6Xy.0.-XvXhXj # O & G 1.3.T.-.>.U.U.{.[.].m.P >.T.'.<.3 w.0._.vXcXD.{ |.oXs.K ' e.-XvXzXM.0.M.kXvX,Xr.",
"1XgXwXM.n.=XgXsX/.n.B.yXgX<XM.n.-XgXyX` % O o o M 3.E.,.3.U.U.T.[.].m.W.L.U.{.b.m 8.j._.gXpX|.&.@Xg.' ' n.n.-XgXiXA.k.A.iXgX-Xk.",
"g.k.B.sXjX:Xk.k.5XjXsXN.j.~.gXjX-Xj.n.8Xo.  #   o < v ;.J.P.U.{.[.[.].'.{.U.P.K.:.m oX:Xg.@.$X+Xf.^ K V.gXjX=Xj.k.6XhXyXn.j._.9X",
"f.0.n.jXvX,X0.y.6XvXhXk.0.!.cXvX-X0.u.iX%XXXXXy   X ; -.,.J.P.T.'.[.[.[.'.U.:.=.G XXpX+X@..XD.s.' 5.e.Q.zXvX*X0.y.yXvXsXu.0._.pX",
"G.^./.<X3X=X~.^.-X3X,X/.^.(.<X3X=X~./.:X5X<XXXy + * * x -.,.J.L.Y.{.'.E.K.K.=.n | ,X&X.X|.#Xs.{ ] S.^./.<X<X*X~./.-X3X,X/.~._.>X",
"8XcXiXi.y./.cXzX~.y.k.gXcX5Xy.y.-XcXkXB.w.5.y w a U d % x ;.:.,.J.U.T.K.,.:.b &.uXf.[  X@Xf.' ' j.sXcXwXu.y.-XcXkXB.y.N.jXcX:Xr.",
"8XcXiXi.y.(.cXxX~.y.k.gXcX5Xy.y.-XcXkXQ.H y ) O.o.o./ s q 1 , =.,.J.P.T.W.c XXlX%X_ .XOXg.^ 5.w.k.gXcXwXu.y.-XcXjXN.y.N.jXcX:Xr.",
"G.^./.<X<X;X^./.-X<X,X/.~.(.<X<X=X/.F.H k Y +.$.$.$.o...T w w 4 z x G G G i _ #.} .XD.s.] v.F.7X,X(./.(.<X<X*X^.^.-X<X,X(./.=X;X",
"f.0.M.kXvX,X0.y.6XvXhXk.0.!.cXvX-X0.a.2 y ..$.$.$.$.O.O./ d p 8 % @ 1 , , y ) ! j oXs.K ' r.6XvXgXk.0.!.cXvX=X0.u.yXvXsXu.0.(.pX",
"g.k.B.sXhX-Xj.k.<XhXuXM.j.~.gXgX;Xj.f.2 y  .+.$.$.o.R U U g & p W W 4 4 w 9  X|.^ 8.^ ] j.k.7XjXsXM.j.~.gXgX_.j.n.wXjXyXn.j.(.9X",
">XgXwXM.k._.gXsX/.k.M.yXgX<Xn.k.=XgXrXy y ( ) +.o.( / O.+.O.s *   = b.I.b.g h #..XA y | sXgX_.n.B.yXgX5Xn.k.=XgXuX!.n.!.iXgX-Xk.",
"8XvXsXu.0.*XvXcX~.0.j.gXbX6Xy.0.-XvXlXy 8 / ( o.+.O.o.$.O.T 0 F <.<.E.'.E.1.4 j #./ q } cXcX/.0.j.gXvXyXy.0.-XvXzXM.0.M.zXvX,Xr.",
"@XyX3X~.A.*X5X<X(.!.~.5XyX:X!.!.-X8XXX= * Y ( O.+.$.$.+./ a u 1.T.[.'.T.E.R.z - u T * ^ wXwX_.!.~.5XyX<X~.~.-XyX6X~.!./.6XyX-XS.",
"f.y.M.gXcX0Xy.y.5XcXgXn.y.!.jXkX*X4.o   + r / ( ..$.$.) a , H.U.U.'.T.H.:.E.m   . .   V u.u.<XcXgXn.y.A.kXcX=Xy.i.yXcXiXk.y.(.eX",
"f.y.n.jXvX5Xy.y.6XvXgXk.q.~.dX_ i 5 > X   % s Q ( / ( p o ; x H.{.{.U.,.:.J.4 % p p O V y.y.<XcXgXk.0.B.zXcX=X0.u.yXvXsXi.0.(.pX",
"F.-X=X*X=X=X-X-X=X=X=X-Xv.J } , : > , q % O w T ( T p + . , x G 1.U.P.>.x M o 0 I a C v.-X-X_.*X*X=X-X=X=X=X=X-X-X=X-X-X-X-X=XF.",
"8XcXsXi.q.(.cXcX^.a.8.+X` ; > > z z % I r O 7 Y / I & o , m N : c J.3.b O O   7 s 8 6.`.cXcX~.0.j.gXvXyXy.0.-XvXkXM.0.M.kXvX,Xr.",
"4XzXuXk.y./.kXjX~.L = $ z M > X . + % 7 7 % O U I $ < z =.;.u + > =.> * w 8 O % 9 + 4.(.kXjX~.y.k.iXkX6Xu.y.=XkXgXB.y.B.hXzX:Xf.",
"V.B.~.6XQ.7.F F C 5 z z 4 , X . # @ p 7 7 * O % , < x v M , +   X ; . O % 8 7 @ y XX4X,XB.B.-XyX5XA.M./.wXyX_.N.B.,XyX<X!.B._.0X",
"f.q.r.c.{ ] _ c z z b z , 2 Z = % w g w 7 7 * O 1 x x x :   +     + % + O 7 w + y lXbX6Xy.y.<XbXhXk.0.!.cXvX=X0.y.yXbXsXu.0.(.aX",
"V.N.g.g j #.XXG M c 4 i j D 6.y r I I w w 9 7 % , z B o . O 7 + . * 7 % + 7 w % y 0XuX,XN.N.:XuX6XA.M./.yXyX_.M.B.<XuX5XB.M._.0X",
"4XzX&Xy 4.K g , ; o 4 %XjXXX* a g I I a a s % * % . . $ * 7 a %   * 7 * % % w 9 3 r.u./.jXjX^.u.n.iXkX6Xi.u.-XkXhXA.u.B.gXkX-Xf.",
"8XbX&Xq 5 5 y Z.d.L 7.aXnXXX$ s Y Y I d I d * 7 * $ $ % % % a % . * % 7 7 % r r q k 6.^.cXcX~.0.j.gXvXyXy.0.-XvXzXB.0.M.kXvX,Xr.",
"OX,XOX#.} D H ;X=X).`.:XoX_ 7 U Q Q I Y R d 7 w w * * $ $ % 7 % $ 7 $ 7 w % 9 w 7 + d.=X3X3X`./.(.,X3X:X(./.=X3X<X_./._.<X3X-XF.",
"f.y.n.hXcX:Xy.y.5XcXgXn.C % a Q ( Q I Q T d 7 s a * * . + * + $ 7 w % 7 w * % 7 7 $ +X5Xy.y.5XcXgXn.y.!.zXcX=Xy.u.yXcXiXi.y./.pX",
"f.y.n.jXcX,Xy.y.6XcXgXn.C 7 Y / T Y Q / R p w d a * * . . * % 7 w w * 7 w w * 7 7 $ $X3Xy.y.5XcXgXn.y.!.zXcX=Xy.u.yXcXiXj.y./.pX",
"OX3X:X(./.-X5X<X=X/.G.Z y s Y ( T U / ( U w a w 8 7 w + . 7 8 8 w w 7 7 7 w 7 7 7 * j c.,X<X-X/.(.,X<X-X(./.-X<X<X_./.(.5X5X-XF.",
"8XvXsXi.0.*XvXcX~.q.9.- 7 I I Y T T / Q d w d 8 * * p + . 7 w 7 7 w w 7 7 w % $ % %   _ cXcX/.0.j.gXvXyXy.0.,XvXzXM.0.M.zXvX,Xr.",
"0XjXyXn.j.*XgXgX/.k.t.- 7 g d a U Q / U w 7 s 8 $ . w + . 7 w 7 7 a w 7 7 w . .     . _ gXhX(.j.M.uXjX6Xk.j.-XjXgXB.j.B.gXjX:Xg.",
"x.n.A.uXgX-Xk.n.<XgX4X= . $ o o $ q Q U w % 7 7 $   .   . $ % $ $ % $ + O O , < ; o &.#Xn.n.,XgXyXB.n./.sXgX*Xn.M.5XgXwXN.n.`.8X",
"f.0.n.jXvX,X0.y.6XbXpX3 : z b b z < a 8 % O O O . - S H V . . o , z z , o < b M x c F d.y.y.3XbXhXk.0.!.cXvX=X0.u.uXbXsXu.0.(.eX",
"V.B.~.5XyX-XB.B.:XyX@X3 z N =.=.G c ; . = 3 j j y V w.Q.s.j k , < b b < o < x b b b > S Q.B.-XyX5X!.B./.wXyX*XB.A.<XyX3XA.B.(.>X",
"4XzXuXj.y./.kXkX~.y.e.5 M =.G G =.M : o H V.aXlX*Xw.u.6XkXaXj.V = q q , , , 3 3 4 4 > | zXkX^.y.k.sXzX6Xu.y.-XzXjXB.y.B.hXzX:Xr.",
"8XcXsXi.0./.cXcX~.0.i.@X_ : : : : ; o X H Q.kXcX:Xy.y.yXvXgXn.a.z.%X%XG.9.8.@X%X@Xe.9.F.cXcX^.q.k.gXvXyXy.0.-XcXkXB.0.M.zXvX,Xr.",
"F.=X=X:X,X:X=X*X=X-X-X=Xd.K Z.Z.| H H | oX,X-X-X-X,X,X-X-X-X:X,X-X=X=X-X:X:X-X=X=X,X,X-X`._.-X,X-X_.*X=X-X-X=X`.*X:X,X:X-X-X-X#X",
"g.w.V.aXlX<Xr.r.>XlXyXk.r.A.dXgX*Xu.j.9XhX8Xh.r.F.lXaXA.w.j.rXlX<Xr.w.;XlXaXV.w.V.aXlX;Xr.r.>XlXyXk.w.A.dXlXF.w.r.8XlX9Xh.w.F.8X"
};
