/* XPM */
static char *player_left[] = {
/* columns rows colors chars-per-pixel */
"64 64 244 2 ",
"   c #D8D8D8",
".  c #373E49",
"X  c #DDDDDD",
"o  c #6E8092",
"O  c #25262E",
"+  c #6C707A",
"@  c #E0E0E0",
"#  c #D2D3D4",
"$  c #E1E1E1",
"%  c #FFFFFF",
"&  c #252025",
"*  c #DCDCDC",
"=  c #6F7680",
"-  c #878C94",
";  c #797D86",
":  c #3B383E",
">  c #838892",
",  c #E1E2E2",
"<  c #E1E1E1",
"1  c #DBDCDC",
"2  c #E0E0E0",
"3  c #9DA1A8",
"4  c #E1E1E1",
"5  c #E3E3E3",
"6  c #B8AA92",
"7  c #16121B",
"8  c #1E181F",
"9  c #443F44",
"0  c #DFDFE0",
"q  c #CACACC",
"w  c #A6AAAF",
"e  c #8B8F97",
"r  c #1F1B26",
"t  c #383A49",
"y  c #717179",
"u  c #4D4C54",
"i  c #DF9855",
"p  c #7D818C",
"a  c #C3C5C8",
"s  c #E0E0E0",
"d  c #ECECEB",
"f  c #E1E1E2",
"g  c #DADADB",
"h  c #E1E2E2",
"j  c #EBEBEB",
"k  c #DFDFDF",
"l  c #E1E1E1",
"z  c #E0E0E0",
"x  c #C9CACD",
"c  c #BDBEC1",
"v  c #ABACB1",
"b  c #E2E2E2",
"n  c #E0E0E0",
"m  c #E0E0E0",
"M  c #DFE0E0",
"N  c #E3E3E3",
"B  c #E4E5E5",
"V  c #C5C7CA",
"C  c #19151D",
"Z  c #42322F",
"A  c #383B4B",
"S  c #4D4C56",
"D  c #17111B",
"F  c #3C3C48",
"G  c #332F38",
"H  c #565968",
"J  c #9F9FA3",
"K  c #AAAFB8",
"L  c #BDBEC1",
"P  c #E0E0E1",
"I  c #E1E1E1",
"U  c #DFE0E0",
"Y  c #D0D0D2",
"T  c #B8BCC2",
"R  c #706C6E",
"E  c #AEB0B6",
"W  c #9A9DA5",
"Q  c #140D16",
"!  c #2E1D1D",
"~  c #3C3840",
"^  c #05020B",
"/  c #09050C",
"(  c #090409",
")  c #180A0B",
"_  c #060213",
"`  c #0A0514",
"'  c #0E0914",
"]  c #0E091B",
"[  c #0C0817",
"{  c #120C15",
"}  c #120D1A",
"|  c #190A1A",
" . c #16111E",
".. c #19131A",
"X. c #110D16",
"o. c #260D0B",
"O. c #2B140D",
"+. c #281617",
"@. c #371915",
"#. c #33150D",
"$. c #37221B",
"%. c #31231F",
"&. c #160E21",
"*. c #161222",
"=. c #1B1524",
"-. c #1D1826",
";. c #1E1929",
":. c #1D1828",
">. c #1C1826",
",. c #221C2C",
"<. c #241B26",
"1. c #251F31",
"2. c #2C1E26",
"3. c #2A232B",
"4. c #3A2729",
"5. c #262132",
"6. c #292335",
"7. c #2C2639",
"8. c #2E293C",
"9. c #2D2935",
"0. c #312B3E",
"q. c #332A33",
"w. c #363138",
"e. c #1F1C27",
"r. c #49261A",
"t. c #552A1A",
"y. c #53311D",
"u. c #6C341D",
"i. c #593426",
"p. c #51312C",
"a. c #653723",
"s. c #783B25",
"d. c #451F15",
"f. c #57433B",
"g. c #764D32",
"h. c #434353",
"j. c #332E41",
"k. c #363145",
"l. c #3B364A",
"z. c #3D394D",
"x. c #383346",
"c. c #3B3A4C",
"v. c #123245",
"b. c #53505C",
"n. c #423E53",
"m. c #413A49",
"M. c #5D5D68",
"N. c #625E62",
"B. c #454156",
"V. c #49455B",
"C. c #4A465C",
"Z. c #544F55",
"A. c #6C5D57",
"S. c #63636F",
"D. c #4F4B61",
"F. c #514E64",
"G. c #565569",
"H. c None",
"J. c #565468",
"K. c #5D5D72",
"L. c #616276",
"P. c #79767B",
"I. c #797476",
"U. c #615B5A",
"Y. c #84492A",
"T. c #925332",
"R. c #AB572F",
"E. c #BA6738",
"W. c #9E613C",
"Q. c #CA6F3B",
"!. c #977048",
"~. c #AC7A4B",
"^. c #8E7568",
"/. c #D07A42",
"(. c #F89B55",
"). c #B48955",
"_. c #D48C50",
"`. c #E48A4C",
"'. c #E79754",
"]. c #F89C56",
"[. c #FCA75D",
"{. c #D7A864",
"}. c #FDAC61",
"|. c #FEBB6B",
" X c #F8B567",
".X c #EAB267",
"XX c #FECB75",
"oX c #FEC974",
"OX c #FFD17A",
"+X c #FFC773",
"@X c #ABB2BB",
"#X c #7A7E8A",
"$X c #98969A",
"%X c #ACB3BC",
"&X c #818590",
"*X c #E0E0E1",
"=X c #DEDEDE",
"-X c #E1E1E1",
";X c #D3D4D6",
":X c #E1E1E1",
">X c #E0E1E1",
",X c #E1E2E2",
"<X c #E0E0E0",
"1X c #CACBCD",
"2X c #C1C3C7",
"3X c #E1E1E1",
"4X c #E1E1E1",
"5X c #D5D6D7",
"6X c #B8B9BC",
"7X c #CACCCE",
"8X c #E1E1E1",
"9X c #D1D2D3",
"0X c #E1E1E1",
"qX c #E2E2E2",
"wX c #C8C9CB",
"eX c #E1E1E1",
"rX c #DADADB",
"tX c #C9CBCD",
"yX c #95959B",
"uX c #CBCCCE",
"iX c #BBBABC",
"pX c #9A9FA9",
"aX c #D3D4D6",
"sX c #DDDDDD",
"dX c #D1D2D4",
"fX c #E1E1E1",
"gX c #E0E0E0",
"hX c #E1E1E1",
"jX c #E0E0E0",
"kX c #D1D1D3",
"lX c #E1E1E2",
"zX c #DFDFE0",
"xX c #E1E2E2",
"cX c #E1E1E1",
"vX c #D9DADA",
"bX c #D1D1D1",
"nX c #E4E4E4",
"mX c #EAEAEA",
"MX c #E8E8E8",
"NX c #ECECEC",
"BX c #EDEDED",
"VX c #EBEBEB",
"CX c #E7E7E7",
"ZX c #D7D6D7",
/* pixels */
"7 L iX9Xe & 9 6XiXL & : ;XiX2X7 = s iXiXv & , 2XiX*X: & y iXwXs = 7 9XiX*X: & L iX9Xe = 9 6XiXJ & : L iX2X7 & s 6XiXv = , ;XiX6X",
"O P BXzX3   5 xXBXP     3XBXfX@   g nXBXn   . rXBX9X.   n BXnXs   @ kXBX3X    P BXzX,   3 lXBX*X    :XBXfX@   g nXBXn   . 9XBX9X",
", n 9X3Xs , s 3X9Xn , , *X9X:X, , h 9X9Xb , 3 :X9X*X3 , b 9X3Xg , 5 :X9XP , , N 9X3Xq , g lXpXR 7 , *X9X:X5 , h 9X9Xb , 3 :X6X;X",
"9Xx   @ 3XlX3X@   n lXkXs   , qXlX*X. . P lXfX,   q kXlXL . . *XlX9X@   s kXlXx   @ 3XkXiXiXw.-.S.lXs . , 9XlX*X. . P lXfX, . , ",
"dXx   . rXBX9X.   P BXnXs   @ kXBX*X    P BXzX3   5 xXBX*X    :XBXfX@   e nXnXx   . qX^.q.q.,.Z.kXzXs   @ kXBX:X    P BXzX,   & ",
"L n n b *X*XL n n P *X*Xn n n L *XP n n P *X*Xn n n *X*XP n x P *X*Xb n n L M.8 O C M.Z.0.3.C G N.S.C r r b N N b n P *X*Xn b v ",
"& P BXzX3   5 zXBXP     3XBXfX@   g nXBXn   O qXBX9X.   n BXnXs   , kXBX;X7 D r 8 8.0.z.n.>.7 C :.:.,.,.>.7 & t iXnXn   @ fXBX9X",
"& L nXlX3   5 lXnXN   . 1XnXrX@   g zXnXn   O qXnX3X.   n nXzXs   , kXxXyXe.: C <.B.G.D.l.*.>.9.B.B.B.l.6.>.X.X.c.kXb   @ rXnX9X",
";Xb s g *X:X*Xs s n :X:Xh s g *X:XP s s P :X:Xh s h ;X:XP g s L :X*Xs G 6.5.Q >.5.G.D.l.6.k.l.n.B.k.1.-.*.} S.U.7 q P :X:Xv s s ",
"kXx   . rXBX9X    n BXnX5   @ kXBX*X    *XBXzX3   3 zXBXP     :XBXfX. C } 6.*.*.6.D.l.0.k.D.C.l.j.n.Z.~ D M.iX:X    v yXzX3   & ",
"9Xx = , :XrX:X, = n rX9Xs , 5 3XrXP = , P rXqXq @ s qXrXP & = *XfX3X3 C ] ,.} -.5.z.6.k.D.H.B.8.7.F.yXR : 6XwX*X, & D w.9Xq @ 7 ",
"& L lXfX5 . 5 fXkXn @ @ :XlX9X, . h kXkXb . , 3XkX:X@ . b kXfXs O 3 qXN._ ` ` } -.=.1.l.C.B.1.8.B.C.D.B.w.w.r g 6Xh.:.D , 3XkX2X",
"O P BXzX3   , zXBXP     3XBXfX@   g nXBXn   . rXBX3X    r N.N.~ D D Z.q. .` _ ` ] ` 1.l.n.j.k.z.C.G.G.G.F.B.h.b.F.q.D & . rXBX9X",
"s R yX*Xx g x :X:Xn g g *X:X*Xg s b :X:Xn s s *X:XL 8 8 D 3.6.q.q.q.q.q.6.} } } | @.<.6.j.7.l.C.F.G.G.C.z.k.x.j.3.D t g h J :XL ",
"wX&XF & qXnXqX@   n nXzXs   @ fXnX:X    P nXkX7 O 7 3.3.0.l.l.B.C.C.C.C.l.,.6.1.4.s.+.] } 5.7.B.G.B.B.7.` ` *.<.>.& *XxXiX,   : ",
"aX^.c.h.pXBXqX.   n CXxXq   @ kXBX*X    P nXkX~ e.>.n.B.B.C.D.C.C.C.C.C.n.z.n.0.6.4.s.r.` ] ] &.-.*.*.-.-.` S.iX9X= *XyXe.&   & ",
"b R w.C M.R b *XP n x x N *XP x x x P P b R Z.q.x.B.C.C.D.G.H.G.D.C.C.C.D.F.z.l.j.,.r.@.+.` ` ] -.-.:.,.6.8.Z.K.S.C M.M.r L *XL ",
"& C F O M.G s xXBXN     3XBXfX@   g nXBXJ r q.x.C.G.D.C.D.H.G.H.H.D.C.C.D.G.n.z.l.6.-.+.@.` ] :.0.0.6.1.6.k.,.} ' { X.C @ fXBX9X",
", G D & *X&XS.kXzXN @ @ :XlX9X, @ s kXkXM.8.C.F.D.C.H.D.C.n.j.D.H.H.D.C.B.C.H.B.k.n.7.-.` ` ,.0.n.B.:.` ] ' ,.,. ...C @ , 6XkX2X",
"9Xv 8 F 8 R pXS.9 b fXrXh , 5 9XfXP , ~ <.6.G.D.z.k.C.H.C.j.7.7.n.D.G.n.j.C.H.G.C.B.8.1.=.] ] -.6.n.8.*._ _ ` ' X.8 L fXqXq @ 7 ",
"kXx O C C p R yXH R BXnX9   @ kXBX*XO ! 3.8.D.l.6.=.1.z.n.l.,.&.1.n.H.B.7.j.D.F.C.j.6.6.,.[ r D -.8.k.1.*.S.S.R 8   N BXbX,   & ",
"*Xb 5 e F C r 6X#XyXpX3Xx 5 s :X3XL e >.6.j.B.6.p.p.p.q.8.m.i.<.&.6.D.B.0.6.l.B.n.6.6.6.,.[ u r Q =.7.5.9.yX9XP 5 5 b 3X:Xg 5 e ",
"& P nXkX, r h.: *XyXM.& 1XcXrX@   s kX6.:.k.n.=.W.].[.i.| 4.'.g.| &.j.l.j.6.6.k.l.6.6.6.:.*.iXN & X.` 1.m.3.8 g zXxXn   @ 9XxX9X",
"O P BXzX, . 8 h.8 R pXM.wXBXfX@   g bX6.C r k.*.!.|.oX{.g.4.'.`.T.] &.7.j.6.6.7.7.q.q.-.` *.iXN & X.r C q.<.7 g nXBXn   . rXBX9X",
"L n P N N N y C C p R yXyX6Xn n P n v >.H R 9.} !.XXXX).p.<.Y._._.g.| 1.7.,.!.!.A.<.3.-._ [ R N L >.7 & D 2.R N n P P P N n N S ",
"kXx   . rXBX3X. G C : 6X#XF , kXBX*X. D yXpXw.} !.oX{.p.| +.+.~.[.'.<.=.6.p.'.}._.} -.-._ X.& N bXc.7   & %.pX:X    P BXlX,   & ",
"wXx   @ 9XnX3X@ O r ~ : *XyXS.kXnX*X. O *XzX6X>.!.{.4.| t.R.R.'.[.`.$.} p.'.Q.'._.} ` ` _ X.& N lXkXe   : ! yX:X. . P xXfX,   : ",
"e L 6X3Xg 5 g 3X6XJ r G u R pX#XR b 3X9Xn 5 e Q !.|.).4.D t _.|.|.]._.p.p. XE.'._.| ` _ :.yX9XP 5 , *X9X1X8 , x 9X9Xn 5 q :X9X;X",
"O P BXzX,   , zXBXN O C r p R #XG R nXBXn   . Q ~.XX|.!.C & +XOXoX}.}.W.Y.|./.~.g.| ` _ w.zXBXP     :XBXkX@   g nXBXn   . rXBX9X",
", P fXqXq @ q qXfXN , , F G 7 6XP.P.iXfXb @ & ! ).oX}.].U.9 +XOX|.}.}./.Q.{./.a.` ` ` } h.9XfXP , , *XfX9X5 , x rXfXb , 3 1XfX;X",
"9Xb @ , 3XkX:X@ O b lXkXe r h.: @XpXS.: L yX%.R.'.[.}.oX+X+XOXOXoX}.[.`.E.u.@.) _ _ ^ Z.9X= @ N lXkXg @ 3 rXlX:X@ @ P lXrX5 @ , ",
"kXn   . rXBX9X    b BXnX, O 8 G r S yXF 6XkXyXg.Y.E.}.XXOXOXOXXX|.[.`.Q.T.o.( ( >.#XyXiXqX    N BXnXs   @ kXBX:X    L BXzX,   & ",
";Xb g h P *XP h g n *X*Xx g s G r p @X#XyX6X*XM.p.Y.'.'. XXXoX}.'.`.Q.T.t. . .' <.$X;X*XP s g n *X*Xx g h *X*XP g g n *X*Xh g s ",
"& P nXlX3   5 zXnXN     3XnXrX@ G G : 6X&X~ : qXP.i.E.Q.'.|.}.`.Q.E.E.t.} 0.k.6.,.>.7 . 5 zXnXN     :XnXrX@   g xXnXx   @ qXnX9X",
"O P BXzX3   3 lXnXN     3XBXfX@ O 8 h.: R yXM.iXkX^.r.{.|.[.`.Q.Y.+.+.<.7.B.H.H.G.C.>.r 5 zXnXN     :XnXrX@   g nXnXx   O qXnX9X",
"L n x x L *XL g g n *X*Xx h x *X*XL r G p S yXN.A.Z.4.g.g.g.y.r.$.,.,.z.F.H.L.L.L.H.l.Q C x x n *X*Xx g x *X*XL h g n *X*Xx g s ",
"dXx   . rXBX9X    n BXnXq   @ kXBX:XO C r r R w.m.C.q.+.+.+.] } -.6.8.B.G.G.L.L.L.L.D.5.Q .   P BXnXs   @ kXBX:X    P BXzX,   & ",
"9Xx @ , 9XlX3X@ @ n kXfXg @ , qXlX*X@ @ G e.& h.#X&X:.,.4.$.v.v.5.| 0.k.k.l.H.L.L.H.D.3.Q & @ n kXfXs @ , qXkX*X@ @ P kXrX, @ 7 ",
", P fXqXs , s qXfXn @ , :XfX3X, , b fXrXM.3.%.yXN.q.0.).{.).{ ^ } 6.F.H.F.B.C.H.H.C.C.3.>.9XfXn @ = *XfX3X, @ h rXfXb @ , 1XfX;X",
"O P BXzX,   , zXBXP     3XBXfX@   x BXCXN.3.B.A.q.$.~.+XXX.X).!.f.*.z.G.L.G.G.H.H.C.B.-.3.bXBXP     :XBXfX@   g nXBXn   . rXBX9X",
"e n 3X1Xh s s :X3XP g s *X3X;Xs q b 3X1X~  .z.4.) r. X.X XXXOX|.~.4.6.B.H.L.L.K.G.C.l.-...yX9Xn 9 q P 3X:Xs s x *X:Xb q s *X3X;X",
"wXx   @ qXnX3X.   n nXzXq   = fXnX*X    C ^ ( ( ( r. XE._.|.XX}.}._.+.6.C.L.L.D.C.B.5.{ ( ( 7 n vXzXs   , fXnX:X    :XnXkX,   : ",
"aXx   . rXBX9X    n nXzX5   @ kXBX*X    C ' 6.6.} $.`.E.Q.}.oXoX_.y.o.| 5.C.C.C.n.7.} ^ ( O.Q ! Z.kXs   @ kXBX:X    :XBXlX,   & ",
"v n P P N P n N N n n n b P n b n n N P C D 6.j.*.) a.y.W.[.}.~.g.r.+./ ' 5.l.C.z.,.` } <.+.@.O.+.Z.D r n b b b P P n b n n N y ",
"O P BXzX,   3 zXBXN     3XBXfX@   g nXnXs 7 -.7.-.^ ` ` i./.`.y.O.s.p.+.) | j.n.l.-.` 1.j.} r.r.@.@.o.Z.yX7 . g nXnXx   . rXBX6X",
"& P xXkX3   , kXzXn   . :XzXqX@   g zXzXh 7 [ -.} ` -.,. .O.T.@.' 4.R.Y.r.@.{ j.k.` } -.-. .` ( / @.a.r.[ X.8 g bXvXx   @ 9XnX9X",
";Xb 5 s *X3X*X, 3 x 3X1Xh 3 q :X3XP , 5 P 6XyX:.{ -.-.} ` ( o.( ( { O.a.u.r.@.+.} `  .-.-.5.] ^ ( ) O.$.r.t.! ! f.f.r , *Xg , 9 ",
"kXx   . rXBX9X    n BXnXs   @ kXBX*X    :XBXbX<.' ,.-.' ` } ' ^ ^ ' ( O.r.y.r.o.( } -.-.,.0.,.} X.C Q +.r.y.r.r.t.Z.G G M.@   & ",
"2Xx 3 5 :X9X;X5 3 n 9X3Xh , q 1X9XP 3 3 *X9X;X>.} ,.-.' } -. .( ' -.( ( ) d.r.+.} -.:.,.,.j.j.5.e.7 D w.%.@.y.a.g.yXS.w.2.8 , e ",
"& L zXkX5   q kXzXn   O :XzXqX@   s lXzXx   O Q ,.,.} {  .-. .^ } 6.-.} { ( ( }  .} 7.6.5.j.j.8.6.X.yXzXpX+.) ) +.0.r 8 3.yXjX6X",
"O P BXzX,   5 xXBXP     3XBXfX@   g nXBXh & D >.1.,.} -.-.}  .( } 6.} } } } '  .-.*.8.j.8.j.l.l.7.' yXBXkX8 7 Z P.3.Q Q <.pXBX9X",
"v N *X*Xb x b *X*Xn x x P *X*Xx x b *X*Xb A ' -.,.-.} ,.-.{ -.{ } -.] ' }  . .,.,.-.8.x.l.j.n.n.k.-.Z.$XP x h b L C ~ A.N.R *XL ",
"iXh   . qXBX9X.   b nXxXs   @ kXBX:X    *XpX{ -.-.}  .,.-.} ,.-.{ '  .( (  . .6.7.-.7.z.n.j.n.C.n.6.-.C @ kXBX:X    P nXkX,   & ",
"iXh   @ qXBX9X.   n nXxXs   @ kXBX:X    *XyX{ -.-. .,.,.-. .,.,.-.}  .( ^  .*.6.8.:.5.x.B.n.l.z.B.l.-.D @ kXBX;X    P BXlX,   : ",
"v P 1X:Xx h b *X*XP x x P *XP x x n *X*XM.w. .-.-.-.,.-.-.-.,.,.:.-.-.( ' ,.-.-.,.6.,.k.C.C.k.z.C.l.8.e.C v x n :X:XP x x *X*XR ",
"O P BXzX,   3 zXBXP     3XBXfX@   x BXnXZ.^ } } { } ,. .-.,.1.-.-.,.-.( ' 6. . .-.8.,.8.n.C.z.l.l.j.j.:.X.O   g nXBXb   . rXBX9X",
", P lXfXq @ q fXlXP @ @ :XlX9X, @ x kXkXZ.( ( ( ( { ,.-.-.3.6.-.-.,.-.( ' ,.( { -.7.-.,.k.B.B.k.6.8.8.-.X.: @ h fXkXn @ , 9XlX6X",
"9Xb = 3 3XfX:X, , b fXrXh , 5 9XfX*X, = L P.) o.@.@.` ` ' } } ' { } { ( ^ ' ^ } -.-.} ,.k.n.<.{ ) { { ( ..9XfX*X= @ P fXqXq , 7 ",
"dXx   . rXBX6X    n BXnXs   @ kXBX*X    Z f.y.i.a.y.@.) +.r.r.@.| ` ( D r C X.` ` ` ` } -.3.@.r.y.y.r.O.<.bXBX:X    P BXzX,   & ",
";Xx 5 q *X3X*Xq 5 n 3X1Xx 5 s :X3XP 5 5 D @.a.a.i.i.@.) @.i.i.@.X.D w.A , O D >.9.3.Q X.( o.y.g.Y.Y.s.r.+.*X3XP 5 5 n 3X;Xs 5 e ",
"& L xXkX,   q lXxXn   . 1XxX9X@   g zXzXM.Q #.+.+.+.X.X...<.<.X.C & wXcX:X. . L bXkX, C ) O.a.Y.g.g.Y.a.! &   g bXzXx   @ 9XxX9X",
"O P BXzX3   5 xXBXP     3XBXfX@   g nXnXv O & 6XiX6X& & R iXiXr O @ kXBX3X    P BXzX, r ) ) +.O.O.O.O.Z.6XO   g nXnXx   . qXBX9X",
"L N N N P *XL n b n P P n b b P *Xn b b n L L b b n P P P n b N J P N v P *X*XL n n P I.N.C r R P.P.G r b v P n n n P *XP b b v ",
"wXx . & 9XvX3X@ . v zXkXs . & wXvX*XO O L zXwX, . 7 aXbXL . O ;XbX6X= . s kXzXn . @ 9XbX9X& . n kXkXs . , wXbX;XO O ;XvXkX, . : "
};
