/* XPM */
static char *_f151466dcb34280f316595aab83f666KTi8hKAYc5E6DLjT[] = {
/* columns rows colors chars-per-pixel */
"484 774 254 2 ",
"   c #0C0301",
".  c #090906",
"X  c #0C0A04",
"o  c #130401",
"O  c #1B0502",
"+  c #140B03",
"@  c #1B0C04",
"#  c #140B09",
"$  c #1C0D0A",
"%  c #0F110A",
"&  c #191208",
"*  c #1C130B",
"=  c #1C1712",
"-  c #260A05",
";  c #350C06",
":  c #23140B",
">  c #2A150A",
",  c #24190D",
"<  c #33140C",
"1  c #3A170B",
"2  c #290F11",
"3  c #241813",
"4  c #241B12",
"5  c #2B1D13",
"6  c #361B13",
"7  c #1D2119",
"8  c #2B2318",
"9  c #362A17",
"0  c #37271A",
"q  c #392D23",
"w  c #3C3224",
"e  c #31302B",
"r  c #3C3529",
"t  c #420F06",
"y  c #441A0C",
"u  c #49190B",
"i  c #531B0C",
"p  c #5A1D0D",
"a  c #441C12",
"s  c #4C1E13",
"d  c #571E12",
"f  c #621F11",
"g  c #4C2214",
"h  c #47271A",
"j  c #542314",
"k  c #5C2314",
"l  c #502C17",
"z  c #5B2A16",
"x  c #54251A",
"c  c #5C251A",
"v  c #542A1C",
"b  c #5B2A1B",
"n  c #63220E",
"m  c #632515",
"M  c #632A16",
"N  c #6B2816",
"B  c #63261A",
"V  c #642B1B",
"C  c #6B2C1C",
"Z  c #752C19",
"A  c #722E1C",
"S  c #65311C",
"D  c #6C311E",
"F  c #73321E",
"G  c #7A341E",
"H  c #472C22",
"J  c #572C22",
"K  c #443324",
"L  c #4B3524",
"P  c #4C3926",
"I  c #44352A",
"U  c #493729",
"Y  c #453A2B",
"T  c #4C3B2B",
"R  c #533524",
"E  c #573726",
"W  c #533D2C",
"Q  c #5A3D2B",
"!  c #453B32",
"~  c #4C3D31",
"^  c #553E31",
"/  c #672D21",
"(  c #752F21",
")  c #663527",
"_  c #6C3322",
"`  c #743323",
"'  c #7B3524",
"]  c #753925",
"[  c #7C3A25",
"{  c #783829",
"}  c #7C3B2A",
"|  c #703C31",
" . c #3E413B",
".. c #54412D",
"X. c #584328",
"o. c #5B422D",
"O. c #4D4435",
"+. c #544333",
"@. c #514531",
"#. c #5B4433",
"$. c #5C4A35",
"%. c #564738",
"&. c #544A3C",
"*. c #5D4A3A",
"=. c #66462C",
"-. c #724C26",
";. c #7A432B",
":. c #634B35",
">. c #674A37",
",. c #624D3B",
"<. c #794635",
"1. c #65523D",
"2. c #6A5338",
"3. c #6B533D",
"4. c #74563C",
"5. c #56524A",
"6. c #655342",
"7. c #6B5442",
"8. c #6C5945",
"9. c #6B574C",
"0. c #6A594B",
"q. c #735643",
"w. c #745B45",
"e. c #7A5C45",
"r. c #745C4A",
"t. c #7A5E4A",
"y. c #5D615B",
"u. c #7A6347",
"i. c #75624C",
"p. c #7D624D",
"a. c #6E6455",
"s. c #7D6452",
"d. c #786757",
"f. c #7D6953",
"g. c #737067",
"h. c #7A7B75",
"j. c #82381E",
"k. c #823625",
"l. c #833A26",
"z. c #8A3C26",
"x. c #823629",
"c. c #843C2A",
"v. c #8B3E2C",
"b. c #913E2B",
"n. c #853E30",
"m. c #8C3E31",
"M. c #85422C",
"N. c #8A462A",
"B. c #8C422D",
"V. c #92442D",
"C. c #99472C",
"Z. c #94492E",
"A. c #854332",
"S. c #8D4331",
"D. c #8D4A33",
"F. c #884B38",
"G. c #924532",
"H. c #954A33",
"J. c #964A37",
"K. c #9A4C35",
"L. c #9C4E39",
"P. c #8C5437",
"I. c #9D5136",
"U. c #97543A",
"Y. c #9E523A",
"T. c #A14D36",
"R. c #A15336",
"E. c #A2543B",
"W. c #A9563A",
"Q. c #A5593D",
"!. c #A95A3E",
"~. c #A06936",
"^. c #875946",
"/. c #8C5048",
"(. c #985944",
"). c #A55942",
"_. c #AF5B44",
"`. c #87664B",
"'. c #81644D",
"]. c #816651",
"[. c #836953",
"{. c #886C57",
"}. c #966A50",
"|. c #89735B",
" X c #96765A",
".X c #A8644A",
"XX c #AF6C50",
"oX c #A77759",
"OX c #B87559",
"+X c #8A7764",
"@X c #897568",
"#X c #967B65",
"$X c #AD7A66",
"%X c #C4795A",
"&X c #C57D62",
"*X c #7E827B",
"=X c #B58652",
"-X c #9B856C",
";X c #8D8778",
":X c #9C8972",
">X c #A8876A",
",X c #B88B6B",
"<X c #A6916D",
"1X c #BA926D",
"2X c #A28D73",
"3X c #A88B74",
"4X c #B68D72",
"5X c #A89278",
"6X c #BC9474",
"7X c #B39972",
"8X c #B4957A",
"9X c #B99778",
"0X c #CA9054",
"qX c #C68A69",
"wX c #C3956C",
"eX c #C59975",
"rX c #C39C7B",
"tX c #DEA962",
"yX c #DDB56E",
"uX c #CAA27C",
"iX c #D3A777",
"pX c #7B7F80",
"aX c #7E8782",
"sX c #868B84",
"dX c #92948D",
"fX c #AC9782",
"gX c #B69A82",
"hX c #9DA19A",
"jX c #B4A38D",
"kX c #B1B2AD",
"lX c #C7A387",
"zX c #C8A686",
"xX c #D3A783",
"cX c #CFB28E",
"vX c #BDC3BC",
"bX c #E0CFA6",
"nX c #CACDC7",
"mX c #D7D5CC",
"MX c #DCD9CE",
"NX c #DCDBD2",
"BX c #D9DAD4",
"VX c #E2DCD2",
"CX c #DDE3D9",
"ZX c #EAE3C8",
"AX c #E2E6DC",
"SX c #DDE0E1",
"DX c #E9ECE6",
"FX c #EEF5EC",
"GX c #F3F6ED",
"HX c #F6FBF3",
"JX c #F5F8F5",
"KX c #FAFDF6",
"LX c #FDFDFD",
"PX c #FEFEFE",
/* pixels */
"PXPXPXPXPXPXPXPXPXPXPXPXPXPXPXPXPXPXPXPXPXPXPXPXPXPXPXPXPXPXPXPXPXPXPXPXPXPXPXPXPXPXPXPXPXPXPXPXPXPXPXPXPXPXPXPXPXPXPXPXPXPXPXPXPXPXPXPXPXPXPXPXPXPXPXPXPXPXPXPXPXPXPXPXPXPXPXPXPXPXPXPXPXPXPXPXPXPXPXPXPXPXPXPXPXPXPXPXPXPXPXPXPXPXPXPXPXPXPXPXPXPXPXPXPXPXPXPXPXPXPXPXPXPXPXPXPXPXPXPXPXPXPXPXPXPXPXPXPXPXPXPXPXPXPXPXPXPXPXPXPXPXPXPXPXPXPXPXPXPXPXPXPXPXPXPXPXPXPXPXPXPXPXPXPXPXPXPXPXPXPXPXPXPXPXPXPXPXPXPXPXPXPXPXPXPXPXPXPXPXPXPXPXPXPXPXPXPXPXPXPXPXPXPXPXPXPXPXPXPXPXPXPXPXPXPXPXPXPXPXPXPXPXPXPXPXPXPXPXPXPXPXPXPXPXPXPXPXPXPXPXPXPXPXPXPXPXPXPXPXPXPXPXPXPXPXPXPXPXPXPXPXPXPXPXPXPXPXPXPXPXPXPXPXPXPXPXPXPXPXPXPXPXPXPXPXPXPXPXPXPXPXPXPXPXPXPXPXPXPXPXPXPXPXPXPXPXPXPXPXPXPXPXPXPXPXPXPXPXPXPXPXPXPXPXPXPXPXPXPXPXPXPXPXPXPXPXPXPXPXPXPXPXPXPXPXPXPXPXPXPXPXPXPXPXPXPXPXPXPXPXPXPXPXPXPXPXPXPXPXPXPXPXPXPXPXPXPXPXPXPXPXPXPXPXPXPXPXPXPXPXPXPXPXPXPXPXPXPXPXPXPXPXPXPXPXPXPXPXPXPXPXPXPXPXPXPXPXPXPXPXPXPXPXPXPXPXPXPXPXPXPXPXPXPXPXPXPXPXPXPXPXPXPXPXPXPXPXPXPXPXPXPXPXPXPXPXPXPXPXPXPXPXPX",
"PXPXPXPXPXPXPXPXPXPXPXPXPXPXPXPXPXPXPXPXPXPXPXPXPXPXPXPXPXPXPXPXPXPXPXPXPXPXPXPXPXPXPXPXPXPXPXPXPXPXPXPXPXPXPXPXPXPXPXPXPXPXPXPXPXPXPXPXPXPXPXPXPXPXPXPXPXPXPXPXPXPXPXPXPXPXPXPXPXPXPXPXPXPXPXPXPXPXPXPXPXPXPXPXPXPXPXPXPXPXPXPXPXPXPXPXPXPXPXPXPXPXPXPXPXPXPXPXPXPXPXPXPXPXPXPXPXPXPXPXPXPXPXPXPXPXPXPXPXPXPXPXPXPXPXPXPXPXPXPXPXPXPXPXPXPXPXPXPXPXPXPXPXPXPXPXPXPXPXPXPXPXPXPXPXPXPXPXPXPXPXPXPXPXPXPXPXPXPXPXPXPXPXPXPXPXPXPXPXPXPXPXPXPXPXPXPXPXPXPXPXPXPXPXPXPXPXPXPXPXPXPXPXPXPXPXPXPXPXPXPXPXPXPXPXPXPXPXPXPXPXPXPXPXPXPXPXPXPXPXPXPXPXPXPXPXPXPXPXPXPXPXPXPXPXPXPXPXPXPXPXPXPXPXPXPXPXPXPXPXPXPXPXPXPXPXPXPXPXPXPXPXPXPXPXPXPXPXPXPXPXPXPXPXPXPXPXPXPXPXPXPXPXPXPXPXPXPXPXPXPXPXPXPXPXPXPXPXPXPXPXPXPXPXPXPXPXPXPXPXPXPXPXPXPXPXPXPXPXPXPXPXPXPXPXPXPXPXPXPXPXPXPXPXPXPXPXPXPXPXPXPXPXPXPXPXPXPXPXPXPXPXPXPXPXPXPXPXPXPXPXPXPXPXPXPXPXPXPXPXPXPXPXPXPXPXPXPXPXPXPXPXPXPXPXPXPXPXPXPXPXPXPXPXPXPXPXPXPXPXPXPXPXPXPXPXPXPXPXPXPXPXPXPXPXPXPXPXPXPXPXPXPXPXPXPXPXPXPXPXPXPXPXPXPXPXPXPXPXPXPXPXPXPX",
"PXPXPXPXPXPXPXPXPXPXPXPXPXPXPXPXPXPXPXPXPXPXPXPXPXPXPXPXPXPXPXPXPXPXPXPXPXPXPXPXPXPXPXPXPXPXPXPXPXPXPXPXPXPXPXPXPXPXPXPXPXPXPXPXPXPXPXPXPXPXPXPXPXPXPXPXPXPXPXPXPXPXPXPXPXPXPXPXPXPXPXPXPXPXPXPXPXPXPXPXPXPXPXPXPXPXPXPXPXPXPXPXPXPXPXPXPXPXPXPXPXPXPXPXPXPXPXPXPXPXPXPXPXPXPXPXPXPXPXPXPXPXPXPXPXPXPXPXPXPXPXPXPXPXPXPXPXPXPXPXPXPXPXPXPXPXPXPXPXPXPXPXPXPXPXPXPXPXPXPXPXPXPXPXPXPXPXPXPXPXPXPXPXPXPXPXPXPXPXPXPXPXPXPXPXPXPXPXPXPXPXPXPXPXPXPXPXPXPXPXPXPXPXPXPXPXPXPXPXPXPXPXPXPXPXPXPXPXPXPXPXPXPXPXPXPXPXPXPXPXPXPXPXPXPXPXPXPXPXPXPXPXPXPXPXPXPXPXPXPXPXPXPXPXPXPXPXPXPXPXPXPXPXPXPXPXPXPXPXPXPXPXPXPXPXPXPXPXPXPXPXPXPXPXPXPXPXPXPXPXPXPXPXPXPXPXPXPXPXPXPXPXPXPXPXPXPXPXPXPXPXPXPXPXPXPXPXPXPXPXPXPXPXPXPXPXPXPXPXPXPXPXPXPXPXPXPXPXPXPXPXPXPXPXPXPXPXPXPXPXPXPXPXPXPXPXPXPXPXPXPXPXPXPXPXPXPXPXPXPXPXPXPXPXPXPXPXPXPXPXPXPXPXPXPXPXPXPXPXPXPXPXPXPXPXPXPXPXPXPXPXPXPXPXPXPXPXPXPXPXPXPXPXPXPXPXPXPXPXPXPXPXPXPXPXPXPXPXPXPXPXPXPXPXPXPXPXPXPXPXPXPXPXPXPXPXPXPXPXPXPXPXPXPXPXPXPXPXPXPXPXPXPXPX",
"PXPXPXPXPXPXPXPXPXPXPXPXPXPXPXPXPXPXPXPXPXPXPXPXPXPXPXPXPXPXPXPXPXPXPXPXPXPXPXPXPXPXPXPXPXPXPXPXPXPXPXPXPXPXPXPXPXPXPXPXPXPXPXPXPXPXPXPXPXPXPXPXPXPXPXPXPXPXPXPXPXPXPXPXPXPXPXPXPXPXPXPXPXPXPXPXPXPXPXPXPXPXPXPXPXPXPXPXPXPXPXPXPXPXPXPXPXPXPXPXPXPXPXPXPXPXPXPXPXPXPXPXPXPXPXPXPXPXPXPXPXPXPXPXPXPXPXPXPXPXPXPXPXPXPXPXPXPXPXPXPXPXPXPXPXPXPXPXPXPXPXPXPXPXPXPXPXPXPXPXPXPXPXPXPXPXPXPXPXPXPXPXPXPXPXPXPXPXPXPXPXPXPXPXPXPXPXPXPXPXPXPXPXPXPXPXPXPXPXPXPXPXPXPXPXPXPXPXPXPXPXPXPXPXPXPXPXPXPXPXPXPXPXPXPXPXPXPXPXPXPXPXPXPXPXPXPXPXPXPXPXPXPXPXPXPXPXPXPXPXPXPXPXPXPXPXPXPXPXPXPXPXPXPXPXPXPXPXPXPXPXPXPXPXPXPXPXPXPXPXPXPXPXPXPXPXPXPXPXPXPXPXPXPXPXPXPXPXPXPXPXPXPXPXPXPXPXPXPXPXPXPXPXPXPXPXPXPXPXPXPXPXPXPXPXPXPXPXPXPXPXPXPXPXPXPXPXPXPXPXPXPXPXPXPXPXPXPXPXPXPXPXPXPXPXPXPXPXPXPXPXPXPXPXPXPXPXPXPXPXPXPXPXPXPXPXPXPXPXPXPXPXPXPXPXPXPXPXPXPXPXPXPXPXPXPXPXPXPXPXPXPXPXPXPXPXPXPXPXPXPXPXPXPXPXPXPXPXPXPXPXPXPXPXPXPXPXPXPXPXPXPXPXPXPXPXPXPXPXPXPXPXPXPXPXPXPXPXPXPXPXPXPXPXPXPXPXPXPXPXPXPXPXPX",
"PXPXPXPXPXPXPXPXPXPXPXPXPXPXPXPXPXPXPXPXPXPXPXPXPXPXPXPXPXPXPXPXPXPXPXPXPXPXPXPXPXPXPXPXPXPXPXPXPXPXPXPXPXPXPXPXPXPXPXPXPXPXPXPXPXPXPXPXPXPXPXPXPXPXPXPXPXPXPXPXPXPXPXPXPXPXPXPXPXPXPXPXPXPXPXPXPXPXPXPXPXPXPXPXPXPXPXPXPXPXPXPXPXPXPXPXPXPXPXPXPXPXPXPXPXPXPXPXPXPXPXPXPXPXPXPXPXPXPXPXPXPXPXPXPXPXPXPXPXPXPXPXPXPXPXPXPXPXPXPXPXPXPXPXPXPXPXPXPXPXPXPXPXPXPXPXPXPXPXPXPXPXPXPXPXPXPXPXPXPXPXPXPXPXPXPXPXPXPXPXPXPXPXPXPXPXPXPXPXPXPXPXPXPXPXPXPXPXPXPXPXPXPXPXPXPXPXPXPXPXPXPXPXPXPXPXPXPXPXPXPXPXPXPXPXPXPXPXPXPXPXPXPXPXPXPXPXPXPXPXPXPXPXPXPXPXPXPXPXPXPXPXPXPXPXPXPXPXPXPXPXPXPXPXPXPXPXPXPXPXPXPXPXPXPXPXPXPXPXPXPXPXPXPXPXPXPXPXPXPXPXPXPXPXPXPXPXPXPXPXPXPXPXPXPXPXPXPXPXPXPXPXPXPXPXPXPXPXPXPXPXPXPXPXPXPXPXPXPXPXPXPXPXPXPXPXPXPXPXPXPXPXPXPXPXPXPXPXPXPXPXPXPXPXPXPXPXPXPXPXPXPXPXPXPXPXPXPXPXPXPXPXPXPXPXPXPXPXPXPXPXPXPXPXPXPXPXPXPXPXPXPXPXPXPXPXPXPXPXPXPXPXPXPXPXPXPXPXPXPXPXPXPXPXPXPXPXPXPXPXPXPXPXPXPXPXPXPXPXPXPXPXPXPXPXPXPXPXPXPXPXPXPXPXPXPXPXPXPXPXPXPXPXPXPXPXPXPXPXPXPXPXPXPX",
"PXPXPXPXPXPXPXPXPXPXPXPXPXPXPXPXPXPXPXPXPXPXPXPXPXPXPXPXPXPXPXPXPXPXPXPXPXPXPXPXPXPXPXPXPXPXPXPXPXPXPXPXPXPXPXPXPXPXPXPXPXPXPXPXPXPXPXPXPXPXPXPXPXPXPXPXPXPXPXPXPXPXPXPXPXPXPXPXPXPXPXPXPXPXPXPXPXPXPXPXPXPXPXPXPXPXPXPXPXPXPXPXPXPXPXPXPXPXPXPXPXPXPXPXPXPXPXPXPXPXPXPXPXPXPXPXPXPXPXPXPXPXPXPXPXPXPXPXPXPXPXPXPXPXPXPXPXPXPXPXPXPXPXPXPXPXPXPXPXPXPXPXPXPXPXPXPXPXPXPXPXPXPXPXPXPXPXPXPXPXPXPXPXPXPXPXPXPXPXPXPXPXPXPXPXPXPXPXPXPXPXPXPXPXPXPXPXPXPXPXPXPXPXPXPXPXPXPXPXPXPXPXPXPXPXPXPXPXPXPXPXPXPXPXPXPXPXPXPXPXPXPXPXPXPXPXPXPXPXPXPXPXPXPXPXPXPXPXPXPXPXPXPXPXPXPXPXPXPXPXPXPXPXPXPXPXPXPXPXPXPXPXPXPXPXPXPXPXPXPXPXPXPXPXPXPXPXPXPXPXPXPXPXPXPXPXPXPXPXPXPXPXPXPXPXPXPXPXPXPXPXPXPXPXPXPXPXPXPXPXPXPXPXPXPXPXPXPXPXPXPXPXPXPXPXPXPXPXPXPXPXPXPXPXPXPXPXPXPXPXPXPXPXPXPXPXPXPXPXPXPXPXPXPXPXPXPXPXPXPXPXPXPXPXPXPXPXPXPXPXPXPXPXPXPXPXPXPXPXPXPXPXPXPXPXPXPXPXPXPXPXPXPXPXPXPXPXPXPXPXPXPXPXPXPXPXPXPXPXPXPXPXPXPXPXPXPXPXPXPXPXPXPXPXPXPXPXPXPXPXPXPXPXPXPXPXPXPXPXPXPXPXPXPXPXPXPXPXPXPXPXPXPXPX",
"PXPXPXPXPXPXPXPXPXPXPXPXPXPXPXPXPXPXPXPXPXPXPXPXPXPXPXPXPXPXPXPXPXPXPXPXPXPXPXPXPXPXPXPXPXPXPXPXPXPXPXPXPXPXPXPXPXPXPXPXPXPXPXPXPXPXPXPXPXPXPXPXPXPXPXPXPXPXPXPXPXPXPXPXPXPXPXPXPXPXPXPXPXPXPXPXPXPXPXPXPXPXPXPXPXPXPXPXPXPXPXPXPXPXPXPXPXPXPXPXPXPXPXPXPXPXPXPXPXPXPXPXPXPXPXPXPXPXPXPXPXPXPXPXPXPXPXPXPXPXPXPXPXPXPXPXPXPXPXPXPXPXPXPXPXPXPXPXPXPXPXPXPXPXPXPXPXPXPXPXPXPXPXPXPXPXPXPXPXPXPXPXPXPXPXPXPXPXPXPXPXPXPXPXPXPXPXPXPXPXPXPXPXPXPXPXPXPXPXPXPXPXPXPXPXPXPXPXPXPXPXPXPXPXPXPXPXPXPXPXPXPXPXPXPXPXPXPXPXPXPXPXPXPXPXPXPXPXPXPXPXPXPXPXPXPXPXPXPXPXPXPXPXPXPXPXPXPXPXPXPXPXPXPXPXPXPXPXPXPXPXPXPXPXPXPXPXPXPXPXPXPXPXPXPXPXPXPXPXPXPXPXPXPXPXPXPXPXPXPXPXPXPXPXPXPXPXPXPXPXPXPXPXPXPXPXPXPXPXPXPXPXPXPXPXPXPXPXPXPXPXPXPXPXPXPXPXPXPXPXPXPXPXPXPXPXPXPXPXPXPXPXPXPXPXPXPXPXPXPXPXPXPXPXPXPXPXPXPXPXPXPXPXPXPXPXPXPXPXPXPXPXPXPXPXPXPXPXPXPXPXPXPXPXPXPXPXPXPXPXPXPXPXPXPXPXPXPXPXPXPXPXPXPXPXPXPXPXPXPXPXPXPXPXPXPXPXPXPXPXPXPXPXPXPXPXPXPXPXPXPXPXPXPXPXPXPXPXPXPXPXPXPXPXPXPXPXPXPXPXPXPXPXPX",
"PXPXPXPXPXPXPXPXPXPXPXPXPXPXPXPXPXPXPXPXPXPXPXPXPXPXPXPXPXPXPXPXPXPXPXPXPXPXPXPXPXPXPXPXPXPXPXPXPXPXPXPXPXPXPXPXPXPXPXPXPXPXPXPXPXPXPXPXPXPXPXPXPXPXPXPXPXPXPXPXPXPXPXPXPXPXPXPXPXPXPXPXPXPXPXPXPXPXPXPXPXPXPXPXPXPXPXPXPXPXPXPXPXPXPXPXPXPXPXPXPXPXPXPXPXPXPXPXPXPXPXPXPXPXPXPXPXPXPXPXPXPXPXPXPXPXPXPXPXPXPXPXPXPXPXPXPXPXPXPXPXPXPXPXPXPXPXPXPXPXPXPXPXPXPXPXPXPXPXPXPXPXPXPXPXPXPXPXPXPXPXPXPXPXPXPXPXPXPXPXPXPXPXPXPXPXPXPXPXPXPXPXPXPXPXPXPXPXPXPXPXPXPXPXPXPXPXPXPXPXPXPXPXPXPXPXPXPXPXPXPXPXPXPXPXPXPXPXPXPXPXPXPXPXPXPXPXPXPXPXPXPXPXPXPXPXPXPXPXPXPXPXPXPXPXPXPXPXPXPXPXPXPXPXPXPXPXPXPXPXPXPXPXPXPXPXPXPXPXPXPXPXPXPXPXPXPXPXPXPXPXPXPXPXPXPXPXPXPXPXPXPXPXPXPXPXPXPXPXPXPXPXPXPXPXPXPXPXPXPXPXPXPXPXPXPXPXPXPXPXPXPXPXPXPXPXPXPXPXPXPXPXPXPXPXPXPXPXPXPXPXPXPXPXPXPXPXPXPXPXPXPXPXPXPXPXPXPXPXPXPXPXPXPXPXPXPXPXPXPXPXPXPXPXPXPXPXPXPXPXPXPXPXPXPXPXPXPXPXPXPXPXPXPXPXPXPXPXPXPXPXPXPXPXPXPXPXPXPXPXPXPXPXPXPXPXPXPXPXPXPXPXPXPXPXPXPXPXPXPXPXPXPXPXPXPXPXPXPXPXPXPXPXPXPXPXPXPXPXPXPXPXPXPX",
"PXPXPXPXPXPXPXPXPXPXPXPXPXPXPXPXPXPXPXPXPXPXPXPXPXPXPXPXPXPXPXPXPXPXPXPXPXPXPXPXPXPXPXPXPXPXPXPXPXPXPXPXPXPXPXPXPXPXPXPXPXPXPXPXPXPXPXPXPXPXPXPXPXPXPXPXPXPXPXPXPXPXPXPXPXPXPXPXPXPXPXPXPXPXPXPXPXPXPXPXPXPXPXPXPXPXPXPXPXPXPXPXPXPXPXPXPXPXPXPXPXPXPXPXPXPXPXPXPXPXPXPXPXPXPXPXPXPXPXPXPXPXPXPXPXPXPXPXPXPXPXPXPXPXPXPXPXPXPXPXPXPXPXPXPXPXPXPXPXPXPXPXPXPXPXPXPXPXPXPXPXPXPXPXPXPXPXPXPXPXPXPXPXPXPXPXPXPXPXPXPXPXPXPXPXPXPXPXPXPXPXPXPXPXPXPXPXPXPXPXPXPXPXPXPXPXPXPXPXPXPXPXPXPXPXPXPXPXPXPXPXPXPXPXPXPXPXPXPXPXPXPXPXPXPXPXPXPXPXPXPXPXPXPXPXPXPXPXPXPXPXPXPXPXPXPXPXPXPXPXPXPXPXPXPXPXPXPXPXPXPXPXPXPXPXPXPXPXPXPXPXPXPXPXPXPXPXPXPXPXPXPXPXPXPXPXPXPXPXPXPXPXPXPXPXPXPXPXPXPXPXPXPXPXPXPXPXPXPXPXPXPXPXPXPXPXPXPXPXPXPXPXPXPXPXPXPXPXPXPXPXPXPXPXPXPXPXPXPXPXPXPXPXPXPXPXPXPXPXPXPXPXPXPXPXPXPXPXPXPXPXPXPXPXPXPXPXPXPXPXPXPXPXPXPXPXPXPXPXPXPXPXPXPXPXPXPXPXPXPXPXPXPXPXPXPXPXPXPXPXPXPXPXPXPXPXPXPXPXPXPXPXPXPXPXPXPXPXPXPXPXPXPXPXPXPXPXPXPXPXPXPXPXPXPXPXPXPXPXPXPXPXPXPXPXPXPXPXPXPXPXPXPXPX",
"PXPXPXPXPXPXPXPXPXPXPXPXPXPXPXPXPXPXPXPXPXPXPXPXPXPXPXPXPXPXPXPXPXPXPXPXPXPXPXPXPXPXPXPXPXPXPXPXPXPXPXPXPXPXPXPXPXPXPXPXPXPXPXPXPXPXPXPXPXPXPXPXPXPXPXPXPXPXPXPXPXPXPXPXPXPXPXPXPXPXPXPXPXPXPXPXPXPXPXPXPXPXPXPXPXPXPXPXPXPXPXPXPXPXPXPXPXPXPXPXPXPXPXPXPXPXPXPXPXPXPXPXPXPXPXPXPXPXPXPXPXPXPXPXPXPXPXPXPXPXPXPXPXPXPXPXPXPXPXPXPXPXPXPXPXPXPXPXPXPXPXPXPXPXPXPXPXPXPXPXPXPXPXPXPXPXPXPXPXPXPXPXPXPXPXPXPXPXPXPXPXPXPXPXPXPXPXPXPXPXPXPXPXPXPXPXPXPXPXPXPXPXPXPXPXPXPXPXPXPXPXPXPXPXPXPXPXPXPXPXPXPXPXPXPXPXPXPXPXPXPXPXPXPXPXPXPXPXPXPXPXPXPXPXPXPXPXPXPXPXPXPXPXPXPXPXPXPXPXPXPXPXPXPXPXPXPXPXPXPXPXPXPXPXPXPXPXPXPXPXPXPXPXPXPXPXPXPXPXPXPXPXPXPXPXPXPXPXPXPXPXPXPXPXPXPXPXPXPXPXPXPXPXPXPXPXPXPXPXPXPXPXPXPXPXPXPXPXPXPXPXPXPXPXPXPXPXPXPXPXPXPXPXPXPXPXPXPXPXPXPXPXPXPXPXPXPXPXPXPXPXPXPXPXPXPXPXPXPXPXPXPXPXPXPXPXPXPXPXPXPXPXPXPXPXPXPXPXPXPXPXPXPXPXPXPXPXPXPXPXPXPXPXPXPXPXPXPXPXPXPXPXPXPXPXPXPXPXPXPXPXPXPXPXPXPXPXPXPXPXPXPXPXPXPXPXPXPXPXPXPXPXPXPXPXPXPXPXPXPXPXPXPXPXPXPXPXPXPXPXPXPXPXPX",
"PXPXPXPXPXPXPXPXPXPXPXPXPXPXPXPXPXPXPXPXPXPXPXPXPXPXPXPXPXPXPXPXPXPXPXPXPXPXPXPXPXPXPXPXPXPXPXPXPXPXPXPXPXPXPXPXPXPXPXPXPXPXPXPXPXPXPXPXPXPXPXPXPXPXPXPXPXPXPXPXPXPXPXPXPXPXPXPXPXPXPXPXPXPXPXPXPXPXPXPXPXPXPXPXPXPXPXPXPXPXPXPXPXPXPXPXPXPXPXPXPXPXPXPXPXPXPXPXPXPXPXPXPXPXPXPXPXPXPXPXPXPXPXPXPXPXPXPXPXPXPXPXPXPXPXPXPXPXPXPXPXPXPXPXPXPXPXPXPXPXPXPXPXPXPXPXPXPXPXPXPXPXPXPXPXPXPXPXPXPXPXPXPXPXPXPXPXPXPXPXPXPXPXPXPXPXPXPXPXPXPXPXPXPXPXPXPXPXPXPXPXPXPXPXPXPXPXPXPXPXPXPXPXPXPXPXPXPXPXPXPXPXPXPXPXPXPXPXPXPXPXPXPXPXPXPXPXPXPXPXPXPXPXPXPXPXPXPXPXPXPXPXPXPXPXPXPXPXPXPXPXPXPXPXPXPXPXPXPXPXPXPXPXPXPXPXPXPXPXPXPXPXPXPXPXPXPXPXPXPXPXPXPXPXPXPXPXPXPXPXPXPXPXPXPXPXPXPXPXPXPXPXPXPXPXPXPXPXPXPXPXPXPXPXPXPXPXPXPXPXPXPXPXPXPXPXPXPXPXPXPXPXPXPXPXPXPXPXPXPXPXPXPXPXPXPXPXPXPXPXPXPXPXPXPXPXPXPXPXPXPXPXPXPXPXPXPXPXPXPXPXPXPXPXPXPXPXPXPXPXPXPXPXPXPXPXPXPXPXPXPXPXPXPXPXPXPXPXPXPXPXPXPXPXPXPXPXPXPXPXPXPXPXPXPXPXPXPXPXPXPXPXPXPXPXPXPXPXPXPXPXPXPXPXPXPXPXPXPXPXPXPXPXPXPXPXPXPXPXPXPXPXPXPX",
"PXPXPXPXPXPXPXPXPXPXPXPXPXPXPXPXPXPXPXPXPXPXPXPXPXPXPXPXPXPXPXPXPXPXPXPXPXPXPXPXPXPXPXPXPXPXPXPXPXPXPXPXPXPXPXPXPXPXPXPXPXPXPXPXPXPXPXPXPXPXPXPXPXPXPXPXPXPXPXPXPXPXPXPXPXPXPXPXPXPXPXPXPXPXPXPXPXPXPXPXPXPXPXPXPXPXPXPXPXPXPXPXPXPXPXPXPXPXPXPXPXPXPXPXPXPXPXPXPXPXPXPXPXPXPXPXPXPXPXPXPXPXPXPXPXPXPXPXPXPXPXPXPXPXPXPXPXPXPXPXPXPXPXPXPXPXPXPXPXPXPXPXPXPXPXPXPXPXPXPXPXPXPXPXPXPXPXPXPXPXPXPXPXPXPXPXPXPXPXPXPXPXPXPXPXPXPXPXPXPXPXPXPXPXPXPXPXPXPXPXJXKXPXKXPXKXKXJXJXJXJXJXJXJXGXJXJXJXJXJXJXKXJXJXJXJXJXJXJXJXJXJXJXKXJXJXKXPXPXKXKXPXPXPXPXPXPXPXPXPXPXPXPXPXPXPXPXPXPXPXPXPXPXPXPXPXPXPXPXPXPXPXPXPXPXPXPXPXPXPXPXPXPXPXPXPXPXPXPXPXPXPXPXPXPXPXPXPXPXPXPXPXPXPXPXPXPXPXPXPXPXPXPXPXPXPXPXPXPXPXPXPXPXPXPXPXPXPXPXPXPXPXPXPXPXPXPXPXPXPXPXPXPXPXPXPXPXPXPXPXPXPXPXPXPXPXPXPXPXPXPXPXPXPXPXPXPXPXPXPXPXPXPXPXPXPXPXPXPXPXPXPXPXPXPXPXPXPXPXPXPXPXPXPXPXPXPXPXPXPXPXPXPXPXPXPXPXPXPXPXPXPXPXPXPXPXPXPXPXPXPXPXPXPXPXPXPXPXPXPXPXPXPXPXPXPXPXPXPXPXPXPXPXPXPXPXPXPXPXPXPXPXPXPXPXPXPXPXPXPXPXPXPXPX",
"PXPXPXPXPXPXPXPXPXPXPXPXPXPXPXPXPXPXPXPXPXPXPXPXPXPXPXPXPXPXPXPXPXPXPXPXPXPXPXPXPXPXPXPXPXPXPXPXPXPXPXPXPXPXPXPXPXPXPXPXPXPXPXPXPXPXPXPXPXPXPXPXPXPXPXPXPXPXPXPXPXPXPXPXPXPXPXPXPXPXPXPXPXPXPXPXPXPXPXPXPXPXPXPXPXPXPXPXPXPXPXPXPXPXPXPXPXPXPXPXPXPXPXPXPXPXPXPXPXPXPXPXPXPXPXPXPXPXPXPXPXPXPXPXPXPXPXPXPXPXPXPXPXPXPXPXPXPXPXPXPXPXPXPXPXPXPXPXPXPXPXPXPXPXPXPXPXPXPXPXPXPXPXPXPXPXPXPXPXPXPXPXPXPXPXPXPXPXPXPXPXPXPXPXPXPXPXPXPXPXPXPXPXPXJXHXJXJXJXJXJXPXJXJXJXJXJXGXGXFXFXDXDXDXDXDXDXDXAXAXAXAXAXDXDXAXDXDXDXDXGXGXHXJXJXJXJXKXKXHXHXJXPXKXJXKXJXPXPXPXKXPXPXPXPXPXPXPXPXPXPXPXPXPXPXPXPXPXPXPXPXPXPXPXPXPXPXPXPXPXPXPXPXPXPXPXPXPXPXPXPXPXPXPXPXPXPXPXPXPXPXPXPXPXPXPXPXPXPXPXPXPXPXPXPXPXPXPXPXPXPXPXPXPXPXPXPXPXPXPXPXPXPXPXPXPXPXPXPXPXPXPXPXPXPXPXPXPXPXPXPXPXPXPXPXPXPXPXPXPXPXPXPXPXPXPXPXPXPXPXPXPXPXPXPXPXPXPXPXPXPXPXPXPXPXPXPXPXPXPXPXPXPXPXPXPXPXPXPXPXPXPXPXPXPXPXPXPXPXPXPXPXPXPXPXPXPXPXPXPXPXPXPXPXPXPXPXPXPXPXPXPXPXPXPXPXPXPXPXPXPXPXPXPXPXPXPXPXPXPXPXPXPXPXPXPXPXPXPXPXPXPXPXPX",
"PXPXPXPXPXPXPXPXPXPXPXPXPXPXPXPXPXPXPXPXPXPXPXPXPXPXPXPXPXPXPXPXPXPXPXPXPXPXPXPXPXPXPXPXPXPXPXPXPXPXPXPXPXPXPXPXPXPXPXPXPXPXPXPXPXPXPXPXPXPXPXPXPXPXPXPXPXPXPXPXPXPXPXPXPXPXPXPXPXPXPXPXPXPXPXPXPXPXPXPXPXPXPXPXPXPXPXPXPXPXPXPXPXPXPXPXPXPXPXPXPXPXPXPXPXPXPXPXPXPXPXPXPXPXPXPXPXPXPXPXPXPXPXPXPXPXPXPXPXPXPXPXPXPXPXPXPXPXPXPXPXPXPXPXPXPXPXPXPXPXPXPXPXPXPXPXPXPXPXPXPXPXPXPXPXPXPXPXPXPXPXPXPXPXPXPXPXPXPXPXPXPXPXPXPXPXPXPXPXPXPXHXJXGXGXGXJXGXDXAXCXBXnXnXvXkXkXhXdXsXh.g.g.y.y.5.5.5.5.5.5.5.5.5.5.5.y.y.g.h.sXdXhXkXkXvXvXnXnXnXBXAXDXFXJXJXJXHXKXHXHXKXKXKXKXPXKXKXKXPXPXPXPXPXPXPXPXPXPXPXPXPXPXPXPXPXPXPXPXPXPXPXPXPXPXPXPXPXPXPXPXPXPXPXPXPXPXPXPXPXPXPXPXPXPXPXPXPXPXPXPXPXPXPXPXPXPXPXPXPXPXPXPXPXPXPXPXPXPXPXPXPXPXPXPXPXPXPXPXPXPXPXPXPXPXPXPXPXPXPXPXPXPXPXPXPXPXPXPXPXPXPXPXPXPXPXPXPXPXPXPXPXPXPXPXPXPXPXPXPXPXPXPXPXPXPXPXPXPXPXPXPXPXPXPXPXPXPXPXPXPXPXPXPXPXPXPXPXPXPXPXPXPXPXPXPXPXPXPXPXPXPXPXPXPXPXPXPXPXPXPXPXPXPXPXPXPXPXPXPXPXPXPXPXPXPXPXPXPXPXPXPXPXPXPXPXPXPXPXPXPXPXPXPX",
"PXPXPXPXPXPXPXPXPXPXPXPXPXPXPXPXPXPXPXPXPXPXPXPXPXPXPXPXPXPXPXPXPXPXPXPXPXPXPXPXPXPXPXPXPXPXPXPXPXPXPXPXPXPXPXPXPXPXPXPXPXPXPXPXPXPXPXPXPXPXPXPXPXPXPXPXPXPXPXPXPXPXPXPXPXPXPXPXPXPXPXPXPXPXPXPXPXPXPXPXPXPXPXPXPXPXPXPXPXPXPXPXPXPXPXPXPXPXPXPXPXPXPXPXPXPXPXPXPXPXPXPXPXPXPXPXPXPXPXPXPXPXPXPXPXPXPXPXPXPXPXPXPXPXPXPXPXPXPXPXPXPXPXPXPXPXPXPXPXPXPXPXPXPXPXPXPXPXPXPXPXPXPXPXPXPXPXPXPXPXPXPXPXPXPXPXPXPXKXPXPXPXPXPXJXJXJXPXJXGXGXDXNXnXvXkXkXhXsXg.y.5.e 7 = % X X X . X X X X X X + + + X X X   X X X X X X X X X X X . % = 7 e r 5.y.*XhXhXkXkXvXBXAXJXJXJXJXKXKXKXKXPXPXPXPXPXPXPXPXPXPXPXPXPXPXPXPXPXPXPXPXPXPXPXPXPXPXPXPXPXPXPXPXPXPXPXPXPXPXPXPXPXPXPXPXPXPXPXPXPXPXPXPXPXPXPXPXPXPXPXPXPXPXPXPXPXPXPXPXPXPXPXPXPXPXPXPXPXPXPXPXPXPXPXPXPXPXPXPXPXPXPXPXPXPXPXPXPXPXPXPXPXPXPXPXPXPXPXPXPXPXPXPXPXPXPXPXPXPXPXPXPXPXPXPXPXPXPXPXPXPXPXPXPXPXPXPXPXPXPXPXPXPXPXPXPXPXPXPXPXPXPXPXPXPXPXPXPXPXPXPXPXPXPXPXPXPXPXPXPXPXPXPXPXPXPXPXPXPXPXPXPXPXPXPXPXPXPXPXPXPXPXPXPXPXPXPXPXPXPXPXPXPXPXPXPXPX",
"PXPXPXPXPXPXPXPXPXPXPXPXPXPXPXPXPXPXPXPXPXPXPXPXPXPXPXPXPXPXPXPXPXPXPXPXPXPXPXPXPXPXPXPXPXPXPXPXPXPXPXPXPXPXPXPXPXPXPXPXPXPXPXPXPXPXPXPXPXPXPXPXPXPXPXPXPXPXPXPXPXPXPXPXPXPXPXPXPXPXPXPXPXPXPXPXPXPXPXPXPXPXPXPXPXPXPXPXPXPXPXPXPXPXPXPXPXPXPXPXPXPXPXPXPXPXPXPXPXPXPXPXPXPXPXPXPXPXPXPXPXPXPXPXPXPXPXPXPXPXPXPXPXPXPXPXPXPXPXPXPXPXPXPXPXPXPXPXPXPXPXPXPXPXPXPXPXPXPXPXPXPXPXPXPXPXPXPXPXPXPXPXPXPXPXPXPXPXPXPXPXKXKXJXDXDXNXnXhXdXh.g.5.r e = # X X X + + & 4 8 q r ! ! O.O.+.%.&.*.*.6.,.,.6.6.*.*.*.*.*.*.*.*.%.+.@.! Y w 0 0 8 , & & & + + # = 8 r 5.y.h.sXhXkXBXDXDXFXJXKXKXPXPXKXKXKXPXPXPXPXPXPXPXPXPXPXPXPXPXPXPXPXPXPXPXPXPXPXPXPXPXPXPXPXPXPXPXPXPXPXPXPXPXPXPXPXPXPXPXPXPXPXPXPXPXPXPXPXPXPXPXPXPXPXPXPXPXPXPXPXPXPXPXPXPXPXPXPXPXPXPXPXPXPXPXPXPXPXPXPXPXPXPXPXPXPXPXPXPXPXPXPXPXPXPXPXPXPXPXPXPXPXPXPXPXPXPXPXPXPXPXPXPXPXPXPXPXPXPXPXPXPXPXPXPXPXPXPXPXPXPXPXPXPXPXPXPXPXPXPXPXPXPXPXPXPXPXPXPXPXPXPXPXPXPXPXPXPXPXPXPXPXPXPXPXPXPXPXPXPXPXPXPXPXPXPXPXPXPXPXPXPXPXPXPXPXPXPXPXPXPXPXPXPX",
"PXPXPXPXPXPXPXPXPXPXPXPXPXPXPXPXPXPXPXPXPXPXPXPXPXPXPXPXPXPXPXPXPXPXPXPXPXPXPXPXPXPXPXPXPXPXPXPXPXPXPXPXPXPXPXPXPXPXPXPXPXPXPXPXPXPXPXPXPXPXPXPXPXPXPXPXPXPXPXPXPXPXPXPXPXPXPXPXPXPXPXPXPXPXPXPXPXPXPXPXPXPXPXPXPXPXPXPXPXPXPXPXPXPXPXPXPXPXPXPXPXPXPXPXPXPXPXPXPXPXPXPXPXPXPXPXPXPXPXPXPXPXPXPXPXPXPXPXPXPXPXPXPXPXPXPXPXPXPXPXPXPXPXPXPXPXPXPXPXPXPXPXPXPXPXPXPXPXPXPXPXPXPXPXPXPXPXPXPXPXPXPXPXPXPXJXJXFXJXFXSXBXnXhX*Xy.5.O.e 3 * * * 4 5 0 I ~ $.6.w.i.p.[.{. X#X#X#X#X-X-X-X>X>X>X>X>X>X>X>X>X-X>X>X>X-X-X-X-X#X#X#X#X#X X|.{.f.p.r.8.*.+.I 0 8 , * * * 4 e r 5.5.g.dXkXnXNXAXGXGXHXHXKXPXPXPXPXPXPXPXPXPXPXPXPXPXPXPXPXPXPXPXPXPXPXPXPXPXPXPXPXPXPXPXPXPXPXPXPXPXPXPXPXPXPXPXPXPXPXPXPXPXPXPXPXPXPXPXPXPXPXPXPXPXPXPXPXPXPXPXPXPXPXPXPXPXPXPXPXPXPXPXPXPXPXPXPXPXPXPXPXPXPXPXPXPXPXPXPXPXPXPXPXPXPXPXPXPXPXPXPXPXPXPXPXPXPXPXPXPXPXPXPXPXPXPXPXPXPXPXPXPXPXPXPXPXPXPXPXPXPXPXPXPXPXPXPXPXPXPXPXPXPXPXPXPXPXPXPXPXPXPXPXPXPXPXPXPXPXPXPXPXPXPXPXPXPXPXPXPXPXPXPXPXPXPXPXPXPXPXPXPXPXPXPXPXPXPXPXPX",
"PXPXPXPXPXPXPXPXPXPXPXPXPXPXPXPXPXPXPXPXPXPXPXPXPXPXPXPXPXPXPXPXPXPXPXPXPXPXPXPXPXPXPXPXPXPXPXPXPXPXPXPXPXPXPXPXPXPXPXPXPXPXPXPXPXPXPXPXPXPXPXPXPXPXPXPXPXPXPXPXPXPXPXPXPXPXPXPXPXPXPXPXPXPXPXPXPXPXPXPXPXPXPXPXPXPXPXPXPXPXPXPXPXPXPXPXPXPXPXPXPXPXPXPXPXPXPXPXPXPXPXPXPXPXPXPXPXPXPXPXPXPXPXPXPXPXPXPXPXPXPXPXPXPXPXPXPXPXPXPXPXPXPXPXPXPXPXPXPXPXPXPXPXPXPXPXPXPXPXPXPXPXPXPXPXPXPXPXPXPXKXPXKXJXJXDXBXnXkXdXy.5.e 8 = % * 4 8 q ^ 6.s.|.#X#X#X#X#X>X>X>X>X>X>X>X>X>X>X>X>X>X>X>X>X>X>X>X>X>X>X>X>X>X>X>X>X>X>X>X>X>X>X>X>X>X>X>X>X>X>X-X#X#X#X#X|.[.r.*.Y w 0 8 = * * 8 e r 5.h.hXvXnXBXFXJXPXKXKXPXPXPXPXPXPXPXPXPXPXPXPXPXPXPXPXPXPXPXPXPXPXPXPXPXPXPXPXPXPXPXPXPXPXPXPXPXPXPXPXPXPXPXPXPXPXPXPXPXPXPXPXPXPXPXPXPXPXPXPXPXPXPXPXPXPXPXPXPXPXPXPXPXPXPXPXPXPXPXPXPXPXPXPXPXPXPXPXPXPXPXPXPXPXPXPXPXPXPXPXPXPXPXPXPXPXPXPXPXPXPXPXPXPXPXPXPXPXPXPXPXPXPXPXPXPXPXPXPXPXPXPXPXPXPXPXPXPXPXPXPXPXPXPXPXPXPXPXPXPXPXPXPXPXPXPXPXPXPXPXPXPXPXPXPXPXPXPXPXPXPXPXPXPXPXPXPXPXPXPXPXPXPXPXPXPXPXPXPXPXPXPXPX",
"PXPXPXPXPXPXPXPXPXPXPXPXPXPXPXPXPXPXPXPXPXPXPXPXPXPXPXPXPXPXPXPXPXPXPXPXPXPXPXPXPXPXPXPXPXPXPXPXPXPXPXPXPXPXPXPXPXPXPXPXPXPXPXPXPXPXPXPXPXPXPXPXPXPXPXPXPXPXPXPXPXPXPXPXPXPXPXPXPXPXPXPXPXPXPXPXPXPXPXPXPXPXPXPXPXPXPXPXPXPXPXPXPXPXPXPXPXPXPXPXPXPXPXPXPXPXPXPXPXPXPXPXPXPXPXPXPXPXPXPXPXPXPXPXPXPXPXPXPXPXPXPXPXPXPXPXPXPXPXPXPXPXPXPXPXPXPXPXPXPXPXPXPXPXPXPXPXPXPXPXPXPXPXPXPXPXJXJXKXKXFXGXSXvXhXsX5.e = * * : 8 w T *.a.+X:X2X2X>X>X>X>X>X>X>X>X>X>X>X>X>X>X>X>X>X>X>X>X>X>X>X>X>X>X>X>X>X>X>X>X>X>X>X>X>X>X>X>X>X>X>X>X>X>X>X>X>X>X>X>X>X>X>X-X-X-X-X-X-X#Xf.8.$.Y w 8 , * & * = e y.dXkXkXCXGXJXKXPXPXPXPXPXPXKXPXPXPXPXKXPXPXPXPXPXPXPXPXPXPXPXPXPXPXPXPXPXPXPXPXPXPXPXPXPXPXPXPXPXPXPXPXPXPXPXPXPXPXPXPXPXPXPXPXPXPXPXPXPXPXPXPXPXPXPXPXPXPXPXPXPXPXPXPXPXPXPXPXPXPXPXPXPXPXPXPXPXPXPXPXPXPXPXPXPXPXPXPXPXPXPXPXPXPXPXPXPXPXPXPXPXPXPXPXPXPXPXPXPXPXPXPXPXPXPXPXPXPXPXPXPXPXPXPXPXPXPXPXPXPXPXPXPXPXPXPXPXPXPXPXPXPXPXPXPXPXPXPXPXPXPXPXPXPXPXPXPXPXPXPXPXPXPXPXPXPXPXPXPXPXPXPXPXPXPXPXPXPXPX",
"PXPXPXPXPXPXPXPXPXPXPXPXPXPXPXPXPXPXPXPXPXPXPXPXPXPXPXPXPXPXPXPXPXPXPXPXPXPXPXPXPXPXPXPXPXPXPXPXPXPXPXPXPXPXPXPXPXPXPXPXPXPXPXPXPXPXPXPXPXPXPXPXPXPXPXPXPXPXPXPXPXPXPXPXPXPXPXPXPXPXPXPXPXPXPXPXPXPXPXPXPXPXPXPXPXPXPXPXPXPXPXPXPXPXPXPXPXPXPXPXPXPXPXPXPXPXPXPXPXPXPXPXPXPXPXPXPXPXPXPXPXPXPXPXPXPXPXPXPXPXPXPXPXPXPXPXPXPXPXPXPXPXPXPXPXPXPXPXPXPXPXPXPXPXPXPXPXPXPXPXPXPXPXJXJXJXKXKXGXnXhX;Xy.r * + + + 0 ~ ,.i.+X2X8X5X3X3X3X>X>X>X>X>X>X>X>X#X$X$X>X>X>X>X>X<X3X3X>X>X-X-X#X#X X{.|.{.f.f.f.s.p.i.s.f.f.f.f.f.{.{.|.+X#X-X-X-X2X2X>X-X-X-X-X-X-X-X-X-X-X-X-X-X>X<X-X-X[.r.1.+.h 5 & & & , ! a.;XhXmXJXKXKXGXJXHXHXHXHXKXKXKXPXPXPXPXPXPXPXPXPXPXPXPXPXPXPXPXPXPXPXPXPXPXPXPXPXPXPXPXPXPXPXPXPXPXPXPXPXPXPXPXPXPXPXPXPXPXPXPXPXPXPXPXPXPXPXPXPXPXPXPXPXPXPXPXPXPXPXPXPXPXPXPXPXPXPXPXPXPXPXPXPXPXPXPXPXPXPXPXPXPXPXPXPXPXPXPXPXPXPXPXPXPXPXPXPXPXPXPXPXPXPXPXPXPXPXPXPXPXPXPXPXPXPXPXPXPXPXPXPXPXPXPXPXPXPXPXPXPXPXPXPXPXPXPXPXPXPXPXPXPXPXPXPXPXPXPXPXPXPXPXPXPXPXPXPXPXPXPXPXPXPXPXPXPXPXPXPXPXPX",
"PXPXPXPXPXPXPXPXPXPXPXPXPXPXPXPXPXPXPXPXPXPXPXPXPXPXPXPXPXPXPXPXPXPXPXPXPXPXPXPXPXPXPXPXPXPXPXPXPXPXPXPXPXPXPXPXPXPXPXPXPXPXPXPXPXPXPXPXPXPXPXPXPXPXPXPXPXPXPXPXPXPXPXPXPXPXPXPXPXPXPXPXPXPXPXPXPXPXPXPXPXPXPXPXPXPXPXPXPXPXPXPXPXPXPXPXPXPXPXPXPXPXPXPXPXPXPXPXPXPXPXPXPXPXPXPXPXPXPXPXPXPXPXPXPXPXPXPXPXPXPXPXPXPXPXPXPXPXPXPXPXPXPXPXPXPXPXPXPXPXPXPXPXPXPXPXPXPXPXPXPXPXJXHXGXDXvX;X5.r *   X + 5 ~ a.|.#X2X5X5X3X3X>X>X>X>X>X>X>X>X>X>X>X>X2X3X>X>X-X#X{.'.w.1.$.Q P L h 0 0 0 8 5 5 5 , : & & : : , & : , , , 5 5 5 8 9 0 K I T $.1.w.p.[. X X#X-X-X-X X-X-X>X>X>X>X>X>X>X>X>X#X{.r.,.K , @ + * 8 5.y.dXnXFXGXHXHXKXKXKXKXKXPXPXPXPXPXPXPXPXPXPXPXPXPXPXPXPXPXPXPXPXPXPXPXPXPXPXPXPXPXPXPXPXPXPXPXPXPXPXPXPXPXPXPXPXPXPXPXPXPXPXPXPXPXPXPXPXPXPXPXPXPXPXPXPXPXPXPXPXPXPXPXPXPXPXPXPXPXPXPXPXPXPXPXPXPXPXPXPXPXPXPXPXPXPXPXPXPXPXPXPXPXPXPXPXPXPXPXPXPXPXPXPXPXPXPXPXPXPXPXPXPXPXPXPXPXPXPXPXPXPXPXPXPXPXPXPXPXPXPXPXPXPXPXPXPXPXPXPXPXPXPXPXPXPXPXPXPXPXPXPXPXPXPXPXPXPXPXPXPXPXPXPXPXPXPXPXPXPXPX",
"PXPXPXPXPXPXPXPXPXPXPXPXPXPXPXPXPXPXPXPXPXPXPXPXPXPXPXPXPXPXPXPXPXPXPXPXPXPXPXPXPXPXPXPXPXPXPXPXPXPXPXPXPXPXPXPXPXPXPXPXPXPXPXPXPXPXPXPXPXPXPXPXPXPXPXPXPXPXPXPXPXPXPXPXPXPXPXPXPXPXPXPXPXPXPXPXPXPXPXPXPXPXPXPXPXPXPXPXPXPXPXPXPXPXPXPXPXPXPXPXPXPXPXPXPXPXPXPXPXPXPXPXPXPXPXPXPXPXPXPXPXPXPXPXPXPXPXPXPXPXPXPXPXPXPXPXPXPXPXPXPXPXPXPXPXPXPXPXPXPXPXPXPXPXPXKXKXKXKXGXGXDXBXkXg.5.e = @ & , K 8.{.#X>X4X3X3X3X<X3X3X3X>X>X>X>X>X>X>X>X>X#X|.t.6.+.I q 0 8 5 3 : * & & @ @ + # & & * * = = = = = = * * = = & & # & & % # # # # # # # * * 4 4 5 0 0 w T $.8.[.{. X X X X-X-X>X>X>X>X>X>X>X#X X{.e.Q 0 , , 4 9 r 5.;XvXCXDXHXJXKXJXPXPXPXPXPXPXPXPXPXPXPXPXPXPXPXPXPXPXPXPXPXPXPXPXPXPXPXPXPXPXPXPXPXPXPXPXPXPXPXPXPXPXPXPXPXPXPXPXPXPXPXPXPXPXPXPXPXPXPXPXPXPXPXPXPXPXPXPXPXPXPXPXPXPXPXPXPXPXPXPXPXPXPXPXPXPXPXPXPXPXPXPXPXPXPXPXPXPXPXPXPXPXPXPXPXPXPXPXPXPXPXPXPXPXPXPXPXPXPXPXPXPXPXPXPXPXPXPXPXPXPXPXPXPXPXPXPXPXPXPXPXPXPXPXPXPXPXPXPXPXPXPXPXPXPXPXPXPXPXPXPXPXPXPXPXPXPXPXPXPXPXPXPXPXPXPXPXPXPX",
"PXPXPXPXPXPXPXPXPXPXPXPXPXPXPXPXPXPXPXPXPXPXPXPXPXPXPXPXPXPXPXPXPXPXPXPXPXPXPXPXPXPXPXPXPXPXPXPXPXPXPXPXPXPXPXPXPXPXPXPXPXPXPXPXPXPXPXPXPXPXPXPXPXPXPXPXPXPXPXPXPXPXPXPXPXPXPXPXPXPXPXPXPXPXPXPXPXPXPXPXPXPXPXPXPXPXPXPXPXPXPXPXPXPXPXPXPXPXPXPXPXPXPXPXPXPXPXPXPXPXPXPXPXPXPXPXPXPXPXPXPXPXPXPXPXPXPXPXPXPXPXPXPXPXPXPXPXPXPXPXPXPXPXPXPXPXPXPXPXPXPXPXPXPXKXKXKXJXDXnXkXh.O.8 * & 8 w $.{.-X3X3X8X3X3X4X,X,X,X,X>X<X3X<X-X-X+X{.s.6.T 0 6 , : & @ & & * 4 8 8 0 K Y +.*.0.9.a.d.f.+X@X+X+X+X+X+X+X+X+X+X+X+X+X@Xg.d.d.a.0.6.&.O.Y w q 0 8 8 4 , * & & @ : : 5 0 P 1.i.[.|. X X-X>X>XoX#X#X-X-X-X#X Xf.1.K 8 4 4 8 e 5.dXkXmXFXJXJXKXPXPXPXPXPXPXPXPXPXPXPXPXPXPXPXPXPXPXPXPXPXPXPXPXPXPXPXPXPXPXPXPXPXPXPXPXPXPXPXPXPXPXPXPXPXPXPXPXPXPXPXPXPXPXPXPXPXPXPXPXPXPXPXPXPXPXPXPXPXPXPXPXPXPXPXPXPXPXPXPXPXPXPXPXPXPXPXPXPXPXPXPXPXPXPXPXPXPXPXPXPXPXPXPXPXPXPXPXPXPXPXPXPXPXPXPXPXPXPXPXPXPXPXPXPXPXPXPXPXPXPXPXPXPXPXPXPXPXPXPXPXPXPXPXPXPXPXPXPXPXPXPXPXPXPXPXPXPXPXPXPXPXPXPXPXPXPXPXPXPXPXPXPXPXPXPXPX",
"PXPXPXPXPXPXPXPXPXPXPXPXPXPXPXPXPXPXPXPXPXPXPXPXPXPXPXPXPXPXPXPXPXPXPXPXPXPXPXPXPXPXPXPXPXPXPXPXPXPXPXPXPXPXPXPXPXPXPXPXPXPXPXPXPXPXPXPXPXPXPXPXPXPXPXPXPXPXPXPXPXPXPXPXPXPXPXPXPXPXPXPXPXPXPXPXPXPXPXPXPXPXPXPXPXPXPXPXPXPXPXPXPXPXPXPXPXPXPXPXPXPXPXPXPXPXPXPXPXPXPXPXPXPXPXPXPXPXPXPXPXPXPXPXPXPXPXPXPXPXPXPXPXPXPXPXPXPXPXPXPXPXPXPXPXPXPXPXPXPXPXPXKXPXJXFXBXhX*XO.8 * * 0 +.8.|.2X3X4X4X1X1X1X,X>X>X,X4X4X3X>X#X{.r.*.T 0 : & @ & * 4 e Y O.&.6.0.d.g.+X;X;X-X:X:X:X:X-X-X-X:X:X:X:X-X:X-X-X-X-X-X-X-X-X-X-X-X-X-X:X-X-X-X-X:X;X;X;X+X+Xd.a.0.5.O.Y w 8 , @ @ & & > 8 K ..,.w.[. X#X#X#X#X X-X-X-X#X#X|.9.^ I 5 3 8 e 5.sXkXAXJXJXKXKXPXPXPXPXPXPXPXPXPXPXPXPXPXPXPXPXPXPXPXPXPXPXPXPXPXPXPXPXPXPXPXPXPXPXPXPXPXPXPXPXPXPXPXPXPXPXPXPXPXPXPXPXPXPXPXPXPXPXPXPXPXPXPXPXPXPXPXPXPXPXPXPXPXPXPXPXPXPXPXPXPXPXPXPXPXPXPXPXPXPXPXPXPXPXPXPXPXPXPXPXPXPXPXPXPXPXPXPXPXPXPXPXPXPXPXPXPXPXPXPXPXPXPXPXPXPXPXPXPXPXPXPXPXPXPXPXPXPXPXPXPXPXPXPXPXPXPXPXPXPXPXPXPXPXPXPXPXPXPXPXPXPXPXPXPXPXPXPXPXPXPXPXPXPX",
"PXPXPXPXPXPXPXPXPXPXPXPXPXPXPXPXPXPXPXPXPXPXPXPXPXPXPXPXPXPXPXPXPXPXPXPXPXPXPXPXPXPXPXPXPXPXPXPXPXPXPXPXPXPXPXPXPXPXPXPXPXPXPXPXPXPXPXPXPXPXPXPXPXPXPXPXPXPXPXPXPXPXPXPXPXPXPXPXPXPXPXPXPXPXPXPXPXPXPXPXPXPXPXPXPXPXPXPXPXPXPXPXPXPXPXPXPXPXPXPXPXPXPXPXPXPXPXPXPXPXPXPXPXPXPXPXPXPXPXPXPXPXPXPXPXPXPXPXPXPXPXPXPXPXPXPXPXPXPXPXPXPXPXPXPXPXPXPXPXJXJXJXJXFXkXh.5.8 & + 8 +.a.+X3X5X3X4X,X1X,X,X,X>X>X<X4X3X#Xi.*.T q 5 & + + * 8 ! 5.6.a.d.+X;X;X-X:X:X:X:X:X:X:X:X:X:X2X>X-X-X>X2X2X2X2X2X-X-X-X:X2X2X2X-X-X:X-X-X2X2X:X-X-X-X:X:X:X:X:X:X:X:X:X:X:X;X@X+Xd.i.0.5.O.q 4 @ + & * 5 0 K W ,.p.|.#X X X XoX#X#X#X#X{.r.$.0 & * 8 r y.sXnXGXJXJXPXPXPXPXPXPXPXPXPXPXPXPXPXPXPXPXPXPXPXPXPXPXPXPXPXPXPXPXPXPXPXPXPXPXPXPXPXPXPXPXPXPXPXPXPXPXPXPXPXPXPXPXPXPXPXPXPXPXPXPXPXPXPXPXPXPXPXPXPXPXPXPXPXPXPXPXPXPXPXPXPXPXPXPXPXPXPXPXPXPXPXPXPXPXPXPXPXPXPXPXPXPXPXPXPXPXPXPXPXPXPXPXPXPXPXPXPXPXPXPXPXPXPXPXPXPXPXPXPXPXPXPXPXPXPXPXPXPXPXPXPXPXPXPXPXPXPXPXPXPXPXPXPXPXPXPXPXPXPXPXPXPXPXPXPXPXPXPXPXPXPXPXPX",
"PXPXPXPXPXPXPXPXPXPXPXPXPXPXPXPXPXPXPXPXPXPXPXPXPXPXPXPXPXPXPXPXPXPXPXPXPXPXPXPXPXPXPXPXPXPXPXPXPXPXPXPXPXPXPXPXPXPXPXPXPXPXPXPXPXPXPXPXPXPXPXPXPXPXPXPXPXPXPXPXPXPXPXPXPXPXPXPXPXPXPXPXPXPXPXPXPXPXPXPXPXPXPXPXPXPXPXPXPXPXPXPXPXPXPXPXPXPXPXPXPXPXPXPXPXPXPXPXPXPXPXPXPXPXPXPXPXPXPXPXPXPXPXPXPXPXPXPXPXPXPXPXPXPXPXPXPXPXPXPXPXPXPXPXKXKXHXPXPXJXGXAXdX5.8 & + , O.d.-X5X8X8X4X<X4X1X>X>X<X<X8X8X-X[.$.w 8 & + + + = r 6.d.@X;X;X:X:X:X:X:X:X:X-X-X-X-X>X>X>X:X:X:X:X>X>X>X2X2X2X3X3X2X2X:X-X-X:X:X:X:X-X:X2X:X:X2X2X>X>X-X-X>X2X2X-X-X-X-X-X-X-X-X:X:X-X:X:X:X;X;X+X@Xg.a.O.q * + + + * , 9 L 7.|.#X#X X X X-X X X X+Xf.$.8 @ @ 8 e y.kXDXJXKXPXJXJXKXPXPXPXPXPXPXPXPXPXPXPXPXPXPXPXPXPXPXPXPXPXPXPXPXPXPXPXPXPXPXPXPXPXPXPXPXPXPXPXPXPXPXPXPXPXPXPXPXPXPXPXPXPXPXPXPXPXPXPXPXPXPXPXPXPXPXPXPXPXPXPXPXPXPXPXPXPXPXPXPXPXPXPXPXPXPXPXPXPXPXPXPXPXPXPXPXPXPXPXPXPXPXPXPXPXPXPXPXPXPXPXPXPXPXPXPXPXPXPXPXPXPXPXPXPXPXPXPXPXPXPXPXPXPXPXPXPXPXPXPXPXPXPXPXPXPXPXPXPXPXPXPXPXPXPXPXPXPXPXPXPXPXPXPXPXPXPX",
"PXPXPXPXPXPXPXPXPXPXPXPXPXPXPXPXPXPXPXPXPXPXPXPXPXPXPXPXPXPXPXPXPXPXPXPXPXPXPXPXPXPXPXPXPXPXPXPXPXPXPXPXPXPXPXPXPXPXPXPXPXPXPXPXPXPXPXPXPXPXPXPXPXPXPXPXPXPXPXPXPXPXPXPXPXPXPXPXPXPXPXPXPXPXPXPXPXPXPXPXPXPXPXPXPXPXPXPXPXPXPXPXPXPXPXPXPXPXPXPXPXPXPXPXPXPXPXPXPXPXPXPXPXPXPXPXPXPXPXPXPXPXPXPXPXPXPXPXPXPXPXPXPXPXPXPXPXPXPXPXPXPXPXJXKXKXFXFXDXnXg.e = * : 0 0.-X5X8X6X1X1X1X,X1X,X<X<X4X5X#X8.U 5 * @ & & 8 Y 0.@X:X:X:X:X:X-X:X:X<X:X:X2X:X:X:X:X-X:X:X-X-X:X:X:X:X2X2X3X2X2X2X2X2X2X2X2X:X:X:X:X2X:X:X:X:X:X:X2X2X2X2X2X-X:X2X2X:X:X:X:X:X:X:X:X:X-X-X-X:X-X-X-X-X:X:X-X;X;X@Xg.6.I 4 : * & & > 0 ,.{.|. X X X X X X X#X+Xr.T , * 4 8 r dXNXDXFXJXJXKXPXPXPXPXPXPXPXPXPXPXPXPXPXPXPXPXPXPXPXPXPXPXPXPXPXPXPXPXPXPXPXPXPXPXPXPXPXPXPXPXPXPXPXPXPXPXPXPXPXPXPXPXPXPXPXPXPXPXPXPXPXPXPXPXPXPXPXPXPXPXPXPXPXPXPXPXPXPXPXPXPXPXPXPXPXPXPXPXPXPXPXPXPXPXPXPXPXPXPXPXPXPXPXPXPXPXPXPXPXPXPXPXPXPXPXPXPXPXPXPXPXPXPXPXPXPXPXPXPXPXPXPXPXPXPXPXPXPXPXPXPXPXPXPXPXPXPXPXPXPXPXPXPXPXPXPXPXPXPXPXPXPXPXPXPXPX",
"PXPXPXPXPXPXPXPXPXPXPXPXPXPXPXPXPXPXPXPXPXPXPXPXPXPXPXPXPXPXPXPXPXPXPXPXPXPXPXPXPXPXPXPXPXPXPXPXPXPXPXPXPXPXPXPXPXPXPXPXPXPXPXPXPXPXPXPXPXPXPXPXPXPXPXPXPXPXPXPXPXPXPXPXPXPXPXPXPXPXPXPXPXPXPXPXPXPXPXPXPXPXPXPXPXPXPXPXPXPXPXPXPXPXPXPXPXPXPXPXPXPXPXPXPXPXPXPXPXPXPXPXPXPXPXPXPXPXPXPXPXPXPXPXPXPXPXPXPXPXPXPXPXPXPXPXPXPXPXPXPXKXKXJXGXDXmXkXy.7 % & 8 +.+X5X8X9X8X6X1X1X,X1X1X4X3X-X|.>.9 & @ & , 8 ! 6.+X:X5X2X2X:X-X:X:X<X-X-X-X<X<X2X2X2X:X:X:X:X:X:X:X:X:X:X:X:X2X2X3X2X2X2X2X2X2X2X>X>X>X2X>X>X2X-X-X2X:X:X:X2X2X-X:X:X2X2X2X-X-X-X:X:X:X:X:X:X:X:X:X:X-X-X-X-X-X-X-X-X-X:X:X:X:X-Xg.5.r 8 , @ @ : 0 $.i.[. X X X X X#X#X#X|.$.0 5 , * e *XkXCXDXHXHXKXKXPXPXPXPXPXPXPXPXPXPXPXPXPXPXPXPXPXPXPXPXPXPXPXPXPXPXPXPXPXPXPXPXPXPXPXPXPXPXPXPXPXPXPXPXPXPXPXPXPXPXPXPXPXPXPXPXPXPXPXPXPXPXPXPXPXPXPXPXPXPXPXPXPXPXPXPXPXPXPXPXPXPXPXPXPXPXPXPXPXPXPXPXPXPXPXPXPXPXPXPXPXPXPXPXPXPXPXPXPXPXPXPXPXPXPXPXPXPXPXPXPXPXPXPXPXPXPXPXPXPXPXPXPXPXPXPXPXPXPXPXPXPXPXPXPXPXPXPXPXPXPXPXPXPXPXPXPXPXPXPXPXPXPX",
"PXPXPXPXPXPXPXPXPXPXPXPXPXPXPXPXPXPXPXPXPXPXPXPXPXPXPXPXPXPXPXPXPXPXPXPXPXPXPXPXPXPXPXPXPXPXPXPXPXPXPXPXPXPXPXPXPXPXPXPXPXPXPXPXPXPXPXPXPXPXPXPXPXPXPXPXPXPXPXPXPXPXPXPXPXPXPXPXPXPXPXPXPXPXPXPXPXPXPXPXPXPXPXPXPXPXPXPXPXPXPXPXPXPXPXPXPXPXPXPXPXPXPXPXPXPXPXPXPXPXPXPXPXPXPXPXPXPXPXPXPXPXPXPXPXPXPXPXPXPXPXPXPXPXPXPXKXKXKXKXKXHXGXAXvXsX5.= # 4 Y 8.#X3X4X4X4X9X4X4X4X3X<X>X|.i.W 5 & @ : q ! 6.d.-X2X<X<X:X-X-X>X:X:X:X:X:X:X:X:X:X<X:X<X<X:X:X:X:X-X:X:X:X:X:X:X:X:X:X:X:X:X:X:X2X2X:X:X:X:X2X:X2X2X>X2X:X2X2X2X2X:X:X:X:X:X-X-X-X:X:X:X:X:X:X:X:X:X-X-X-X-X-X:X:X-X:X:X:X:X:X:X:X:X:X-X:X:X+Xa.&.I 8 = & * 0 ^ 0.].|. X X X X X X X3.U 8 = * 8 y.hXnXDXHXKXKXKXPXPXPXPXPXPXPXPXPXPXPXPXPXPXPXPXPXPXPXPXPXPXPXPXPXPXPXPXPXPXPXPXPXPXPXPXPXPXPXPXPXPXPXPXPXPXPXPXPXPXPXPXPXPXPXPXPXPXPXPXPXPXPXPXPXPXPXPXPXPXPXPXPXPXPXPXPXPXPXPXPXPXPXPXPXPXPXPXPXPXPXPXPXPXPXPXPXPXPXPXPXPXPXPXPXPXPXPXPXPXPXPXPXPXPXPXPXPXPXPXPXPXPXPXPXPXPXPXPXPXPXPXPXPXPXPXPXPXPXPXPXPXPXPXPXPXPXPXPXPXPXPXPXPXPXPXPXPXPXPXPX",
"PXPXPXPXPXPXPXPXPXPXPXPXPXPXPXPXPXPXPXPXPXPXPXPXPXPXPXPXPXPXPXPXPXPXPXPXPXPXPXPXPXPXPXPXPXPXPXPXPXPXPXPXPXPXPXPXPXPXPXPXPXPXPXPXPXPXPXPXPXPXPXPXPXPXPXPXPXPXPXPXPXPXPXPXPXPXPXPXPXPXPXPXPXPXPXPXPXPXPXPXPXPXPXPXPXPXPXPXPXPXPXPXPXPXPXPXPXPXPXPXPXPXPXPXPXPXPXPXPXPXPXPXPXPXPXPXPXPXPXPXPXPXPXPXPXPXPXPXPXPXPXPXPXPXPXPXKXKXKXJXFXDXkXg.r = + 8 6.{.:X8X6X6X4X4X1X1X1X7X5X#X8.@.8 * + , r 5.a.+X-X:X2X2X<X:X-X-X-X-X<X<X<X<X<X<X<X<X<X:X<X<X:X:X:X:X:X:X:X:X:X:X:X:X:X:X:X:X:X:X:X:X-X-X-X-X#X#X#X#X#X#X#X#X#X#X#X#X#X#X#X#X#X#X#X#X#X-X-X-X-X-X-X-X-X-X:X-X-X-X:X-X:X:X-X:X:X:X-X-X:X:X:X:X:X:X:X-X;X-X@Xd.0.@.8 : : : 0 T 7.{. X X X X X X{.r.*.0 : * 8 5.;XnXFXJXKXPXKXPXPXPXPXPXPXPXPXPXPXPXPXPXPXPXPXPXPXPXPXPXPXPXPXPXPXPXPXPXPXPXPXPXPXPXPXPXPXPXPXPXPXPXPXPXPXPXPXPXPXPXPXPXPXPXPXPXPXPXPXPXPXPXPXPXPXPXPXPXPXPXPXPXPXPXPXPXPXPXPXPXPXPXPXPXPXPXPXPXPXPXPXPXPXPXPXPXPXPXPXPXPXPXPXPXPXPXPXPXPXPXPXPXPXPXPXPXPXPXPXPXPXPXPXPXPXPXPXPXPXPXPXPXPXPXPXPXPXPXPXPXPXPXPXPXPXPXPXPXPXPXPXPXPXPXPXPXPXPX",
"PXPXPXPXPXPXPXPXPXPXPXPXPXPXPXPXPXPXPXPXPXPXPXPXPXPXPXPXPXPXPXPXPXPXPXPXPXPXPXPXPXPXPXPXPXPXPXPXPXPXPXPXPXPXPXPXPXPXPXPXPXPXPXPXPXPXPXPXPXPXPXPXPXPXPXPXPXPXPXPXPXPXPXPXPXPXPXPXPXPXPXPXPXPXPXPXPXPXPXPXPXPXPXPXPXPXPXPXPXPXPXPXPXPXPXPXPXPXPXPXPXPXPXPXPXPXPXPXPXPXPXPXPXPXPXPXPXPXPXPXPXPXPXPXPXPXPXPXPXPXPXPXPXPXPXPXPXJXJXDXkX5.e * * q r.-X3X4X1X1X1X1X1X6X1X7X<Xf.P 8 & + = w 0.@X;X;X:X:X:X:X-X<X>X-X-X:X:X:X<X<X:X:X-X-X:X:X2X:X:X:X:X:X:X:X:X:X:X:X-X-X-X-X-X-X-X#X+X|.|.|.{.{.{.{.[.{.[.[.[.[.[.[.[.[.[.[.[.[.[.[.[.[.{.[.[.[.[.{.{.|.{.{.|.+X#X-X-X-X-X-X-X:X-X-X:X-X-X-X:X:X:X-X-X:X:X:X-X-X-X-X-X@X+Xr.@.8 * & , 8 U 8.|. X X|. X|. X{.r.P , * 8 e h.nXDXJXJXPXPXPXPXPXPXPXPXPXPXPXPXPXPXPXPXPXPXPXPXPXPXPXPXPXPXPXPXPXPXPXPXPXPXPXPXPXPXPXPXPXPXPXPXPXPXPXPXPXPXPXPXPXPXPXPXPXPXPXPXPXPXPXPXPXPXPXPXPXPXPXPXPXPXPXPXPXPXPXPXPXPXPXPXPXPXPXPXPXPXPXPXPXPXPXPXPXPXPXPXPXPXPXPXPXPXPXPXPXPXPXPXPXPXPXPXPXPXPXPXPXPXPXPXPXPXPXPXPXPXPXPXPXPXPXPXPXPXPXPXPXPXPXPXPXPXPXPXPXPXPXPXPXPXPXPXPXPXPX",
"PXPXPXPXPXPXPXPXPXPXPXPXPXPXPXPXPXPXPXPXPXPXPXPXPXPXPXPXPXPXPXPXPXPXPXPXPXPXPXPXPXPXPXPXPXPXPXPXPXPXPXPXPXPXPXPXPXPXPXPXPXPXPXPXPXPXPXPXPXPXPXPXPXPXPXPXPXPXPXPXPXPXPXPXPXPXPXPXPXPXPXPXPXPXPXPXPXPXPXPXPXPXPXPXPXPXPXPXPXPXPXPXPXPXPXPXPXPXPXPXPXPXPXPXPXPXPXPXPXPXPXPXPXPXPXPXPXPXPXPXPXPXPXPXPXPXPXPXPXKXKXKXHXKXKXPXGXAXkX5.= % = q d.2X3X8X4X1X,X1X1X1X7X<X#X*.8 @ & , 9 &.@X:X:X:X:X:X:X2X2X2X2X2X2X:X:X:X:X:X:X:X:X:X<X<X:X:X:X<X2X:X:X:X-X-X-X-X-X-X#X+X|.{.[.f.f.f.[.f.f.f.[.s.].].].[.[.[.].].].].].].].].].].[.[.[.[.[.].].].[.[.].[.[.[.[.[.].].[.[.{.|.+X+X#X#X-X-X-X-X-X-X-X-X-X2X-X-X-X-X-X:X:X-X-X:X;X@Xa.r 4 * @ & 9 :.[.{. X X X X|.|.i.T 8 = = 8 g.vXAXJXKXKXPXPXPXPXPXPXPXPXPXPXPXPXPXPXPXPXPXPXPXPXPXPXPXPXPXPXPXPXPXPXPXPXPXPXPXPXPXPXPXPXPXPXPXPXPXPXPXPXPXPXPXPXPXPXPXPXPXPXPXPXPXPXPXPXPXPXPXPXPXPXPXPXPXPXPXPXPXPXPXPXPXPXPXPXPXPXPXPXPXPXPXPXPXPXPXPXPXPXPXPXPXPXPXPXPXPXPXPXPXPXPXPXPXPXPXPXPXPXPXPXPXPXPXPXPXPXPXPXPXPXPXPXPXPXPXPXPXPXPXPXPXPXPXPXPXPXPXPXPXPXPXPXPXPXPXPX",
"PXPXPXPXPXPXPXPXPXPXPXPXPXPXPXPXPXPXPXPXPXPXPXPXPXPXPXPXPXPXPXPXPXPXPXPXPXPXPXPXPXPXPXPXPXPXPXPXPXPXPXPXPXPXPXPXPXPXPXPXPXPXPXPXPXPXPXPXPXPXPXPXPXPXPXPXPXPXPXPXPXPXPXPXPXPXPXPXPXPXPXPXPXPXPXPXPXPXPXPXPXPXPXPXPXPXPXPXPXPXPXPXPXPXPXPXPXPXPXPXPXPXPXPXPXPXPXPXPXPXPXPXPXPXPXPXPXPXPXPXPXPXPXPXPXPXPXPXPXPXKXKXJXHXHXDXkXg.* + , K d.5X9X9X6X1X1X1X1X9X5X:Xf.P : # $ 8 Y d.:X2X2X2X3X<X2X>X2X2X2X2X2X:X:X:X:X:X:X:X:X:X:X2X2X2X2X2X2X:X:X-X-X#X#X+X|.[.f.f.f.f.f.f.f.f.f.f.f.s.f.f.[.f.].].f.f.f.f.f.f.f.f.f.f.f.f.f.f.[.[.[.].].].].].].].].].].].].].].'.].].[.[.s.s.s.s.[.|.+X@X#X#X#X-X-X2X2X2X-X-X-X:X-X:X:X:X:X:X;X;X@X&.0 : + + > T w.{.|. X|.|.|.|.s.T 8 * + 8 h.vXDXGXJXPXKXKXPXPXPXPXPXPXPXPXPXPXPXPXPXPXPXPXPXPXPXPXPXPXPXPXPXPXPXPXPXPXPXPXPXPXPXPXPXPXPXPXPXPXPXPXPXPXPXPXPXPXPXPXPXPXPXPXPXPXPXPXPXPXPXPXPXPXPXPXPXPXPXPXPXPXPXPXPXPXPXPXPXPXPXPXPXPXPXPXPXPXPXPXPXPXPXPXPXPXPXPXPXPXPXPXPXPXPXPXPXPXPXPXPXPXPXPXPXPXPXPXPXPXPXPXPXPXPXPXPXPXPXPXPXPXPXPXPXPXPXPXPXPXPXPXPXPXPXPXPXPXPXPX",
"PXPXPXPXPXPXPXPXPXPXPXPXPXPXPXPXPXPXPXPXPXPXPXPXPXPXPXPXPXPXPXPXPXPXPXPXPXPXPXPXPXPXPXPXPXPXPXPXPXPXPXPXPXPXPXPXPXPXPXPXPXPXPXPXPXPXPXPXPXPXPXPXPXPXPXPXPXPXPXPXPXPXPXPXPXPXPXPXPXPXPXPXPXPXPXPXPXPXPXPXPXPXPXPXPXPXPXPXPXPXPXPXPXPXPXPXPXPXPXPXPXPXPXPXPXPXPXPXPXPXPXPXPXPXPXPXPXPXPXPXPXPXPXPXPXPXPXPXPXKXKXHXFXAXkXg.8 X 4 +.s.3X9X4X1X1X6X6X1X6X3X X6.0 @ @ 8 Y 6.+X:X5X2X<X<X2X2X2X2X2X2X2X2X2X:X:X:X:X:X:X:X:X:X:X2X2X2X2X:X-X-X#X|.|.[.f.f.f.f.f.f.f.f.f.f.f.f.f.f.f.f.f.f.f.f.f.[.[.s.s.s.s.f.f.f.f.f.f.f.f.f.f.[.[.[.].].].].].].].].].].[.].].].].].].].s.s.s.s.s.[.s.d.d.s.[.{.+X+X#X#X#X-X:X:X:X:X-X-X-X-X-X-X-X:X;X@Xa.^ q * + : K 1.s.|.|.|.|.|. Xp.#.9 , * e h.kXDXFXPXHXPXPXPXPXPXPXPXPXPXPXPXPXPXPXPXPXPXPXPXPXPXPXPXPXPXPXPXPXPXPXPXPXPXPXPXPXPXPXPXPXPXPXPXPXPXPXPXPXPXPXPXPXPXPXPXPXPXPXPXPXPXPXPXPXPXPXPXPXPXPXPXPXPXPXPXPXPXPXPXPXPXPXPXPXPXPXPXPXPXPXPXPXPXPXPXPXPXPXPXPXPXPXPXPXPXPXPXPXPXPXPXPXPXPXPXPXPXPXPXPXPXPXPXPXPXPXPXPXPXPXPXPXPXPXPXPXPXPXPXPXPXPXPXPXPXPXPXPXPXPXPXPX",
"PXPXPXPXPXPXPXPXPXPXPXPXPXPXPXPXPXPXPXPXPXPXPXPXPXPXPXPXPXPXPXPXPXPXPXPXPXPXPXPXPXPXPXPXPXPXPXPXPXPXPXPXPXPXPXPXPXPXPXPXPXPXPXPXPXPXPXPXPXPXPXPXPXPXPXPXPXPXPXPXPXPXPXPXPXPXPXPXPXPXPXPXPXPXPXPXPXPXPXPXPXPXPXPXPXPXPXPXPXPXPXPXPXPXPXPXPXPXPXPXPXPXPXPXPXPXPXPXPXPXPXPXPXPXPXPXPXPXPXPXPXPXPXPXPXPXKXKXPXHXGXAXkXy.e % = @.f.>X4X1X1X1X1X1X9X8X>Xu...8 * : w 6.f.-X2X2X:X:X2X:X<X:X2X:X:X2X<X<X2X2X:X:X:X:X:X:X:X:X:X-X:X-X#X+X|.|.[.[.[.f.f.f.[.[.f.f.[.f.[.[.f.s.s.s.s.].[.[.f.s.f.[.[.[.f.f.f.f.f.f.f.f.f.f.f.f.f.f.[.[.[.[.[.[.[.].].].].].].].].].].].].].].s.s.s.s.[.[.s.s.s.s.s.s.s.s.[.{.|.+X#X#X-X-X:X:X:X:X:X:X-X-X-X-X:X-Xg.0.Y 4 @ & 0 +.r.{.{.}.}.}.{.u...0 = = r h.vXDXJXHXKXPXPXPXPXPXPXPXPXPXPXPXPXPXPXPXPXPXPXPXPXPXPXPXPXPXPXPXPXPXPXPXPXPXPXPXPXPXPXPXPXPXPXPXPXPXPXPXPXPXPXPXPXPXPXPXPXPXPXPXPXPXPXPXPXPXPXPXPXPXPXPXPXPXPXPXPXPXPXPXPXPXPXPXPXPXPXPXPXPXPXPXPXPXPXPXPXPXPXPXPXPXPXPXPXPXPXPXPXPXPXPXPXPXPXPXPXPXPXPXPXPXPXPXPXPXPXPXPXPXPXPXPXPXPXPXPXPXPXPXPXPXPXPXPXPXPXPXPXPXPX",
"PXPXPXPXPXPXPXPXPXPXPXPXPXPXPXPXPXPXPXPXPXPXPXPXPXPXPXPXPXPXPXPXPXPXPXPXPXPXPXPXPXPXPXPXPXPXPXPXPXPXPXPXPXPXPXPXPXPXPXPXPXPXPXPXPXPXPXPXPXPXPXPXPXPXPXPXPXPXPXPXPXPXPXPXPXPXPXPXPXPXPXPXPXPXPXPXPXPXPXPXPXPXPXPXPXPXPXPXPXPXPXPXPXPXPXPXPXPXPXPXPXPXPXPXPXPXPXPXPXPXPXPXPXPXPXPXPXPXPXPXPXPXPXPXKXKXKXKXHXAXkXy.e % = O.f.2X4X1X1X1X1X1X6X3X-X8.K , & 4 O.i.-X:X5X2X<X<X<X:X<X<X<X<X<X2X2X2X<X<X:X:X:X:X:X:X:X:X-X-X#X#X|.{.{.[.[.f.f.f.f.f.[.s.].[.[.[.[.].[.[.].].].].].].].[.].].[.[.[.[.[.[.[.[.[.[.[.f.f.f.f.f.f.f.[.[.[.[.[.[.[.[.[.[.[.[.].].].].].].].].].].].].].].].].[.[.].s.s.].s.s.s.s.s.[.[.{.|.#X-X-X:X:X:X:X:X-X-X-X:X-X-X+Xd.&.8 * & 8 W w.{.}.}.}.}.`.u.+.0 : 4 r sXnXDXHXHXJXKXKXPXPXPXPXPXPXPXPXPXPXPXPXPXPXPXPXPXPXPXPXPXPXPXPXPXPXPXPXPXPXPXPXPXPXPXPXPXPXPXPXPXPXPXPXPXPXPXPXPXPXPXPXPXPXPXPXPXPXPXPXPXPXPXPXPXPXPXPXPXPXPXPXPXPXPXPXPXPXPXPXPXPXPXPXPXPXPXPXPXPXPXPXPXPXPXPXPXPXPXPXPXPXPXPXPXPXPXPXPXPXPXPXPXPXPXPXPXPXPXPXPXPXPXPXPXPXPXPXPXPXPXPXPXPXPXPXPXPXPXPXPXPXPXPXPXPX",
"PXPXPXPXPXPXPXPXPXPXPXPXPXPXPXPXPXPXPXPXPXPXPXPXPXPXPXPXPXPXPXPXPXPXPXPXPXPXPXPXPXPXPXPXPXPXPXPXPXPXPXPXPXPXPXPXPXPXPXPXPXPXPXPXPXPXPXPXPXPXPXPXPXPXPXPXPXPXPXPXPXPXPXPXPXPXPXPXPXPXPXPXPXPXPXPXPXPXPXPXPXPXPXPXPXPXPXPXPXPXPXPXPXPXPXPXPXPXPXPXPXPXPXPXPXPXPXPXPXPXPXPXPXPXPXPXPXPXPXPXPXPXPXPXKXKXHXDXvXg.8 % , Y [.<X8X6X1X1X6X6X8X<X X3.9 @ $ 0 O.+X:X5X2X2X2X<X<X<X<X<X<X<X<X<X<X:X2X2X<X<X:X:X:X:X:X-X-X#X X{.[.[.[.].[.[.f.s.f.[.[.[.[.].].].[.[.[.[.[.[.].].].].].[.[.[.].].].[.[.[.[.[.[.[.[.[.[.f.f.f.[.[.f.f.[.[.[.[.[.[.[.[.[.].].].[.].].].].].].].].].].].'.].].].[.[.[.[.s.s.s.s.s.[.s.s.s.s.s.f.[.|.#X-X-X:X:X:X:X-X-X-X:X-X-X;X@X6.q , @ , U 8.f.{.}.{.{.[.p.Q 9 , 4  .dXmXFXJXHXPXPXPXKXPXPXPXPXPXPXPXPXPXPXPXPXPXPXPXPXPXPXPXPXPXPXPXPXPXPXPXPXPXPXPXPXPXPXPXPXPXPXPXPXPXPXPXPXPXPXPXPXPXPXPXPXPXPXPXPXPXPXPXPXPXPXPXPXPXPXPXPXPXPXPXPXPXPXPXPXPXPXPXPXPXPXPXPXPXPXPXPXPXPXPXPXPXPXPXPXPXPXPXPXPXPXPXPXPXPXPXPXPXPXPXPXPXPXPXPXPXPXPXPXPXPXPXPXPXPXPXPXPXPXPXPXPXPXPXPXPXPXPXPXPXPXPX",
"PXPXPXPXPXPXPXPXPXPXPXPXPXPXPXPXPXPXPXPXPXPXPXPXPXPXPXPXPXPXPXPXPXPXPXPXPXPXPXPXPXPXPXPXPXPXPXPXPXPXPXPXPXPXPXPXPXPXPXPXPXPXPXPXPXPXPXPXPXPXPXPXPXPXPXPXPXPXPXPXPXPXPXPXPXPXPXPXPXPXPXPXPXPXPXPXPXPXPXPXPXPXPXPXPXPXPXPXPXPXPXPXPXPXPXPXPXPXPXPXPXPXPXPXPXPXPXPXPXPXPXPXPXPXPXPXPXPXPXPXPXPXPXKXPXKXBXsXe X & r i.<X6X1X1X1X1X6X9X8X#X1.9 @ @ w 0.@X5X:X2X2X2X2X<X2X2X2X<X<X<X<X<X<X<X:X:X2X2X2X:X:X-X-X#X|.{.[.[.[.[.[.].[.[.].[.s.s.f.[.[.[.].].].[.[.[.].s.s.].].].].[.[.[.[.[.[.].[.[.[.[.[.[.[.[.[.[.[.[.[.[.[.[.[.[.[.[.[.[.[.[.[.].s.].].[.[.].].].].].].[.].].].].].].].[.[.[.].].s.s.s.s.[.s.s.s.s.s.s.f.s.p.[.|.+X-X-X:X:X-X-X-X-X-X-X:X;X@X0.r , + * K 1.[.|.{.}.}.{.t.P 8 = 8 5.hXAXHXJXPXKXKXKXPXPXPXPXPXPXPXPXPXPXPXPXPXPXPXPXPXPXPXPXPXPXPXPXPXPXPXPXPXPXPXPXPXPXPXPXPXPXPXPXPXPXPXPXPXPXPXPXPXPXPXPXPXPXPXPXPXPXPXPXPXPXPXPXPXPXPXPXPXPXPXPXPXPXPXPXPXPXPXPXPXPXPXPXPXPXPXPXPXPXPXPXPXPXPXPXPXPXPXPXPXPXPXPXPXPXPXPXPXPXPXPXPXPXPXPXPXPXPXPXPXPXPXPXPXPXPXPXPXPXPXPXPXPXPXPXPXPXPXPXPXPX",
"PXPXPXPXPXPXPXPXPXPXPXPXPXPXPXPXPXPXPXPXPXPXPXPXPXPXPXPXPXPXPXPXPXPXPXPXPXPXPXPXPXPXPXPXPXPXPXPXPXPXPXPXPXPXPXPXPXPXPXPXPXPXPXPXPXPXPXPXPXPXPXPXPXPXPXPXPXPXPXPXPXPXPXPXPXPXPXPXPXPXPXPXPXPXPXPXPXPXPXPXPXPXPXPXPXPXPXPXPXPXPXPXPXPXPXPXPXPXPXPXPXPXPXPXPXPXPXPXPXPXPXPXPXPXPXPXKXPXKXPXHXKXKXHXDXkX5.% X 9 0.:X8X1X1X,X,X1X9X8X#X*.8 + & Y 0.-XfX5X2X2X2X2X2X2X2X<X2X<X2X2X2X<X-X:X:X:X2X:X2X-X#X+X|.[.[.[.[.[.[.[.[.[.[.[.[.[.[.[.[.[.[.[.].].].].[.[.[.[.[.[.[.[.[.].].].].].].].[.[.[.[.[.[.[.[.[.[.[.[.].s.s.p.p.p.s.].[.[.[.[.[.[.[.[.[.[.[.[.].].].].].].].[.[.[.].].].].[.[.].[.].].].].].].].].[.].].s.s.s.s.s.s.s.[.+X#X-X-X:X:X-X-X-X-X-X-X:X;Xa.O.4 + > K 7.[.{.}.}.{.{.7.U : * 8 y.vXGXJXHXHXHXKXKXKXPXPXPXPXPXPXPXPXPXPXPXPXPXPXPXPXPXPXPXPXPXPXPXPXPXPXPXPXPXPXPXPXPXPXPXPXPXPXPXPXPXPXPXPXPXPXPXPXPXPXPXPXPXPXPXPXPXPXPXPXPXPXPXPXPXPXPXPXPXPXPXPXPXPXPXPXPXPXPXPXPXPXPXPXPXPXPXPXPXPXPXPXPXPXPXPXPXPXPXPXPXPXPXPXPXPXPXPXPXPXPXPXPXPXPXPXPXPXPXPXPXPXPXPXPXPXPXPXPXPXPXPXPXPXPXPXPXPXPX",
"PXPXPXPXPXPXPXPXPXPXPXPXPXPXPXPXPXPXPXPXPXPXPXPXPXPXPXPXPXPXPXPXPXPXPXPXPXPXPXPXPXPXPXPXPXPXPXPXPXPXPXPXPXPXPXPXPXPXPXPXPXPXPXPXPXPXPXPXPXPXPXPXPXPXPXPXPXPXPXPXPXPXPXPXPXPXPXPXPXPXPXPXPXPXPXPXPXPXPXPXPXPXPXPXPXPXPXPXPXPXPXPXPXPXPXPXPXPXPXPXPXPXPXPXPXPXPXPXPXPXPXPXPXPXPXKXKXPXHXJXHXJXDXnXg.8 + 8 6.-X8X8X1X1X1X1X1X4X#X,.0 @ : r a.;X2X2X<X<X:X2X2X2X2X2X2X2X:X2X2X2X2X<X-X:X:X:X-X-X+X{.[.[.f.f.[.[.[.[.].[.[.[.[.].].[.[.[.[.[.[.].].].].].].[.[.[.[.[.[.[.[.[.].].].].].].[.[.[.[.[.[.[.[.[.[.[.[.].].].].].].].].[.[.[.[.[.[.[.[.[.[.[.[.].].].].].].].[.[.[.].].].].].].].].].].].].].].].].].s.].s.p.s.s.s.s.s.s.s.d.[.+X#X-X-X-X-X-X-X-X-X-X-X@Xd.O.5 & > U w.].[.{.{.{.].6.H : , r *XnXFXGXKXHXHXKXPXPXPXPXPXPXPXPXPXPXPXPXPXPXPXPXPXPXPXPXPXPXPXPXPXPXPXPXPXPXPXPXPXPXPXPXPXPXPXPXPXPXPXPXPXPXPXPXPXPXPXPXPXPXPXPXPXPXPXPXPXPXPXPXPXPXPXPXPXPXPXPXPXPXPXPXPXPXPXPXPXPXPXPXPXPXPXPXPXPXPXPXPXPXPXPXPXPXPXPXPXPXPXPXPXPXPXPXPXPXPXPXPXPXPXPXPXPXPXPXPXPXPXPXPXPXPXPXPXPXPXPXPXPXPXPXPXPXPX",
"PXPXPXPXPXPXPXPXPXPXPXPXPXPXPXPXPXPXPXPXPXPXPXPXPXPXPXPXPXPXPXPXPXPXPXPXPXPXPXPXPXPXPXPXPXPXPXPXPXPXPXPXPXPXPXPXPXPXPXPXPXPXPXPXPXPXPXPXPXPXPXPXPXPXPXPXPXPXPXPXPXPXPXPXPXPXPXPXPXPXPXPXPXPXPXPXPXPXPXPXPXPXPXPXPXPXPXPXPXPXPXPXPXPXPXPXPXPXPXPXPXPXPXPXPXPXPXPXPXPXPXPXPXPXPXPXKXKXHXJXGXmXdXe = 4 ~ #X5X8X6X1X1X1X9X1X#X1.0 : , Y d.-X2X2X2X<X<X<X<X2X:X:X2X2X:X2X2X2X2X2X2X:X-X:X-X+X|.[.[.f.f.[.[.f.[.].].].].].[.[.[.[.[.[.[.[.[.[.[.].].].].].s.].].].].].].f.s.s.s.s.f.].].].[.[.[.[.[.[.[.[.[.[.[.[.].].].].].].].].[.[.[.[.[.[.[.[.[.[.[.[.[.[.[.[.[.[.[.[.[.[.[.].].].].].].].].].].].].].].].].].].].].s.s.s.s.s.s.s.s.s.s.d.f.+X-X-X-X-X-X-X-X-X-X;X@Xg.O.4 $ 5 T 8.[.{.}.}.[.t.,.0 , 8 5.hXNXGXHXHXHXPXPXPXPXPXPXPXPXPXPXPXPXPXPXPXPXPXPXPXPXPXPXPXPXPXPXPXPXPXPXPXPXPXPXPXPXPXPXPXPXPXPXPXPXPXPXPXPXPXPXPXPXPXPXPXPXPXPXPXPXPXPXPXPXPXPXPXPXPXPXPXPXPXPXPXPXPXPXPXPXPXPXPXPXPXPXPXPXPXPXPXPXPXPXPXPXPXPXPXPXPXPXPXPXPXPXPXPXPXPXPXPXPXPXPXPXPXPXPXPXPXPXPXPXPXPXPXPXPXPXPXPXPXPXPXPXPXPXPX",
"PXPXPXPXPXPXPXPXPXPXPXPXPXPXPXPXPXPXPXPXPXPXPXPXPXPXPXPXPXPXPXPXPXPXPXPXPXPXPXPXPXPXPXPXPXPXPXPXPXPXPXPXPXPXPXPXPXPXPXPXPXPXPXPXPXPXPXPXPXPXPXPXPXPXPXPXPXPXPXPXPXPXPXPXPXPXPXPXPXPXPXPXPXPXPXPXPXPXPXPXPXPXPXPXPXPXPXPXPXPXPXPXPXPXPXPXPXPXPXPXPXPXPXPXPXPXPXPXPXPXPXPXPXPXPXKXHXHXJXAXkX5.4 4 Y s.2X8X6X1X1X1X1X1X-Xw.0 * , Y d.:X2X<X<X<X:X:X2X2X2X2X:X2X2X:X:X:X2X2X2X2X:X-X#X|.{.[.[.[.[.[.].[.[.[.[.].].].].].[.[.[.[.[.[.[.[.[.[.[.[.[.[.[.[.[.[.[.[.[.[.].].[.s.s.].s.s.].].[.[.[.[.[.[.[.[.[.[.[.].].'.'.].].].'.].[.[.].].].[.[.[.[.[.[.[.[.[.[.[.[.[.[.[.[.[.[.].].].].].].].].].].].].].].].].].].s.s.s.s.s.s.s.s.s.s.s.s.d.d.f.{.|.@X-X-X-X-X-X-X-X;X;X@Xd.~ 5 & 5 W w.].{.{.{.`.4.W 5 3 e a.kXAXGXHXPXKXKXPXPXPXPXPXPXPXPXPXPXPXPXPXPXPXPXPXPXPXPXPXPXPXPXPXPXPXPXPXPXPXPXPXPXPXPXPXPXPXPXPXPXPXPXPXPXPXPXPXPXPXPXPXPXPXPXPXPXPXPXPXPXPXPXPXPXPXPXPXPXPXPXPXPXPXPXPXPXPXPXPXPXPXPXPXPXPXPXPXPXPXPXPXPXPXPXPXPXPXPXPXPXPXPXPXPXPXPXPXPXPXPXPXPXPXPXPXPXPXPXPXPXPXPXPXPXPXPXPXPXPXPXPXPXPXPX",
"PXPXPXPXPXPXPXPXPXPXPXPXPXPXPXPXPXPXPXPXPXPXPXPXPXPXPXPXPXPXPXPXPXPXPXPXPXPXPXPXPXPXPXPXPXPXPXPXPXPXPXPXPXPXPXPXPXPXPXPXPXPXPXPXPXPXPXPXPXPXPXPXPXPXPXPXPXPXPXPXPXPXPXPXPXPXPXPXPXPXPXPXPXPXPXPXPXPXPXPXPXPXPXPXPXPXPXPXPXPXPXPXPXPXPXPXPXPXPXPXPXPXPXPXPXPXPXPXPXPXPXPXPXPXPXHXGXJXnXh.q & 0 0.2X8X6X1X1X1X1X9X>Xu.H * & r a.:X2X2X<X:X:X2X:X:X2X:X:X2X:X:X2X:X:X:X2X2X:X-X+X|.[.[.[.[.[.[.[.].].].[.].].].].].[.[.[.[.[.[.[.[.[.[.[.].[.[.[.[.[.[.[.[.].[.].].].].].].].].].s.s.].[.[.[.[.[.[.[.[.[.[.].[.].'.].].].].'.].[.[.[.[.[.[.[.[.[.[.[.[.[.[.[.[.[.[.[.[.[.[.[.].].].].].].].].].].].].].].].].s.s.s.s.s.s.s.].'.].].].p.s.s.s.s.s.s.f.{.|.-X-X-X-X-X-X#X#X-X+Xa.Y , @ 8 W i.{.}.`.`.'.6.I 3 , ! ;XnXGXJXHXPXKXPXKXPXPXPXPXPXPXPXPXPXPXPXPXPXPXPXPXPXPXPXPXPXPXPXPXPXPXPXPXPXPXPXPXPXPXPXPXPXPXPXPXPXPXPXPXPXPXPXPXPXPXPXPXPXPXPXPXPXPXPXPXPXPXPXPXPXPXPXPXPXPXPXPXPXPXPXPXPXPXPXPXPXPXPXPXPXPXPXPXPXPXPXPXPXPXPXPXPXPXPXPXPXPXPXPXPXPXPXPXPXPXPXPXPXPXPXPXPXPXPXPXPXPXPXPXPXPXPXPXPXPXPXPXPX",
"PXPXPXPXPXPXPXPXPXPXPXPXPXPXPXPXPXPXPXPXPXPXPXPXPXPXPXPXPXPXPXPXPXPXPXPXPXPXPXPXPXPXPXPXPXPXPXPXPXPXPXPXPXPXPXPXPXPXPXPXPXPXPXPXPXPXPXPXPXPXPXPXPXPXPXPXPXPXPXPXPXPXPXPXPXPXPXPXPXPXPXPXPXPXPXPXPXPXPXPXPXPXPXPXPXPXPXPXPXPXPXPXPXPXPXPXPXPXPXPXPXPXPXPXPXPXPXPXPXPXPXPXPXPXPXHXDXdXr & @ %.-X8X9X1X1X1X1X1X7Xu.K & o q a.;X2X2X2X:X2X2X:X:X:X:X2X:X:X:X2X:X2X2X:X2X:X#X|.[.f.f.f.[.[.[.[.[.].[.].].[.].].].].[.[.].[.[.[.[.[.[.].].].].[.[.[.[.[.[.[.[.].p.p.].].s.].].[.f.p.p.s.].[.[.[.[.[.[.[.[.[.[.[.[.[.[.[.[.[.[.].[.[.[.[.[.[.[.[.[.].].].].[.[.[.[.[.[.[.[.[.[.[.[.].].].].].].].].].].].].].].].s.p.p.p.p.p.p.].'.].].].'.].s.s.s.s.s.f.f.s.[.|.#X-X-X-X-X-X-X-X;X;Xa.w @ @ 0 *.s.[.[.{.'.p.,.9 + 4 5.hXAXDXJXKXPXPXPXPXPXPXPXPXPXPXPXPXPXPXPXPXPXPXPXPXPXPXPXPXPXPXPXPXPXPXPXPXPXPXPXPXPXPXPXPXPXPXPXPXPXPXPXPXPXPXPXPXPXPXPXPXPXPXPXPXPXPXPXPXPXPXPXPXPXPXPXPXPXPXPXPXPXPXPXPXPXPXPXPXPXPXPXPXPXPXPXPXPXPXPXPXPXPXPXPXPXPXPXPXPXPXPXPXPXPXPXPXPXPXPXPXPXPXPXPXPXPXPXPXPXPXPXPXPXPXPXPXPXPXPX",
"PXPXPXPXPXPXPXPXPXPXPXPXPXPXPXPXPXPXPXPXPXPXPXPXPXPXPXPXPXPXPXPXPXPXPXPXPXPXPXPXPXPXPXPXPXPXPXPXPXPXPXPXPXPXPXPXPXPXPXPXPXPXPXPXPXPXPXPXPXPXPXPXPXPXPXPXPXPXPXPXPXPXPXPXPXPXPXPXPXPXPXPXPXPXPXPXPXPXPXPXPXPXPXPXPXPXPXPXPXPXPXPXPXPXPXPXPXPXPXPXPXPXPXPXPXPXPXPXPXPXPXPXPXPXGXCXy.8 & 5 s.5X1X1X1X1X1X1X9X-X..: + * 0.;X2X2X2X:X2X:X2X:X:X:X:X:X2X2X:X:X2X2X:X2X-X#X|.[.[.f.f.[.[.[.[.[.[.[.].].].[.[.].[.[.[.[.[.].].[.[.[.[.].].].].].].[.[.f.[.f.[.[.].].].[.[.p.p.f.f.f.p.p.p.[.[.[.[.[.[.[.[.[.'.'.p.f.f.f.s.s.s.s.].].].].].].].[.[.[.].].].].[.[.[.[.[.[.[.[.[.[.[.[.[.[.[.[.[.].].].].].].].].].].].].].].].].].].'.].].].].].[.].].p.p.].].p.p.s.[.|.-X-X-X-X-X#X-X-X-X@X0., + * w 0.s.'.`.`.`.w.Y & * e h.nXmXDXKXKXPXPXPXPXPXPXPXPXPXPXPXPXPXPXPXPXPXPXPXPXPXPXPXPXPXPXPXPXPXPXPXPXPXPXPXPXPXPXPXPXPXPXPXPXPXPXPXPXPXPXPXPXPXPXPXPXPXPXPXPXPXPXPXPXPXPXPXPXPXPXPXPXPXPXPXPXPXPXPXPXPXPXPXPXPXPXPXPXPXPXPXPXPXPXPXPXPXPXPXPXPXPXPXPXPXPXPXPXPXPXPXPXPXPXPXPXPXPXPXPXPXPXPXPXPXPXPXPXPXPXPXPXPX",
"PXPXPXPXPXPXPXPXPXPXPXPXPXPXPXPXPXPXPXPXPXPXPXPXPXPXPXPXPXPXPXPXPXPXPXPXPXPXPXPXPXPXPXPXPXPXPXPXPXPXPXPXPXPXPXPXPXPXPXPXPXPXPXPXPXPXPXPXPXPXPXPXPXPXPXPXPXPXPXPXPXPXPXPXPXPXPXPXPXPXPXPXPXPXPXPXPXPXPXPXPXPXPXPXPXPXPXPXPXPXPXPXPXPXPXPXPXPXPXPXPXPXPXPXPXPXPXPXPXKXHXKXHXAXhXr % & I #X9X9X1X,X1X1X<X3Xq.8 + 3 O.+X2X<X<X<X:X:X2X3X2X2X:X:X2X2X:X:X2X2X2X:X-X+X{.[.[.f.f.f.f.[.[.[.[.[.[.{.[.[.[.[.[.[.[.[.[.[.[.[.[.].].].].].].].].].].].[.f.s.s.[.[.[.].[.[.].p.p.f.f.f.f.p.p.p.p.'.'.'.].].'.p.p.p.p.p.[.[.s.s.s.s.p.p.p.p.p.s.].[.[.].].].].].].[.[.[.].s.s.[.[.[.[.[.[.[.[.[.].].].].].].].].].'.].s.s.s.s.].[.[.].].].].].].].].].].s.p.p.p.p.p.p.p.s.s.+X#X-X-X-X-X-X#X;X-X@XO., + 4 +.e.`.`.`.u.p.,.0 & * 5.kXnXNXGXKXKXPXPXKXKXPXPXPXPXPXKXPXPXPXPXPXPXPXPXPXPXPXPXPXPXPXPXPXPXPXPXPXPXPXPXPXPXPXPXPXPXPXPXPXPXPXPXPXPXPXPXPXPXPXPXPXPXPXPXPXPXPXPXPXPXPXPXPXPXPXPXPXPXPXPXPXPXPXPXPXPXPXPXPXPXPXPXPXPXPXPXPXPXPXPXPXPXPXPXPXPXPXPXPXPXPXPXPXPXPXPXPXPXPXPXPXPXPXPXPXPXPXPXPXPXPXPXPXPXPXPXPX",
"PXPXPXPXPXPXPXPXPXPXPXPXPXPXPXPXPXPXPXPXPXPXPXPXPXPXPXPXPXPXPXPXPXPXPXPXPXPXPXPXPXPXPXPXPXPXPXPXPXPXPXPXPXPXPXPXPXPXPXPXPXPXPXPXPXPXPXPXPXPXPXPXPXPXPXPXPXPXPXPXPXPXPXPXPXPXPXPXPXPXPXPXPXPXPXPXPXPXPXPXPXPXPXPXPXPXPXPXPXPXPXPXPXPXPXPXPXPXPXPXPXPXPXPXPXPXPXPXPXPXKXGXnXh.7 & 0 r.8X9X6X1X1X1X1X<Xf.I @ 3 ! d.:X2X<X<X<X<X2X2X2X2X2X2X2X2X2X2X2X:X:X-X-X+X{.[.[.[.[.[.[.].[.[.[.[.].].].].[.[.[.[.[.[.[.[.[.[.[.[.].].].].].].].].].].].].].s.s.f.[.[.s.s.].[.[.'.p.p.].].].].'.'.'.'.'.'.'.'.p.p.u.p.p.].[.].p.p.s.s.s.s.s.s.p.s.s.].[.].].].].].].].[.[.[.].].[.[.[.[.[.[.[.[.s.i.s.].s.s.].].].].'.].].].].].].[.].].].].].].].].].].].].'.'.'.'.'.].s.s.s.s.f.+X#X-X-X-X#X-X-X-X-Xd.! , : 0 1.p.].`.`.'.w.P : & ! dXvXmXAXFXHXKXKXKXPXPXPXPXPXPXPXPXPXPXPXPXPXPXPXPXPXPXPXPXPXPXPXPXPXPXPXPXPXPXPXPXPXPXPXPXPXPXPXPXPXPXPXPXPXPXPXPXPXPXPXPXPXPXPXPXPXPXPXPXPXPXPXPXPXPXPXPXPXPXPXPXPXPXPXPXPXPXPXPXPXPXPXPXPXPXPXPXPXPXPXPXPXPXPXPXPXPXPXPXPXPXPXPXPXPXPXPXPXPXPXPXPXPXPXPXPXPXPXPXPXPXPXPXPXPXPX",
"PXPXPXPXPXPXPXPXPXPXPXPXPXPXPXPXPXPXPXPXPXPXPXPXPXPXPXPXPXPXPXPXPXPXPXPXPXPXPXPXPXPXPXPXPXPXPXPXPXPXPXPXPXPXPXPXPXPXPXPXPXPXPXPXPXPXPXPXPXPXPXPXPXPXPXPXPXPXPXPXPXPXPXPXPXPXPXPXPXPXPXPXPXPXPXPXPXPXPXPXPXPXPXPXPXPXPXPXPXPXPXPXPXPXPXPXPXPXPXPXPXPXPXPXPXPXPXPXPXHXFXkX5.= % ^ +X9X9X1X1X1X1X6X X$., * e 0.-X2X<X<X3X3X<X2X2X2X2X2X2X2X2X2X:X:X:X:X#X+X{.[.s.[.[.[.'.[.].].[.].[.[.].].].].[.[.[.[.[.[.[.[.[.[.[.[.[.].].].].].].].].].].[.].s.s.s.[.[.s.s.].].'.'.'.'.'.'.'.'.p.p.p.'.'.'.'.p.u.u.u.p.'.].'.'.'.p.s.s.s.i.p.s.s.s.p.].[.[.].].].].p.].[.[.[.[.[.[.[.[.[.[.[.[.[.s.p.s.f.s.s.].].[.].].p.p.p.p.'.].].].].].].].].].].].].].].'.'.'.'.'.].s.s.s.s.d.d.[.|.#X#X-X-X-X-X-X-X+X0.0 & = Y 8.`.`.`.`.p.$.0 * 8 g.kXnXmXDXJXHXKXPXPXPXPXPXPXPXPXPXPXPXPXPXPXPXPXPXPXPXPXPXPXPXPXPXPXPXPXPXPXPXPXPXPXPXPXPXPXPXPXPXPXPXPXPXPXPXPXPXPXPXPXPXPXPXPXPXPXPXPXPXPXPXPXPXPXPXPXPXPXPXPXPXPXPXPXPXPXPXPXPXPXPXPXPXPXPXPXPXPXPXPXPXPXPXPXPXPXPXPXPXPXPXPXPXPXPXPXPXPXPXPXPXPXPXPXPXPXPXPXPXPXPXPXPXPXPX",
"PXPXPXPXPXPXPXPXPXPXPXPXPXPXPXPXPXPXPXPXPXPXPXPXPXPXPXPXPXPXPXPXPXPXPXPXPXPXPXPXPXPXPXPXPXPXPXPXPXPXPXPXPXPXPXPXPXPXPXPXPXPXPXPXPXPXPXPXPXPXPXPXPXPXPXPXPXPXPXPXPXPXPXPXPXPXPXPXPXPXPXPXPXPXPXPXPXPXPXPXPXPXPXPXPXPXPXPXPXPXPXPXPXPXPXPXPXPXPXPXPXPXPXPXPXPXKXHXJXAXsXe * 8 a.3X9X6X1X1X6X8X5X8.9 & , 6.;X:X2X<X<X<X3X2X<X2X2X2X2X2X2X:X:X2X:X:X-X|.|.[.[.f.s.[.[.].p.].[.[.[.[.[.[.[.[.[.[.[.[.[.[.[.[.[.[.[.[.[.[.[.[.s.s.s.].].].].].].].].].].].'.[.p.u.u.p.].'.'.u.p.u.u.p.p.i.i.i.p.p.p.p.p.p.i.s.s.s.s.s.s.s.s.s.s.p.p.p.p.].p.'.].[.[.[.[.].'.'.[.[.[.[.[.[.[.[.[.[.[.[.].].].].[.].s.].[.[.[.].s.p.p.p.p.].].].].].].].].].].].].].].].].].].'.].'.s.s.s.s.s.s.s.[.+X#X-X#X#X#X#X#X#Xf.*.: + 8 *.'.`.`.`.t.3.L : & O.hXnXmXAXJXHXKXPXPXPXPXPXPXPXPXPXPXPXPXPXPXPXPXPXPXPXPXPXPXPXPXPXPXPXPXPXPXPXPXPXPXPXPXPXPXPXPXPXPXPXPXPXPXPXPXPXPXPXPXPXPXPXPXPXPXPXPXPXPXPXPXPXPXPXPXPXPXPXPXPXPXPXPXPXPXPXPXPXPXPXPXPXPXPXPXPXPXPXPXPXPXPXPXPXPXPXPXPXPXPXPXPXPXPXPXPXPXPXPXPXPXPXPXPXPXPXPXPXPXPXPXPXPX",
"PXPXPXPXPXPXPXPXPXPXPXPXPXPXPXPXPXPXPXPXPXPXPXPXPXPXPXPXPXPXPXPXPXPXPXPXPXPXPXPXPXPXPXPXPXPXPXPXPXPXPXPXPXPXPXPXPXPXPXPXPXPXPXPXPXPXPXPXPXPXPXPXPXPXPXPXPXPXPXPXPXPXPXPXPXPXPXPXPXPXPXPXPXPXPXPXPXPXPXPXPXPXPXPXPXPXPXPXPXPXPXPXPXPXPXPXPXPXPXPXPXPXPXPXPXKXKXFXnXy.= & K -X8X1X1X6X1X6X8X+XK & * r g.:X<X2X2X2X2X2X2X2X<X<X2X2X2X2X2X:X2X:X-X|.{.[.s.[.[.f.s.[.[.].s.].].[.[.[.].].[.[.[.[.[.[.[.[.].[.[.[.[.[.[.[.].].s.s.s.].].].].].].].].].[.].'.'.].'.u.u.f.f.p.i.p.p.p.s.d.d.d.d.i.i.d.i.i.a.i.i.d.i.d.d.i.i.i.d.i.i.i.i.i.s.s.p.p.s.s.s.s.s.'.'.'.].].].].].[.[.[.[.[.[.[.'.'.].].].].[.[.].].[.].p.p.p.p.'.].].].].].].].].].].].].].].].].].].].p.s.].s.s.s.s.i.i.s.{.#X#X-X#X#X#X#X#X-Xd.Y : * 0 7.'.'.`.'.w.#.8 & e h.vXnXmXDXJXPXPXPXPXKXPXPXPXPXPXPXPXPXPXPXPXPXPXPXPXPXPXPXPXPXPXPXPXPXPXPXPXPXPXPXPXPXPXPXPXPXPXPXPXPXPXPXPXPXPXPXPXPXPXPXPXPXPXPXPXPXPXPXPXPXPXPXPXPXPXPXPXPXPXPXPXPXPXPXPXPXPXPXPXPXPXPXPXPXPXPXPXPXPXPXPXPXPXPXPXPXPXPXPXPXPXPXPXPXPXPXPXPXPXPXPXPXPXPXPXPXPXPXPXPXPX",
"PXPXPXPXPXPXPXPXPXPXPXPXPXPXPXPXPXPXPXPXPXPXPXPXPXPXPXPXPXPXPXPXPXPXPXPXPXPXPXPXPXPXPXPXPXPXPXPXPXPXPXPXPXPXPXPXPXPXPXPXPXPXPXPXPXPXPXPXPXPXPXPXPXPXPXPXPXPXPXPXPXPXPXPXPXPXPXPXPXPXPXPXPXPXPXPXPXPXPXPXPXPXPXPXPXPXPXPXPXPXPXPXPXPXPXPXPXPXPXPXPXPXPXPXPXPXDXkXe X * 6.8X9X6X1X1X1X8X5Xa., + * 6.:X5X2X2X2X2X2X2X2X2X2X<X<X2X2X2X:X2X2X-X#X{.[.[.[.[.[.s.s.p.s.[.[.].].].[.[.[.'.'.[.[.[.[.[.[.[.[.[.[.[.[.[.[.[.].'.'.'.'.'.'.'.'.'.'.'.p.p.p.[.[.[.[.[.s.s.s.s.a.i.r.8.6.1.*.+.! I K w 0 9 9 8 8 8 8 9 0 0 w w Y O.+.*.6.6.r.i.a.a.i.i.s.f.f.f.f.f.s.p.p.'.'.p.p.].].{.{.{.[.'.'.p.].].].[.[.[.].].].].p.p.p.p.'.].].].].].].].].].].].].].].].].].].].].].].s.s.s.s.i.s.s.s.s.{.#X-X-X#X#X#X-X-X@X&.8 + , +.p.'.`.'.t.w.0 : = g.kXnXnXAXHXPXPXPXKXPXPXPXPXPXPXPXPXPXPXPXPXPXPXPXPXPXPXPXPXPXPXPXPXPXPXPXPXPXPXPXPXPXPXPXPXPXPXPXPXPXPXPXPXPXPXPXPXPXPXPXPXPXPXPXPXPXPXPXPXPXPXPXPXPXPXPXPXPXPXPXPXPXPXPXPXPXPXPXPXPXPXPXPXPXPXPXPXPXPXPXPXPXPXPXPXPXPXPXPXPXPXPXPXPXPXPXPXPXPXPXPXPXPXPXPXPXPXPXPXPX",
"PXPXPXPXPXPXPXPXPXPXPXPXPXPXPXPXPXPXPXPXPXPXPXPXPXPXPXPXPXPXPXPXPXPXPXPXPXPXPXPXPXPXPXPXPXPXPXPXPXPXPXPXPXPXPXPXPXPXPXPXPXPXPXPXPXPXPXPXPXPXPXPXPXPXPXPXPXPXPXPXPXPXPXPXPXPXPXPXPXPXPXPXPXPXPXPXPXPXPXPXPXPXPXPXPXPXPXPXPXPXPXPXPXPXPXPXPXPXPXPXPXPXPXPXKXSXdX8 X 9 d.8X9X1X1X1X6X3X#X%.* & r g.:X2X<X2X3X2X2X2X2X2X2X2X2X:X2X2X:X:X-X#X{.[.[.[.].].].[.[.[.[.[.[.[.[.].[.[.[.[.[.[.[.[.[.[.[.[.[.[.[.].].u.u.u.].].'.'.'.'.'.p.p.p.p.[.].s.d.i.i.0.0.6.*.+.! Y 0 8 : @ @ @ @ + @ & * & * * & & & & & & & @ & & @ + + + + + + + & , 8 0 w ! +.&.,.6.0.i.s.s.p.p.'.'.'.u.].].[.].p.p.p.'.[.].'.[.].'.].'.p.p.p.p.'.].].].].].].].].].].].].].].].].].].].].].].s.s.s.].s.].s.s.s.s.s.[.+X#X#X#X#X#X#X#X#Xa.Y * + H 3.p.'.e.e.e.W 5 * 5.hXnXnXNXDXHXHXKXPXPXPXPXPXPXPXPXPXPXPXPXPXPXPXPXPXPXPXPXPXPXPXPXPXPXPXPXPXPXPXPXPXPXPXPXPXPXPXPXPXPXPXPXPXPXPXPXPXPXPXPXPXPXPXPXPXPXPXPXPXPXPXPXPXPXPXPXPXPXPXPXPXPXPXPXPXPXPXPXPXPXPXPXPXPXPXPXPXPXPXPXPXPXPXPXPXPXPXPXPXPXPXPXPXPXPXPXPXPXPXPXPXPXPXPXPXPXPXPXPX",
"PXPXPXPXPXPXPXPXPXPXPXPXPXPXPXPXPXPXPXPXPXPXPXPXPXPXPXPXPXPXPXPXPXPXPXPXPXPXPXPXPXPXPXPXPXPXPXPXPXPXPXPXPXPXPXPXPXPXPXPXPXPXPXPXPXPXPXPXPXPXPXPXPXPXPXPXPXPXPXPXPXPXPXPXPXPXPXPXPXPXPXPXPXPXPXPXPXPXPXPXPXPXPXPXPXPXPXPXPXPXPXPXPXPXPXPXPXPXPXPXPXKXKXGXnXh.8 & I #X9X9X1X1X1X8X>Xp.9 & 8 5.;XfX2X<X<X:X5X2X2X2X2X2X2X2X2X2X2X2X:X#X|.[.f.[.[.].].].].].].[.[.[.[.[.[.[.[.[.[.[.[.[.[.[.[.[.[.[.[.[.].].].'.'.'.u.'.].p.'.p.p.p.s.s.i.i.6.*.+.Y w 9 8 = + + & * : , 5 8 0 0 0 q w w w w r r I I K K Y K K I I r w q w q 0 0 0 8 8 5 : * $ $ @ @ : 5 8 0 I ..,.8.i.u.p.u.u.f.f.f.s.p.p.p.[.].'.'.'.p.'.'.'.].].].].].].].].].].].].].].].].].].].].].].].].].].].s.s.].s.].].s.s.s.s.s.s.|.#X#X-X-X#X#X#X#Xg.&.4 + 6 #.p.u.'.e.t.:.5 # q ;XvXnXnXAXGXHXPXPXPXPXPXPXPXPXPXPXPXPXPXPXPXPXPXPXPXPXPXPXPXPXPXPXPXPXPXPXPXPXPXPXPXPXPXPXPXPXPXPXPXPXPXPXPXPXPXPXPXPXPXPXPXPXPXPXPXPXPXPXPXPXPXPXPXPXPXPXPXPXPXPXPXPXPXPXPXPXPXPXPXPXPXPXPXPXPXPXPXPXPXPXPXPXPXPXPXPXPXPXPXPXPXPXPXPXPXPXPXPXPXPXPXPXPXPXPXPXPX",
"PXPXPXPXPXPXPXPXPXPXPXPXPXPXPXPXPXPXPXPXPXPXPXPXPXPXPXPXPXPXPXPXPXPXPXPXPXPXPXPXPXPXPXPXPXPXPXPXPXPXPXPXPXPXPXPXPXPXPXPXPXPXPXPXPXPXPXPXPXPXPXPXPXPXPXPXPXPXPXPXPXPXPXPXPXPXPXPXPXPXPXPXPXPXPXPXPXPXPXPXPXPXPXPXPXPXPXPXPXPXPXPXPXPXPXPXPXPXPXPXPXKXFXkX5.= 4 6.3X9X4X1X6X6X8X-X,.> & K d.:X2X:X2X<X<X2X2X3X5X5X2X2X2X2X2X2X:X-X+X[.f.s.f.[.s.].[.[.].].].].[.[.[.[.[.[.[.[.[.[.[.[.[.[.[.[.[.[.[.].].].'.u.u.p.p.s.s.[.s.s.i.r.6.+.K 0 5 : * @ * : 4 8 q w r I I I Y Y Y ~ ~ T T T T T Y Y T W W W W W W T T T ^ ^ +.T T ~ ~ T T T T Y I q q 0 8 , : @ @ @ : 5 0 H +.6.r.i.i.f.f.f.f.p.'.'.'.p.u.'.'.'.'.].].].].].].].].].].].].].].].].].].].].].].].].].].].s.s.s.s.].].].].s.s.s.s.s.[.|.+X#X#X#X#X#X-X+Xa.q & : U 8.u.'.'.t.,.0 + 8 a.kXnXnXBXDXPXPXPXPXPXPXPXPXPXPXPXPXPXPXPXPXPXPXPXPXPXPXPXPXPXPXPXPXPXPXPXPXPXPXPXPXPXPXPXPXPXPXPXPXPXPXPXPXPXPXPXPXPXPXPXPXPXPXPXPXPXPXPXPXPXPXPXPXPXPXPXPXPXPXPXPXPXPXPXPXPXPXPXPXPXPXPXPXPXPXPXPXPXPXPXPXPXPXPXPXPXPXPXPXPXPXPXPXPXPXPXPXPXPXPXPXPXPXPXPXPX",
"PXPXPXPXPXPXPXPXPXPXPXPXPXPXPXPXPXPXPXPXPXPXPXPXPXPXPXPXPXPXPXPXPXPXPXPXPXPXPXPXPXPXPXPXPXPXPXPXPXPXPXPXPXPXPXPXPXPXPXPXPXPXPXPXPXPXPXPXPXPXPXPXPXPXPXPXPXPXPXPXPXPXPXPXPXPXPXPXPXPXPXPXPXPXPXPXPXPXPXPXPXPXPXPXPXPXPXPXPXPXPXPXPXPXPXPXPXPXPXPXKXAXhXe = 8 d.5X6X1X1X1X6X8X{.0 & 4 5.;X2X3X<X<X<X2X2X2X2X2X2X2X2X2X2X2X:X-X+X[.[.f.f.[.[.].].].[.[.].].].].].[.[.[.[.[.[.[.[.[.[.[.[.[.[.[.[.[.[.].].].].].].'.s.s.r.8.*.P 0 5 , * & * 4 8 q r ! I Y U Y T W W U T W T P W T P W W P P P P W W W W W W T W W W W Q Q W W W W W W ..W ..........W T ! Y I q 8 4 * $ $ : 5 0 @.1.8.i.f.p.'.'.'.'.'.p.'.'.'.'.].].].].].].].].].].].].].].].].].].].].].].].].].].].].].s.].].].].s.s.s.s.[.s.s.{.+X+X#X#X#X-X#X#Xg.O., & 9 1.p.`.^.t.8.w * * 5.kXnXnXBXDXJXPXPXPXPXPXPXPXPXPXPXPXPXPXPXPXPXPXPXPXPXPXPXPXPXPXPXPXPXPXPXPXPXPXPXPXPXPXPXPXPXPXPXPXPXPXPXPXPXPXPXPXPXPXPXPXPXPXPXPXPXPXPXPXPXPXPXPXPXPXPXPXPXPXPXPXPXPXPXPXPXPXPXPXPXPXPXPXPXPXPXPXPXPXPXPXPXPXPXPXPXPXPXPXPXPXPXPXPXPXPXPXPXPXPXPXPXPXPXPX",
"PXPXPXPXPXPXPXPXPXPXPXPXPXPXPXPXPXPXPXPXPXPXPXPXPXPXPXPXPXPXPXPXPXPXPXPXPXPXPXPXPXPXPXPXPXPXPXPXPXPXPXPXPXPXPXPXPXPXPXPXPXPXPXPXPXPXPXPXPXPXPXPXPXPXPXPXPXPXPXPXPXPXPXPXPXPXPXPXPXPXPXPXPXPXPXPXPXPXPXPXPXPXPXPXPXPXPXPXPXPXPXPXPXPXPXPXPXPXKXJXBXdX7 + K  X8X9X1X1X1X6X3Xi.8   8 a.5X5X3X>X:X2X2X:X:X2X2X:X2X2X2X2X<X:X#X|.[.f.f.f.[.[.].].].[.[.[.[.].].].[.[.[.[.[.[.[.[.[.'.'.].[.[.[.[.[.[.'.].'.].].f.i.0.*.O.q 4 + & : 4 5 q I U T T T T T T T T T T W T P T W T T T T P W W P W W W W W T W W W W W W W Q W W W W W W W W W W ..............+.^ +.+.+.+.T K 0 5 4 & # & 4 q &.,.0.p.f.s.s.p.p.'.'.].].'.'.'.'.'.'.].].'.'.].'.].].].].].].].].].].].p.p.].[.].[.p.s.].].].s.].[.[.[.s.s.s.|.+X#X#X#X#X-X#X+X6.5 X = *.p.`.^.e.w.P > & r hXnXnXnXAXJXPXPXPXPXPXPXPXPXPXPXPXPXPXPXPXPXPXPXPXPXPXPXPXPXPXPXPXPXPXPXPXPXPXPXPXPXPXPXPXPXPXPXPXPXPXPXPXPXPXPXPXPXPXPXPXPXPXPXPXPXPXPXPXPXPXPXPXPXPXPXPXPXPXPXPXPXPXPXPXPXPXPXPXPXPXPXPXPXPXPXPXPXPXPXPXPXPXPXPXPXPXPXPXPXPXPXPXPXPXPXPXPXPXPXPXPXPXPX",
"PXPXPXPXPXPXPXPXPXPXPXPXPXPXPXPXPXPXPXPXPXPXPXPXPXPXPXPXPXPXPXPXPXPXPXPXPXPXPXPXPXPXPXPXPXPXPXPXPXPXPXPXPXPXPXPXPXPXPXPXPXPXPXPXPXPXPXPXPXPXPXPXPXPXPXPXPXPXPXPXPXPXPXPXPXPXPXPXPXPXPXPXPXPXPXPXPXPXPXPXPXPXPXPXPXPXPXPXPXPXPXPXPXPXPXPXPXPXJXBXg.= % &.3X9X6X1X1X1X9X>X,.: + O.;XfX5X2X2X<X2X:X:X:X2X2X2X2X2X2X2X2X-X{.[.[.[.[.[.[.[.].].].'.].[.[.[.[.[.].[.[.[.[.[.].].p.p.].'.].[.[.].].'.].[.[.s.s.7.@.0 , @ + * 8 8 w ! ! ! Y U U U U U P W W T T P P T T P T W T T T T T W W P W W W W W T W W W W W W W W W Q Q W W W W W W W ..............+.+.+.+.#.^ ^ +.+.%.^ ! w 8 4 & o + 5 K #.6.d.f.s.s.s.s.].'.u.'.'.p.'.].'.p.'.].'.].].].].].].].].].].].'.'.].[.s.s.s.p.s.].s.].].].].s.s.s.s.s.[. X#X#X#X#X#X#X#Xi.e X & U w.e.^.e.p.:.5 + 8 sXmXmXmXSXGXPXPXPXPXPXPXPXPXPXPXPXPXPXPXPXPXPXPXPXPXPXPXPXPXPXPXPXPXPXPXPXPXPXPXPXPXPXPXPXPXPXPXPXPXPXPXPXPXPXPXPXPXPXPXPXPXPXPXPXPXPXPXPXPXPXPXPXPXPXPXPXPXPXPXPXPXPXPXPXPXPXPXPXPXPXPXPXPXPXPXPXPXPXPXPXPXPXPXPXPXPXPXPXPXPXPXPXPXPXPXPXPXPXPXPXPXPX",
"PXPXPXPXPXPXPXPXPXPXPXPXPXPXPXPXPXPXPXPXPXPXPXPXPXPXPXPXPXPXPXPXPXPXPXPXPXPXPXPXPXPXPXPXPXPXPXPXPXPXPXPXPXPXPXPXPXPXPXPXPXPXPXPXPXPXPXPXPXPXPXPXPXPXPXPXPXPXPXPXPXPXPXPXPXPXPXPXPXPXPXPXPXPXPXPXPXPXPXPXPXPXPXPXPXPXPXPXPXPXPXPXPXPXPXPXJXJXnXy.= = 6.3X8X1X1X6X4X8X#XI @ : 1.:X5X2X:X:X2X2X2X:X:X2X2X2X2X2X2X2X-X#X{.[.[.[.[.[.[.[.[.].].].].].[.[.[.[.[.].f.[.[.[.[.].].p.p.].'.'.].].].].f.{.s.8.@.w 5 & @ 5 0 q I Y Y Y T T P T P P P P W W P P T T P P T T P W W W W W W W W W W W Q Q Q Q W W W W W W W Q W W Q Q Q Q W W Q Q o...........o.#.+.+.+.#.#.#.#.#.^ ^ ^ #.%.%.O.Y w 8 * @ @ 5 w +.0.d.d.s.].'.u.'.'.'.p.'.'.p.'.].'.].].].].].].].].].].].].].].[.s.s.].s.s.].s.].].].].s.s.s.s.s.].[. X#X#X#X#X+X+X#Xd.Y + + 0 7.p.^.^.^.3.0 + 8 g.nXnXmXSXFXPXPXPXPXPXPXPXPXPXPXPXPXPXPXPXPXPXPXPXPXPXPXPXPXPXPXPXPXPXPXPXPXPXPXPXPXPXPXPXPXPXPXPXPXPXPXPXPXPXPXPXPXPXPXPXPXPXPXPXPXPXPXPXPXPXPXPXPXPXPXPXPXPXPXPXPXPXPXPXPXPXPXPXPXPXPXPXPXPXPXPXPXPXPXPXPXPXPXPXPXPXPXPXPXPXPXPXPXPXPXPXPXPXPXPXPX",
"PXPXPXPXPXPXPXPXPXPXPXPXPXPXPXPXPXPXPXPXPXPXPXPXPXPXPXPXPXPXPXPXPXPXPXPXPXPXPXPXPXPXPXPXPXPXPXPXPXPXPXPXPXPXPXPXPXPXPXPXPXPXPXPXPXPXPXPXPXPXPXPXPXPXPXPXPXPXPXPXPXPXPXPXPXPXPXPXPXPXPXPXPXPXPXPXPXPXPXPXPXPXPXPXPXPXPXPXPXPXPXPXPXPXPXJXGXnX5.% 4 d.8X4X1X,X1X6X5Xf.8 + 8 a.2X5X2X2X2X2X:X2X2X:X:X:X:X2X2X2X2X-X|.[.[.[.[.[.[.[.[.[.[.[.[.[.[.[.].].].'.'.].s.f.[.[.[.].[.].].'.u.u.p.s.s.s.0.+.0 , & & 5 q r ! ! Y T T P P P P W W W P P P P P P P T P P T W T P P W W W W W W P W P W W W W W W W W W W W W W W W W W Q Q ..o.Q Q o...........o.#.+.#.^ ^ #.#.#.o.o.#.^ ^ #.#.+.$.%.O.! r 0 : + @ , 0 &.8.i.s.].].].].p.p.p.p.p.'.p.].].].p.p.].].].].].].].].].[.[.[.].[.[.].].].].[.[.].s.[.s.s.s.].].{.#X#X#X#X#X#X#X|.&.4 + 8 ,.^.^.^.e.7.w + & 5.kXnXnXBXDXHXPXPXPXPXPXPXPXPXPXPXPXPXPXPXPXPXPXPXPXPXPXPXPXPXPXPXPXPXPXPXPXPXPXPXPXPXPXPXPXPXPXPXPXPXPXPXPXPXPXPXPXPXPXPXPXPXPXPXPXPXPXPXPXPXPXPXPXPXPXPXPXPXPXPXPXPXPXPXPXPXPXPXPXPXPXPXPXPXPXPXPXPXPXPXPXPXPXPXPXPXPXPXPXPXPXPXPXPXPXPXPXPXPXPX",
"PXPXPXPXPXPXPXPXPXPXPXPXPXPXPXPXPXPXPXPXPXPXPXPXPXPXPXPXPXPXPXPXPXPXPXPXPXPXPXPXPXPXPXPXPXPXPXPXPXPXPXPXPXPXPXPXPXPXPXPXPXPXPXPXPXPXPXPXPXPXPXPXPXPXPXPXPXPXPXPXPXPXPXPXPXPXPXPXPXPXPXPXPXPXPXPXPXPXPXPXPXPXPXPXPXPXPXPXPXPXPXPXPXPXKXDXkXr # 0 |.8X6X1X1X,X8X>X6., @ r g.:X5X<X<X2X2X2X5X:X:X2X2X:X:X2X:X-X#X|.[.[.[.[.].].[.[.[.[.[.[.[.[.].].].'.'.'.p.'.[.s.p.].].'.'.'.p.p.p.s.i.0.$.w , : : , 0 w Y ! ! ! U T W W P P P P W W P P P P P P P P T P T ^ T W P T W T T T T W W W W T W W T T T T T W ..@.T T T W W W ......W W Q #.o.........o...+.+.+.#.^ #.#.o.o.#.Q Q #.#.#.#.+.%.%.O.+.! Y 0 5 * * > K *.9.d.[.s.[.p.'.p.'.p.p.p.].'.p.p.].].].].].].].].].].].].].].].].].].[.[.[.[.[.[.s.s.s.s.].].[.|.#X#X#X#X X#X+X0.8 * 5 o.e.e.^.e.8.h @ * 5.kXmXmXmXAXGXHXPXPXPXPXPXPXPXPXPXPXPXPXPXPXPXPXPXPXPXPXPXPXPXPXPXPXPXPXPXPXPXPXPXPXPXPXPXPXPXPXPXPXPXPXPXPXPXPXPXPXPXPXPXPXPXPXPXPXPXPXPXPXPXPXPXPXPXPXPXPXPXPXPXPXPXPXPXPXPXPXPXPXPXPXPXPXPXPXPXPXPXPXPXPXPXPXPXPXPXPXPXPXPXPXPXPXPXPXPXPXPXPX",
"PXPXPXPXPXPXPXPXPXPXPXPXPXPXPXPXPXPXPXPXPXPXPXPXPXPXPXPXPXPXPXPXPXPXPXPXPXPXPXPXPXPXPXPXPXPXPXPXPXPXPXPXPXPXPXPXPXPXPXPXPXPXPXPXPXPXPXPXPXPXPXPXPXPXPXPXPXPXPXPXPXPXPXPXPXPXPXPXPXPXPXPXPXPXPXPXPXPXPXPXPXPXPXPXPXPXPXPXPXPXPXPXPXJXDXhXr % q +X9X6X1X1X1X4X-X$.& @ %.-X2X2X2X<X2X2X2X2X2X2X2X:X2X2X:X:X#X|.[.f.[.].].].[.[.[.[.[.[.[.[.[.[.[.[.].'.'.'.p.'.].p.p.'.'.'.].'.[.f.i.6.Y 8 * * , 0 w I Y T T T T U U U W W W T P P T T T P P P P W W T W W W W T W T T +.+.T @.@.+.+.O.O.~ ~ ~ ! ! ! ! ~ ~ ~ @.@.O.+.+.+.+.@.+.+.+.+.^ ^ ..............+.+.#.#.^ #.#.#.#.#.#.o.o.#.#.#.#.+.+.#.#.#.#.+.^ Y 0 , + & 8 ~ 6.i.[.p.[.[.p.p.p.].].p.p.p.].].].].].].].].].].].].].].].].].].].[.[.[.[.[.[.[.s.p.p.s.s.].{.#X-X#X+X+X#X|.r.q & * T e.e.^.e.q.U * & 5.kXmXmXmXAXJXPXPXPXPXPXPXPXPXPXPXPXPXPXPXPXPXPXPXPXPXPXPXPXPXPXPXPXPXPXPXPXPXPXPXPXPXPXPXPXPXPXPXPXPXPXPXPXPXPXPXPXPXPXPXPXPXPXPXPXPXPXPXPXPXPXPXPXPXPXPXPXPXPXPXPXPXPXPXPXPXPXPXPXPXPXPXPXPXPXPXPXPXPXPXPXPXPXPXPXPXPXPXPXPXPXPXPXPXPXPXPXPX",
"PXPXPXPXPXPXPXPXPXPXPXPXPXPXPXPXPXPXPXPXPXPXPXPXPXPXPXPXPXPXPXPXPXPXPXPXPXPXPXPXPXPXPXPXPXPXPXPXPXPXPXPXPXPXPXPXPXPXPXPXPXPXPXPXPXPXPXPXPXPXPXPXPXPXPXPXPXPXPXPXPXPXPXPXPXPXPXPXPXPXPXPXPXPXPXPXPXPXPXPXPXPXPXPXPXPXPXPXPXPXPXPXJXDXsXe % ! :XgXwXwX1X1X1X XL + = 0.:X<X<X<X2X2X2X2X2X2X2X5X2X2X2X:X-X+X{.f.s.s.[.].].].].].[.].].].].[.[.[.[.[.[.[.[.[.[.'.[.p.p.'.'.'.'.p.w.#.0 , @ * 8 e Y Y T T P L R R L R L P T T T T T T T T ~ W W W W W W T T W +.^ ^ ^ T Y I w 0 0 8 8 8 5 5 4 4 , , , , , 4 4 4 4 4 8 8 0 0 q w w I Y +.#.#.#.#.#.+.+.....+.+.+.#.^ #.#.#.#.#.#.#.#.o.o.#.#.#.o.o.#.#.#.#.$.$.%.O.r 8 * + : 0 ..e.p.f.f.p.p.p.].].p.p.].].].].].].].].].].].].].].].].].].].[.[.[.[.].].].p.p.].[.s.s.s.[. X#X#X#X X X{.d.O.% % h 4.P.^.e.9.I , %  .hXmXBXBXAXJXPXPXPXPXPXPXPXPXPXPXPXPXPXPXPXPXPXPXPXPXPXPXPXPXPXPXPXPXPXPXPXPXPXPXPXPXPXPXPXPXPXPXPXPXPXPXPXPXPXPXPXPXPXPXPXPXPXPXPXPXPXPXPXPXPXPXPXPXPXPXPXPXPXPXPXPXPXPXPXPXPXPXPXPXPXPXPXPXPXPXPXPXPXPXPXPXPXPXPXPXPXPXPXPXPXPXPXPXPXPXPX",
"PXPXPXPXPXPXPXPXPXPXPXPXPXPXPXPXPXPXPXPXPXPXPXPXPXPXPXPXPXPXPXPXPXPXPXPXPXPXPXPXPXPXPXPXPXPXPXPXPXPXPXPXPXPXPXPXPXPXPXPXPXPXPXPXPXPXPXPXPXPXPXPXPXPXPXPXPXPXPXPXPXPXPXPXPXPXPXPXPXPXPXPXPXPXPXPXPXPXPXPXPXPXPXPXPXPXPXPXPXPXPXJXDX*X7 # +.3XrXwX1XwXwX8X@X8 + 8 f.<X5X2X2X5X2X5X2X2X:X:X2X:X:X2X2X-X|.[.f.[.].].].].].].].[.[.p.p.'.].].[.[.].[.].].].[.].].'.'.p.i.f.d.0.! 5 & & 8 q K U T T T T T U U U P P P U P W W T Y T T W W W P P T W ^ ^ ~ I w 8 4 = * & # % # + # # o                         o     X X   X X # # % # = = = 4 0 w Y ~ %.%.@.....W Q #.#.+.+.+.#.#.+.#.o.#.#.#.+.+.#.o.#.#.#.#.#.$.$.$.^ q 4 + & 8 O.a.d.f.f.u.'.`.`.'.s.s.[.].[.].].'.'.].].].].].].p.p.'.].].].p.p.p.p.].s.s.s.s.p.s.s.p.s.{.#X#X#X#X X|.[.&., & 8 1.e.^.P.4.+.4 & e dXnXmXmXCXFXKXKXPXPXPXPXPXPXPXPXPXPXPXPXPXPXPXPXPXPXPXPXPXPXPXPXPXPXPXPXPXPXPXPXPXPXPXPXPXPXPXPXPXPXPXPXPXPXPXPXPXPXPXPXPXPXPXPXPXPXPXPXPXPXPXPXPXPXPXPXPXPXPXPXPXPXPXPXPXPXPXPXPXPXPXPXPXPXPXPXPXPXPXPXPXPXPXPXPXPXPXPXPXPXPXPXPXPXPXPX",
"PXPXPXPXPXPXPXPXPXPXPXPXPXPXPXPXPXPXPXPXPXPXPXPXPXPXPXPXPXPXPXPXPXPXPXPXPXPXPXPXPXPXPXPXPXPXPXPXPXPXPXPXPXPXPXPXPXPXPXPXPXPXPXPXPXPXPXPXPXPXPXPXPXPXPXPXPXPXPXPXPXPXPXPXPXPXPXPXPXPXPXPXPXPXPXPXPXPXPXPXPXPXPXPXPXPXPXPXPXPXJXDXh.= % 5.fX9XwXeXwX6X9Xf., X w +X2X<X<X5X2X2X2X2X2X2X<X2X2X2X2X:X#X{.f.f.f.].].].].].].[.[.].].[.[.].].].[.[.[.[.].'.'.[.].].].{.s.i.6.w : @ : 0 r Y T Y P P U U U U P L L P P P U P P P W W W P P Y ! Y Y r q 8 4 $ + +           o + + O @ - - - > < 6 6 6 6 6 6 6 1 < < < < > > - - - @ + o o o o       o o + & : 5 q Y +.%.#.%.+.+.#.#.#.#.#.o.o.o.o.#.#.#.o.#.#.#.$.#.$.$.*.$.*.%.! 8 + + : I 0.d.s.p.'.'.'.].[.].].].].'.'.'.].].].].].].p.p.].].].].].p.p.p.].s.s.s.p.p.[.s.s.s.p.[.#X#X#X#X X X+X0., + 5 ,.t.4.e.t.*.8 & 8 sXnXBXmXBXFXPXPXPXPXPXPXPXPXPXPXPXPXPXPXPXPXPXPXPXPXPXPXPXPXPXPXPXPXPXPXPXPXPXPXPXPXPXPXPXPXPXPXPXPXPXPXPXPXPXPXPXPXPXPXPXPXPXPXPXPXPXPXPXPXPXPXPXPXPXPXPXPXPXPXPXPXPXPXPXPXPXPXPXPXPXPXPXPXPXPXPXPXPXPXPXPXPXPXPXPXPXPXPXPXPXPXPXPXPX",
"PXPXPXPXPXPXPXPXPXPXPXPXPXPXPXPXPXPXPXPXPXPXPXPXPXPXPXPXPXPXPXPXPXPXPXPXPXPXPXPXPXPXPXPXPXPXPXPXPXPXPXPXPXPXPXPXPXPXPXPXPXPXPXPXPXPXPXPXPXPXPXPXPXPXPXPXPXPXPXPXPXPXPXPXPXPXPXPXPXPXPXPXPXPXPXPXPXPXPXPXPXPXPXPXPXPXPXPXKXKXCXg.& $ *.5X9XeXwXeXrX3X8.& & ! @X2X5X2X2X5X5X2X2X<X<X<X2X5X2X2X:X|.[.f.[.[.].].].].].].].].].].'.].].].].'.].].[.[.].'.'.].s.f.s.i.*.q @ @ , 0 I Y Y T P T P L L L L L L L P W W U P P T P E W U K q 8 8 & # + +   o + @ $ : : 4 6 0 h J R E E E ) / ) ) ) ) / ) S S ) ) S V / / / / J J J R J h h 6 1 < : : @ @ + + o o o o + * 8 w U T +.+.#.#.#.#.#.#.#.#.#.#.#.:.#.$.$.#.:.#.$.#.$.*.%.%.Y 0 : @ & I 6.i.s.s.'.'.'.'.].].'.'.'.'.].].].p.].].].].].].].].].].].].].].].].s.p.[.].s.].s.'.[.|.#X#X+X X|.|.0.9 + 4 %.r.p.e.e.*.8 * 8 *XnXBXBXBXDXKXPXPXPXPXPXPXPXPXPXPXPXPXPXPXPXPXPXPXPXPXPXPXPXPXPXPXPXPXPXPXPXPXPXPXPXPXPXPXPXPXPXPXPXPXPXPXPXPXPXPXPXPXPXPXPXPXPXPXPXPXPXPXPXPXPXPXPXPXPXPXPXPXPXPXPXPXPXPXPXPXPXPXPXPXPXPXPXPXPXPXPXPXPXPXPXPXPXPXPXPXPXPXPXPXPXPXPX",
"PXPXPXPXPXPXPXPXPXPXPXPXPXPXPXPXPXPXPXPXPXPXPXPXPXPXPXPXPXPXPXPXPXPXPXPXPXPXPXPXPXPXPXPXPXPXPXPXPXPXPXPXPXPXPXPXPXPXPXPXPXPXPXPXPXPXPXPXPXPXPXPXPXPXPXPXPXPXPXPXPXPXPXPXPXPXPXPXPXPXPXPXPXPXPXPXPXPXPXPXPXPXPXPXPXPXPXPXJXBXg.= & ,.fXgX6XwXwX9X3X6.* & O.;X5X5X5X2X2X5X5X2X2X<X<X<X<X2X<X-X|.f.f.[.].[.].].].].].].].p.p.p.p.'.'.'.'.'.'.p.'.].].u.u.u.s.a.*.0 * & 4 q I Y T P U P U P P P P R L L P P P U U U T T I K q 0 4 $ o     o @ : > < 0 h h R E E E ) ) ) ) ) ) ) ) _ _ _ _ _ _ C C S S D _ _ _ D D D _ / _ ) ) S V V S ) ) E J J h 0 < < > > - O o o o + * 5 q I ~ #.+.+.+.#.#.#.#.#.$.#.:.:.#.:.#.#.#.$.$.#.#.$.%.! q 4 @ : I *.r.s.u.'.p.p.'.p.p.p.'.].].].p.].].].].].].].].].].].].].].].].].s.[.[.s.s.s.].].[.{.#X#X+X{.{.|.a.w # 4 +.r.e.4.w.6.8 & 8 ;XnXMXmXMXDXJXKXPXPXPXPXPXPXPXPXPXPXPXPXPXPXPXPXPXPXPXPXPXPXPXPXPXPXPXPXPXPXPXPXPXPXPXPXPXPXPXPXPXPXPXPXPXPXPXPXPXPXPXPXPXPXPXPXPXPXPXPXPXPXPXPXPXPXPXPXPXPXPXPXPXPXPXPXPXPXPXPXPXPXPXPXPXPXPXPXPXPXPXPXPXPXPXPXPXPXPXPXPXPXPXPXPX",
"PXPXPXPXPXPXPXPXPXPXPXPXPXPXPXPXPXPXPXPXPXPXPXPXPXPXPXPXPXPXPXPXPXPXPXPXPXPXPXPXPXPXPXPXPXPXPXPXPXPXPXPXPXPXPXPXPXPXPXPXPXPXPXPXPXPXPXPXPXPXPXPXPXPXPXPXPXPXPXPXPXPXPXPXPXPXPXPXPXPXPXPXPXPXPXPXPXPXPXPXPXPXPXPXPXPXPXKXBXg.= & 6.8XlXrXeXeX9X2X%.& * 5.:X5X5X<X2X2X2X2X2X2X2X<X<X<X<X:X X[.[.[.f.].].].].].].].[.[.[.[.[.[.[.[.[.[.'.'.'.p.p.'.'.p.p.i.#.0 & & 5 q I Y Y T P P U P U L U P L P P W P P T ~ ~ Y q 8 , : X X   + : 6 q h v J J ) ) S S S _ _ S D D S S S S S _ S S D S _ S S / / / / / / / D D S S V S S C C C C V V V V M V V z v v v v h h 6 < > $ O o o + : 5 0 Y #.$.*.#.#.#.$.#.#.:.:.:.#.#.#.#.$.#.$.$.*.$.%.^ I 5 @ : q *.i.p.p.p.p.].p.p.'.].].].].].].].].].].].].].].].].].].].[.s.s.s.[.s.s.s.].].].].{.#X#X X{.|.|.a.Y * & T w.e.e.w.,.0 @ 8 h.mXmXmXBXDXJXKXPXPXPXPXPXPXPXPXPXPXPXPXPXPXPXPXPXPXPXPXPXPXPXPXPXPXPXPXPXPXPXPXPXPXPXPXPXPXPXPXPXPXPXPXPXPXPXPXPXPXPXPXPXPXPXPXPXPXPXPXPXPXPXPXPXPXPXPXPXPXPXPXPXPXPXPXPXPXPXPXPXPXPXPXPXPXPXPXPXPXPXPXPXPXPXPXPXPXPXPXPXPXPXPX",
"PXPXPXPXPXPXPXPXPXPXPXPXPXPXPXPXPXPXPXPXPXPXPXPXPXPXPXPXPXPXPXPXPXPXPXPXPXPXPXPXPXPXPXPXPXPXPXPXPXPXPXPXPXPXPXPXPXPXPXPXPXPXPXPXPXPXPXPXPXPXPXPXPXPXPXPXPXPXPXPXPXPXPXPXPXPXPXPXPXPXPXPXPXPXPXPXPXPXPXPXPXPXPXPXPXPXJXSXh.= & 7.9XuXeXeXrXzX:XY & 4 0.:X5X2X2X2X2X2X2X2X2X2X2X2X2X2X-X|.[.[.[.[.[.s.].].].].].].].[.[.[.[.[.[.[.[.[.].].].'.u.'.'.i.&.0 * * 8 w Y Y U U U U U U U P U U U P P P P T T Y Y e 4 & +   o @ @ < 0 H J E ) S _ _ S D D D D D D D C D D D D D S S _ S D _ _ S S S _ _ _ _ _ _ _ C S D S _ _ _ C C C S S C V C C M V M M M V V V b b b x h h 6 - O O o + @ : 0 ! O.$.#.*.$.$.#.:.:.$.#.#.#.$.:.:.#.:.#.*.*.$.+.I 8 & * 0 6.i.s.p.s.p.'.'.].].].'.].].].].].].].].].].].].[.p.s.s.s.s.[.[.[.[.[.].].].s.].[.+X#X+X|.{.[.d.+.& & U w.e.e.4.:.8 + 8 h.nXMXBXBXDXKXPXPXPXPXPXPXPXPXPXPXPXPXPXPXPXPXPXPXPXPXPXPXPXPXPXPXPXPXPXPXPXPXPXPXPXPXPXPXPXPXPXPXPXPXPXPXPXPXPXPXPXPXPXPXPXPXPXPXPXPXPXPXPXPXPXPXPXPXPXPXPXPXPXPXPXPXPXPXPXPXPXPXPXPXPXPXPXPXPXPXPXPXPXPXPXPXPXPXPXPXPXPXPXPX",
"PXPXPXPXPXPXPXPXPXPXPXPXPXPXPXPXPXPXPXPXPXPXPXPXPXPXPXPXPXPXPXPXPXPXPXPXPXPXPXPXPXPXPXPXPXPXPXPXPXPXPXPXPXPXPXPXPXPXPXPXPXPXPXPXPXPXPXPXPXPXPXPXPXPXPXPXPXPXPXPXPXPXPXPXPXPXPXPXPXPXPXPXPXPXPXPXPXPXPXPXPXPXPXPXPXJXDXg.= & 6.gXrXeXeXeXrX#Xq + 7 a.fX5X3X<X2X2X5X5X5X5X5X2X2X5X:X-X|.f.f.f.[.[.[.].].].].].].].'.].[.[.[.[.[.{.[.[.p.'.].].].u.q.h + + 4 r ! ! Y U U U U U U U U T T T T T P P T T 0 4 + .   X # * q I E ) ) S S S S _ F D D _ ` _ _ D _ _ S S S _ _ _ _ _ _ _ _ _ _ _ _ _ _ D D D C C C C C D _ _ _ _ C C S _ _ S V ) / V C V V C N V N C C C C M V b J l h 5 * +     X * 0 W +.#.$.#.#.$.$.$.$.#.:.:.:.:.:.=.#.=.:.$.&.&.r 3 + * U 6.s.s.p.'.'.'.'.'.'.].].].].].].].].].].].].].s.s.s.s.s.[.s.s.s.s.].'.p.p.s.p.[.+X#X X{.[.{.f.&.= + K 7.P.P.q.:.8 + = *XmXBXBXBXDXKXKXPXPXPXPXPXPXPXPXPXPXPXPXPXPXPXPXPXPXPXPXPXPXPXPXPXPXPXPXPXPXPXPXPXPXPXPXPXPXPXPXPXPXPXPXPXPXPXPXPXPXPXPXPXPXPXPXPXPXPXPXPXPXPXPXPXPXPXPXPXPXPXPXPXPXPXPXPXPXPXPXPXPXPXPXPXPXPXPXPXPXPXPXPXPXPXPXPXPXPXPXPXPX",
"PXPXPXPXPXPXPXPXPXPXPXPXPXPXPXPXPXPXPXPXPXPXPXPXPXPXPXPXPXPXPXPXPXPXPXPXPXPXPXPXPXPXPXPXPXPXPXPXPXPXPXPXPXPXPXPXPXPXPXPXPXPXPXPXPXPXPXPXPXPXPXPXPXPXPXPXPXPXPXPXPXPXPXPXPXPXPXPXPXPXPXPXPXPXPXPXPXPXPXPXPXPXPXPXJXAX*X= = 6.8XeXeXeXrX9X-Xq X 8 d.2X5X2X2X2X2X2X2X2X2X2X2X2X2X:X-X|.[.].].].].'.].].].].[.[.].].[.].].].[.[.[.[.f.p.p.'.].d.0.I * + , q Y Y I Y I T T U U U U P U P P T T T ! e 4 +     . : > h R ) S S S S S S D D D S D D D F D D S S D D C D ` D D D S D D D D F D D D F F F F F F F F D D D D D D D S D D D S S C S S C V M V V V V V C C C M M C C M V V V v h 1 > + +   o 4 w ~ %.$.*.$.$.*.$.:.:.:.$.:.$.$.$.#.$.*.#.*.%.0 : + 4 O.0.d.].'.'.'.u.].].s.s.u.'.p.p.].].].].].].].].].].].].].].].[.s.p.p.s.p.p.p.p.|.#X X{.[.[.[.$., X q 9.^.4.4.3.0 + = *XnXMXmXMXDXKXPXPXPXPXPXPXPXPXPXPXPXPXPXPXPXPXPXPXPXPXPXPXPXPXPXPXPXPXPXPXPXPXPXPXPXPXPXPXPXPXPXPXPXPXPXPXPXPXPXPXPXPXPXPXPXPXPXPXPXPXPXPXPXPXPXPXPXPXPXPXPXPXPXPXPXPXPXPXPXPXPXPXPXPXPXPXPXPXPXPXPXPXPXPXPXPXPXPXPXPXPXPX",
"PXPXPXPXPXPXPXPXPXPXPXPXPXPXPXPXPXPXPXPXPXPXPXPXPXPXPXPXPXPXPXPXPXPXPXPXPXPXPXPXPXPXPXPXPXPXPXPXPXPXPXPXPXPXPXPXPXPXPXPXPXPXPXPXPXPXPXPXPXPXPXPXPXPXPXPXPXPXPXPXPXPXPXPXPXPXPXPXPXPXPXPXPXPXPXPXPXPXPXPXPXPXPXKXDXsX= % 6.8XrXeXeXeX9X X9 + 8 d.2X2X2X:X2X2X2X2X2X2X2X2X2X2X:X#Xf.f.f.s.].].[.].].].].].].].[.[.].].].].[.[.[.'.f.[.[.p.8.+.5 + , 0 I Y Y T U P U U U U L L L P P W T r e 8 &     o - 6 H R E ) ) _ _ ` S S S D D D D S D D _ F F D D D D D D ` ` ` ` ` [ [ [ [ [ c.c.c.c.M.M.c.c.c.c.c.c.[ [ [ [ [ [ ] ` ` F F F D D C C C C V C V V M M M V C V M C C V V V V V V J J h 6 > @ o o + 8 r Y *.$.$.:.=.=.:.#.#.#.$.$.#.#.#.*.*.*.*.+.q * @ 0 *.r.s.s.p.u.'.'.].'.u.p.p.p.].].].].'.].].].].].].].[.].].[.].s.p.p.s.s.p.p.].[.#X#X{.[.[.f.&., + K 9.e.e.q.,.8 % 8 ;XmXBXMXmXDXJXPXPXPXPXPXPXPXPXPXPXPXPXPXPXPXPXPXPXPXPXPXPXPXPXPXPXPXPXPXPXPXPXPXPXPXPXPXPXPXPXPXPXPXPXPXPXPXPXPXPXPXPXPXPXPXPXPXPXPXPXPXPXPXPXPXPXPXPXPXPXPXPXPXPXPXPXPXPXPXPXPXPXPXPXPXPXPXPXPXPXPXPXPXPXPXPXPXPXPXPXPX",
"PXPXPXPXPXPXPXPXPXPXPXPXPXPXPXPXPXPXPXPXPXPXPXPXPXPXPXPXPXPXPXPXPXPXPXPXPXPXPXPXPXPXPXPXPXPXPXPXPXPXPXPXPXPXPXPXPXPXPXPXPXPXPXPXPXPXPXPXPXPXPXPXPXPXPXPXPXPXPXPXPXPXPXPXPXPXPXPXPXPXPXPXPXPXPXPXPXPXPXPXPXPXHXSXdX= + &.5XrXeXeXeX9X X0 + 8 d.5X2X2X5X2X5X2X2X2X2X2X2X2X2X:X+Xf.f.f.f.[.s.[.[.[.[.[.[.[.].].[.[.'.'.].].'.].].'.[.[.i.%.8 @ & 0 w Y T I K U U L U U P L L P P P U K 9 = % . X @ 5 h J ) ) / _ C C C A A _ _ _ _ D D D _ _ D D D D F F F ` [ c.M.D.S.H.H.H.H.U.U.Y.Y.Y.Y.Y.Y.Y.Y.Y.Y.U.U.U.U.U.U.J.J.J.J.D.D.D.B.M.c.[ [ ` F D C C V C V C M C V M C C C C C V V V V M V / / J h 6 : + o + * 8 K #.#.:.=.:.o.#.:.:.:.#.$.$.$.*.*.$.*.*.~ 0 @ @ q 6.r.s.p.p.`.`.'.u.u.p.p.].].].'.p.].].].].].].].[.].].[.].p.s.s.].].].].].].[.|. X{.[.[.f.*.5 + q 6.4.4.4.:.0 X e dXmXNXBXBXDXJXPXPXPXPXPXPXPXPXPXPXPXPXPXPXPXPXPXPXPXPXPXPXPXPXPXPXPXPXPXPXPXPXPXPXPXPXPXPXPXPXPXPXPXPXPXPXPXPXPXPXPXPXPXPXPXPXPXPXPXPXPXPXPXPXPXPXPXPXPXPXPXPXPXPXPXPXPXPXPXPXPXPXPXPXPXPXPXPXPXPXPXPXPXPXPXPXPXPXPXPX",
"PXPXPXPXPXPXPXPXPXPXPXPXPXPXPXPXPXPXPXPXPXPXPXPXPXPXPXPXPXPXPXPXPXPXPXPXPXPXPXPXPXPXPXPXPXPXPXPXPXPXPXPXPXPXPXPXPXPXPXPXPXPXPXPXPXPXPXPXPXPXPXPXPXPXPXPXPXPXPXPXPXPXPXPXPXPXPXPXPXPXPXPXPXPXPXPXPXPXPXPXPXKXDXhX8 X +.5XrXeXeXeX9X#X0 @ 8 g.2X2X<X<X2X2X5X2X2X2X2X2X2X2X-X|.[.f.d.f.f.f.s.[.[.[.[.[.[.[.].[.[.[.[.p.'.].[.'.].s.f.1.K * & 8 w U T T T U L L L L L T P U T P T r 8 & o o + , 0 H E E ) _ _ D D D D _ _ _ _ _ ` D F F F _ ` ` ` [ } M.D.D.H.J.U.Y.Y.(.Y.Y.Y.Y.Y.E.E.E.E.E.E.E.E.R.Y.R.E.E.R.Y.Y.Y.Y.Y.Y.Y.Y.Y.U.U.U.L.H.H.H.D.M.' F C C C C C C V V V V V V V V V V V V V M C / / J J H 6 - +   & , q +.%.$.$.#.#.:.:.#.:.:.#.$.$.*.*.*.*.*.Y 5 @ , U 0.s.s.'.`.'.p.p.p.p.s.].].].].].].].].].].].[.].].[.s.s.s.s.[.s.s.[.[.].[.[.|. X[.[.[.[.*.8 + 0 3.4.4.4.*.8 * r hXmXNXMXMXDXKXKXPXPXPXPXPXPXPXPXPXPXPXPXPXPXPXPXPXPXPXPXPXPXPXPXPXPXPXPXPXPXPXPXPXPXPXPXPXPXPXPXPXPXPXPXPXPXPXPXPXPXPXPXPXPXPXPXPXPXPXPXPXPXPXPXPXPXPXPXPXPXPXPXPXPXPXPXPXPXPXPXPXPXPXPXPXPXPXPXPXPXPXPXPXPXPXPXPXPX",
"PXPXPXPXPXPXPXPXPXPXPXPXPXPXPXPXPXPXPXPXPXPXPXPXPXPXPXPXPXPXPXPXPXPXPXPXPXPXPXPXPXPXPXPXPXPXPXPXPXPXPXPXPXPXPXPXPXPXPXPXPXPXPXPXPXPXPXPXPXPXPXPXPXPXPXPXPXPXPXPXPXPXPXPXPXPXPXPXPXPXPXPXPXPXPXPXPXPXPXPXPXGXkXe + U 3XrXeXeXuXrX-XK @ 8 g.2X5X2X<X<X2X5X5X2X2X2X2X2X2X-X{.f.f.[.s.s.s.s.[.[.[.[.[.[.[.[.].[.[.[.[.p.'.].[.[.[.8.T : + 4 w I U U U U U P U L L L U P T T Y w 5 #     - 1 v J / / ) ) _ S S S S S S _ _ _ C D F F F ` [ } M.D.H.U.Y.Y.Y.(.Y.Y.Y.E.E.E.E.E.R.R.R.R.W.R.R.R.R.Q.R.R.R.R.R.R.R.I.Y.R.E.E.Y.Y.Y.Y.Y.Y.Y.Y.Y.Y.U.U.U.D.M.v.} ' F A A A C V V V V V C C M M V M V C C C / / ) J J q : +     * e +.*.*.*.$.:.$.#.#.#.#.$.$.$.$.,.,.,.*.Y , @ 8 *.s.].'.p.u.'.p.p.p.s.].].].].].].].].].].[.].].].[.s.s.s.s.s.s.[.[.].[.].[.|.|.{.].'.s.6., + K 3.4.4.q.#.5 + ! kXAXMXmXBXDXKXPXPXPXPXPXPXPXPXPXPXPXPXPXPXPXPXPXPXPXPXPXPXPXPXPXPXPXPXPXPXPXPXPXPXPXPXPXPXPXPXPXPXPXPXPXPXPXPXPXPXPXPXPXPXPXPXPXPXPXPXPXPXPXPXPXPXPXPXPXPXPXPXPXPXPXPXPXPXPXPXPXPXPXPXPXPXPXPXPXPXPXPXPXPXPXPXPXPX",
"PXPXPXPXPXPXPXPXPXPXPXPXPXPXPXPXPXPXPXPXPXPXPXPXPXPXPXPXPXPXPXPXPXPXPXPXPXPXPXPXPXPXPXPXPXPXPXPXPXPXPXPXPXPXPXPXPXPXPXPXPXPXPXPXPXPXPXPXPXPXPXPXPXPXPXPXPXPXPXPXPXPXPXPXPXPXPXPXPXPXPXPXPXPXPXPXPXPXPXPXJXkXr % Y 3XeXeXeXeXuX>XK + 8 d.:X<X<X<X2X2X2X2X5X2X2X2X2X3X-X[.f.[.[.[.[.[.[.[.[.[.[.[.[.[.[.[.].[.[.[.[.p.'.].f.s.1.0 o & 8 I Y I L L P U U T U U U U T T I q , o   o : 0 J ) _ ( C _ S C V S S _ _ _ S S V _ C F [ [ c.D.U.Y.Y.Y.Y.Q.E.Y.E.E.Y.E.E.Q.Q.Q.E.R.R.R.R.W.R.R.R.R.R.W.E.E.E.E.R.R.R.R.R.R.R.E.E.R.Y.Y.Y.Y.Y.Y.I.Y.L.L.Y.L.S.c.v.M.M.v.c.' ' ` F C V C C V M V M V V V C C V V / / / J J H < $     + 0 ! *.*.#.#.#.#.#.$.#.#.*.:.:.>.:.,.8.*.q @ @ K 6.d.s.u.p.].p.p.p.].].].].].].].].].].[.].].].[.[.s.s.s.s.s.[.[.].[.[.].].|. X{.].f.{.6.8 + K 6.7.q.3.@., + O.kXmXNXMXBXDXPXPXPXPXPXPXPXPXPXPXPXPXPXPXPXPXPXPXPXPXPXPXPXPXPXPXPXPXPXPXPXPXPXPXPXPXPXPXPXPXPXPXPXPXPXPXPXPXPXPXPXPXPXPXPXPXPXPXPXPXPXPXPXPXPXPXPXPXPXPXPXPXPXPXPXPXPXPXPXPXPXPXPXPXPXPXPXPXPXPXPXPXPXPXPXPXPXPX",
"PXPXPXPXPXPXPXPXPXPXPXPXPXPXPXPXPXPXPXPXPXPXPXPXPXPXPXPXPXPXPXPXPXPXPXPXPXPXPXPXPXPXPXPXPXPXPXPXPXPXPXPXPXPXPXPXPXPXPXPXPXPXPXPXPXPXPXPXPXPXPXPXPXPXPXPXPXPXPXPXPXPXPXPXPXPXPXPXPXPXPXPXPXPXPXPXPXPXJXPXnX5.# q -X9XwXwXeXuX#XP + 8 a.:X5X<X<X<X2X2X:X2X2X2X2X2X2X-X[.[.f.p.[.[.].].[.[.[.[.[.[.[.[.[.[.].].].[.[.p.].p.i.T , + 4 e ! Y U K L L U U U U U T T T Y 0 , o   + 4 h R J / / / / V S S V C C _ / ( ( ( C ` { M.D.H.Y.Y.(.Y.Y.Y.Y.E.E.E.E.Y.R.E.R.R.Q.Q.Q.E.E.E.E.E.W.W.R.R.W.W.W.E.E.E.E.E.E.E.R.R.E.E.E.R.R.R.Y.Y.Y.Y.Y.I.R.Y.Y.L.L.H.B.B.B.z.B.B.B.M.M.c.c.' ` F C C C C V M M V S S V V V V V B / J H 0 * X   $ 8 Y *.#.#.#.#.$.$.#.$.:.:.:.=.>.3.0.0.O.4 o 6 #.i.p.p.p.p.p.p.p.p.p.].].].].].].].[.].s.s.[.[.[.s.s.s.s.[.[.].[.s.].].s.[.|.[.].].[.6., * Y 7.4.4.6.@.= + 5.vXMXMXMXBXDXPXPXPXPXPXPXPXPXPXPXPXPXPXPXPXPXPXPXPXPXPXPXPXPXPXPXPXPXPXPXPXPXPXPXPXPXPXPXPXPXPXPXPXPXPXPXPXPXPXPXPXPXPXPXPXPXPXPXPXPXPXPXPXPXPXPXPXPXPXPXPXPXPXPXPXPXPXPXPXPXPXPXPXPXPXPXPXPXPXPXPXPXPXPXPXPXPX",
"PXPXPXPXPXPXPXPXPXPXPXPXPXPXPXPXPXPXPXPXPXPXPXPXPXPXPXPXPXPXPXPXPXPXPXPXPXPXPXPXPXPXPXPXPXPXPXPXPXPXPXPXPXPXPXPXPXPXPXPXPXPXPXPXPXPXPXPXPXPXPXPXPXPXPXPXPXPXPXPXPXPXPXPXPXPXPXPXPXPXPXPXPXPXPXPXKXKXJXBX5.% 8 |.9XwXeXeXuX<X@.+ 4 d.2X<X<X:X<X2X2X2X2X2X5X2X2X2X#X{.].].].].].].].].[.].].].[.[.[.[.[.[.].s.].'.'.'.s.6.e & * q Y Y U U U U U U U T Y T T U I q = %   @ 1 v ) S S S S V C _ ) _ _ _ ) ) S S D F [ M.D.Y.Y.Q.Q.Q.Y.Y.E.W.E.E.Q.Q.E.R.Q.R.Q.Q.R.E.E.E.E.E.E.E.Q.Q.R.R.R.W.W.W.W.E.E.R.E.E.E.E.R.R.R.R.R.E.R.R.R.Y.Y.Y.I.R.R.R.Y.L.L.G.V.B.v.v.v.v.v.v.B.B.B.z.z.l.[ F C C V V V V S S S V V V M V V S ) b 0 - o X * q ~ %.#.#.#.#.o.o.:.:.$.$.#.6.r.e.i.1.K @ : r 0.s.p.'.'.'.p.p.p.i.].].[.].].].].].].].s.p.].].[.[.[.[.].].].].].].'.].{.|.[.[.[.p.%.= & ! q.q.3.3.T ,   5.vXmXMXmXBXFXPXKXPXPXPXPXPXPXPXPXPXPXPXPXPXPXPXPXPXPXPXPXPXPXPXPXPXPXPXPXPXPXPXPXPXPXPXPXPXPXPXPXPXPXPXPXPXPXPXPXPXPXPXPXPXPXPXPXPXPXPXPXPXPXPXPXPXPXPXPXPXPXPXPXPXPXPXPXPXPXPXPXPXPXPXPXPXPXPXPXPXPXPXPXPXPX",
"PXPXPXPXPXPXPXPXPXPXPXPXPXPXPXPXPXPXPXPXPXPXPXPXPXPXPXPXPXPXPXPXPXPXPXPXPXPXPXPXPXPXPXPXPXPXPXPXPXPXPXPXPXPXPXPXPXPXPXPXPXPXPXPXPXPXPXPXPXPXPXPXPXPXPXPXPXPXPXPXPXPXPXPXPXPXPXPXPXPXPXPXPXPXPXPXPXJXBXg.% 4 d.8X6XeXeXrX<X$.& , a.:X5X<X2X<X<X5X5X2X2X2X5X5X:X#X{.[.[.[.[.].].].].].[.].].].f.f.[.[.].].].f.].].[.i.+., + 4 w Y Y I U U U U U U U U T ~ Y q = + o @ 6 H E ) _ S S S S C C / V _ _ _ _ D ` [ M.D.U.(.(.(.Q.Q.Q.E.Y.Y.E.Q.E.E.Q.Q.W.W.Q.Q.Q.Q.W.W.E.E.E.E.E.E.E.W.W.W.R.W.W.W.R.R.E.E.E.E.E.E.R.R.R.R.R.R.R.R.R.Y.R.R.Y.R.R.R.I.K.L.J.V.B.v.v.v.b.V.v.B.V.B.B.B.B.B.M.c.[ ` C C C S S C V V V V V V V V / / J h : + + & 0 ~ #.:.$.:.#.#.:.$.$.$.,.w.w.r.r.8.+.8 & 8 %.r.p.p.p.p.p.p.p.].].].].].].].].].].].].].].[.[.].[.].].].].].].].p.s.[.[.[.'.p.s.&.: & T 7.4.7.6.K $ * a.vXNXNXBXBXGXKXPXPXPXPXPXPXPXPXPXPXPXPXPXPXPXPXPXPXPXPXPXPXPXPXPXPXPXPXPXPXPXPXPXPXPXPXPXPXPXPXPXPXPXPXPXPXPXPXPXPXPXPXPXPXPXPXPXPXPXPXPXPXPXPXPXPXPXPXPXPXPXPXPXPXPXPXPXPXPXPXPXPXPXPXPXPXPXPXPXPXPXPXPXPX",
"PXPXPXPXPXPXPXPXPXPXPXPXPXPXPXPXPXPXPXPXPXPXPXPXPXPXPXPXPXPXPXPXPXPXPXPXPXPXPXPXPXPXPXPXPXPXPXPXPXPXPXPXPXPXPXPXPXPXPXPXPXPXPXPXPXPXPXPXPXPXPXPXPXPXPXPXPXPXPXPXPXPXPXPXPXPXPXPXPXPXPXPXPXPXKXKXJXDXsX= = 8.8X9X6XeXrX4X6.: , 0.5X5X<X<X<X5X5X5X5X2X2X5X5X:X#X[.[.[.[.[.[.[.].].[.[.[.].'.'.f.f.s.].].].].p.f.f.8.w & & 8 I Y I U U U L U U U U U T U r 4 X   $ < H E ) _ _ C V S S _ / C C S S _ ` [ M.D.Y.Y.(.).).).).Q.Q.E.E.E.E.E.Q.W.W.Q.Q.Q.Q.Q.Q.W.R.Q.W.R.E.E.E.E.Q.E.W.Q.Q.W.Q.Q.Q.E.R.R.I.R.E.E.E.R.R.R.R.Y.Y.R.R.R.R.R.R.Y.R.R.R.Y.K.K.K.Z.V.v.B.B.V.B.v.V.V.V.B.V.V.B.B.M.M.M.c.' F D D C V C V V S V V C C C C / J 0 > +   * q ~ *.*.$.#.$.#.$.$.>.w.e.w.w.r.r.0.K = , U 8.s.i.p.'.'.'.].s.s.].].].].].].].].].].[.[.[.[.].].].].].].].].s.s.s.[.[.].u.s.s.*.- & O.3.7.q.,.K & 8 h.mXNXMXBXAXGXKXPXPXPXPXPXPXPXPXPXPXPXPXPXPXPXPXPXPXPXPXPXPXPXPXPXPXPXPXPXPXPXPXPXPXPXPXPXPXPXPXPXPXPXPXPXPXPXPXPXPXPXPXPXPXPXPXPXPXPXPXPXPXPXPXPXPXPXPXPXPXPXPXPXPXPXPXPXPXPXPXPXPXPXPXPXPXPXPXPXPXPXPXPX",
"PXPXPXPXPXPXPXPXPXPXPXPXPXPXPXPXPXPXPXPXPXPXPXPXPXPXPXPXPXPXPXPXPXPXPXPXPXPXPXPXPXPXPXPXPXPXPXPXPXPXPXPXPXPXPXPXPXPXPXPXPXPXPXPXPXPXPXPXPXPXPXPXPXPXPXPXPXPXPXPXPXPXPXPXPXPXPXPXPXPXPXPXPXPXHXJXFXhX8 + 6.<X6X6XeXrX9Xw.: * 6.:X2X2X<X<X5X5X2X2X2X2X2X5X2X+X[.[.[.[.[.[.[.[.].].[.[.].].].].f.f.f.p.].].].u.f.%.8 + 4 e K Y Y U U U U U U U U T T w 5 +   + 5 H J / / / _ C C C C C _ _ ( ( C ` ;.D.U.Y.Y.E.Q.E.E.).).).E.Q.Q.Q.E.E.Q.Q.Q.E.W.W.W.W.Q.W.R.W.Q.Q.Q.Q.Q.E.Q.E.E.E.W.Q.Q.Q.Q.Q.E.E.E.R.R.R.E.E.E.E.R.I.R.Y.R.I.I.I.I.I.I.I.R.R.R.K.I.I.H.V.V.V.V.V.V.B.B.V.v.B.B.V.V.B.B.B.B.B.M.M.c.[ ` C C S V V V C C C M C V V J J g 4 + + : w +.5.#.+.$.#.$.o.w.e.w.w.r.r.r.r.&.8 & 0 ,.s.s.].p.].].p.p.].].].].].].].].[.].s.[.[.[.].].].].].].].[.s.s.s.s.[.[.'.'.].].^ & * +.7.3.3.3.0 & 8 sXMXBXBXmXAXJXPXPXPXPXPXPXPXPXPXPXPXPXPXPXPXPXPXPXPXPXPXPXPXPXPXPXPXPXPXPXPXPXPXPXPXPXPXPXPXPXPXPXPXPXPXPXPXPXPXPXPXPXPXPXPXPXPXPXPXPXPXPXPXPXPXPXPXPXPXPXPXPXPXPXPXPXPXPXPXPXPXPXPXPXPXPXPXPXPXPXPXPXPX",
"PXPXPXPXPXPXPXPXPXPXPXPXPXPXPXPXPXPXPXPXPXPXPXPXPXPXPXPXPXPXPXPXPXPXPXPXPXPXPXPXPXPXPXPXPXPXPXPXPXPXPXPXPXPXPXPXPXPXPXPXPXPXPXPXPXPXPXPXPXPXPXPXPXPXPXPXPXPXPXPXPXPXPXPXPXPXPXPXPXPXPXPXPXPXJXJXkXe @ K 3XeXwXwXrX9X|.5 & &.:X2X<X<X2X<X5X5X2X2X2X2X2X2X+X[.].[.].].].].[.[.].].].[.[.].].'.p.f.f.f.f.f.s.i.T : + 8 r Y Y T U U U T U T T T Y Y 8 +     : h J ) / ( ( C C C C C _ D C F ` ' M.D.U.Y.E.E.E.Q.Q.Q.Q.Q.Q.W.E.E.E.Q.E.E.Q.W.Q.Q.W.E.E.Q.Q.Q.Q.Q.Q.Q.Q.Q.Q.Q.Q.Q.E.W.W.Q.Q.Q.W.W.E.E.E.E.E.E.W.E.E.E.R.R.E.R.E.R.R.R.I.I.I.I.R.R.I.I.I.I.K.V.V.V.B.v.v.V.V.V.V.V.v.v.b.V.V.B.B.B.B.B.S.N.c.[ F C C C C V C C M S V C C C _ L h : o + 4 r %.#.#.#.:...3.e.w.w.w.w.r.t.i.6.0 + , +.r.i.s.p.p.p.'.].].].].].].].].].].s.].[.[.[.[.[.].].].[.].s.s.s.s.].].].'.`.'.r.! + 5 #.3.3.3.$.8 + e hXNXNXNXBXDXKXPXPXPXPXPXPXPXPXPXPXPXPXPXPXPXPXPXPXPXPXPXPXPXPXPXPXPXPXPXPXPXPXPXPXPXPXPXPXPXPXPXPXPXPXPXPXPXPXPXPXPXPXPXPXPXPXPXPXPXPXPXPXPXPXPXPXPXPXPXPXPXPXPXPXPXPXPXPXPXPXPXPXPXPXPXPXPXPXPXPXPXPX",
"PXPXPXPXPXPXPXPXPXPXPXPXPXPXPXPXPXPXPXPXPXPXPXPXPXPXPXPXPXPXPXPXPXPXPXPXPXPXPXPXPXPXPXPXPXPXPXPXPXPXPXPXPXPXPXPXPXPXPXPXPXPXPXPXPXPXPXPXPXPXPXPXPXPXPXPXPXPXPXPXPXPXPXPXPXPXPXPXPXPXPXPXPXPXGXnXr + K <X6XeXwXeX9X{.8 + O.-X2X<X3X2X2X5X5X5X2X2X2X2X2X+X[.[.].].].].].].[.[.].].].[.[.].].].].].[.f.f.f.i.w & + q Y T U U U U Y T Y T U Y ! 0 $     @ h J _ / C S C S S C C ( C C D F [ M.U.U.E.).E.E.E.Q.W.W.Q.Q.W.Q.Q.Q.Q.Q.Q.E.E.E.E.Q.Q.Q.Q.Q.Q.Q.Q.Q.Q.Q.Q.Q.Q.Q.Q.Q.Q.Q.Q.E.Q.Q.Q.E.E.E.E.W.W.Q.W.W.R.E.E.E.E.E.E.E.R.R.R.R.R.R.Y.R.R.R.I.R.R.L.H.V.V.V.v.v.V.b.V.G.V.b.v.V.V.V.B.B.B.B.V.Z.B.S.S.M.c.' F C C C C V C C C V C V V ) R 0 @   # 5 ~ *.$.:.o.1.e.e.e.e.e.e.e.e.p.0.O.& @ K 0.i.f.p.p.'.].].].].].].].].'.p.].].[.[.[.[.[.[.[.[.[.].[.s.s.s.p.].s.].'.u.p.d.q + 5 *.3.>.3.#.4 X q kXNXNXmXBXDXPXPXPXPXPXPXPXPXPXPXPXPXPXPXPXPXPXPXPXPXPXPXPXPXPXPXPXPXPXPXPXPXPXPXPXPXPXPXPXPXPXPXPXPXPXPXPXPXPXPXPXPXPXPXPXPXPXPXPXPXPXPXPXPXPXPXPXPXPXPXPXPXPXPXPXPXPXPXPXPXPXPXPXPXPXPXPXPXPXPXPXPX",
"PXPXPXPXPXPXPXPXPXPXPXPXPXPXPXPXPXPXPXPXPXPXPXPXPXPXPXPXPXPXPXPXPXPXPXPXPXPXPXPXPXPXPXPXPXPXPXPXPXPXPXPXPXPXPXPXPXPXPXPXPXPXPXPXPXPXPXPXPXPXPXPXPXPXPXPXPXPXPXPXPXPXPXPXPXPXPXPXPXPXPXPXPXKXBXy.# 8 #X6XwXwXwX6X>X0 + r +X2X<X<X3X2X2X5X5X5X2X5X2X:X|.[.[.[.[.].].].].].].].].].].].].].].].].'.[.f.i.1.5 + * e ! Y U U U U T T T T T I r 4 X   + 6 R ) / C C S S S V _ V / _ ` F ] M.U.Y.Y.Q.Q.Q.Q.E.E.E.W.W.Q.Q.E.E.Q.Q.Q.Q.Q.E.E.W.W.W.W.Q.Q.Q.Q.Q.Q.E.Q.Q.W.W.Q.Q.Q.Q.Q.Q.E.E.Q.Q.Q.E.E.E.E.Q.Q.Q.E.E.E.E.E.R.R.E.E.R.R.R.R.I.I.I.I.R.R.R.I.R.R.L.L.Z.V.V.V.b.V.b.b.V.V.V.V.V.V.V.B.B.B.B.V.V.B.B.B.G.S.S.M.[ ` D C _ C C C C S S Z A / J R < -   @ q $.,.#.:.w.w.e.w.e.e.e.4.e.i.r.&.8 @ 9 ,.i.s.p.'.'.].].].].].].].p.p.].s.[.[.[.[.].].].[.[.].[.s.s.s.].].[.].'.u.p.].i.8 + 9 ,.3.q.7.O., + O.vXBXBXmXBXDXPXPXPXPXPXPXPXPXPXPXPXPXPXPXPXPXPXPXPXPXPXPXPXPXPXPXPXPXPXPXPXPXPXPXPXPXPXPXPXPXPXPXPXPXPXPXPXPXPXPXPXPXPXPXPXPXPXPXPXPXPXPXPXPXPXPXPXPXPXPXPXPXPXPXPXPXPXPXPXPXPXPXPXPXPXPXPXPXPXPXPX",
"PXPXPXPXPXPXPXPXPXPXPXPXPXPXPXPXPXPXPXPXPXPXPXPXPXPXPXPXPXPXPXPXPXPXPXPXPXPXPXPXPXPXPXPXPXPXPXPXPXPXPXPXPXPXPXPXPXPXPXPXPXPXPXPXPXPXPXPXPXPXPXPXPXPXPXPXPXPXPXPXPXPXPXPXPXPXPXPXPXPXPXPXPXGXpX= , p.8X6X1XwX9X:X@.X 8 @X<X<X<X2X2X2X2X5X5X5X:X2X:X+X[.].[.[.].].].[.[.].].].].[.p.f.f.p.[.].].].f.i.@.4 # , w Y U U U U U T P L P P I e % . X > v ) D D C C _ _ _ S S S D D F [ M.U.Y.E.Q.).Q.Q.Q.Q.Q.Q.Q.Q.Q.Q.Q.W.W.Q.Q.Q.Q.Q.W.W.W.Q.Q.W.W.W.W.W.W.W.W.W.Q.Q.Q.).Q.Q.R.R.R.R.E.E.Q.Q.Q.E.R.W.Q.Q.Q.R.R.W.R.R.R.E.Y.Y.R.R.R.R.E.E.Y.I.I.I.I.I.E.I.Y.Y.G.Z.V.V.V.V.V.V.V.V.V.V.V.V.V.V.V.V.V.B.G.v.b.G.V.V.V.V.G.G.z.' ` D D C V C _ / / C C V / x : + + 8 ! $.$.4.e.u.i.e.e.e.e.e.e.t.i.1.9 & 8 5.a.s.'.p.p.[.s.s.p.'.p.p.s.].s.[.[.[.[.[.].].[.[.].].[.].].].].].].'.p.p.p.i.,.8 # e 6.2.4.,.U & & a.nXBXBXmXNXFXPXPXPXPXPXPXPXPXPXPXPXPXPXPXPXPXPXPXPXPXPXPXPXPXPXPXPXPXPXPXPXPXPXPXPXPXPXPXPXPXPXPXPXPXPXPXPXPXPXPXPXPXPXPXPXPXPXPXPXPXPXPXPXPXPXPXPXPXPXPXPXPXPXPXPXPXPXPXPXPXPXPXPXPXPXPXPXPXPXPX",
"PXPXPXPXPXPXPXPXPXPXPXPXPXPXPXPXPXPXPXPXPXPXPXPXPXPXPXPXPXPXPXPXPXPXPXPXPXPXPXPXPXPXPXPXPXPXPXPXPXPXPXPXPXPXPXPXPXPXPXPXPXPXPXPXPXPXPXPXPXPXPXPXPXPXPXPXPXPXPXPXPXPXPXPXPXPXPXPXPXPXKXJXJXhX8 * 1.3X6X1X1X6X3X1.& 8 d.2X<X<X2X2X2X2X2X5X5X5X2X:X+X[.[.[.[.[.].].].[.[.[.].].].].i.f.p.p.].'.[.f.i.T : & 8 K Y Y I U U U T T U T Y w 4 X   : 0 R ) _ D C D C C _ _ S D D F [ M.H.Y.Y.).).).).Q.Q.Q.Q.Q.Q.Q.Q.Q.Q.Q.Q.Q.Q.Q.Q.Q.Q.E.W.E.Y.Q.Q.Q.Q.W.W.Q.E.E.Q.Q.Q.W.W.W.W.R.R.R.E.R.E.W.E.E.E.R.W.W.R.W.R.R.W.R.R.R.W.R.R.Y.Y.R.R.R.R.R.Y.Y.Y.Y.Y.E.I.I.I.H.N.B.v.B.v.V.V.V.V.V.V.V.V.V.V.V.V.V.B.G.B.b.G.V.V.V.V.B.H.J.H.M.} ` C C C C / V V V V / / L 0 @ o * q +.7.w.u.w.e.e.e.e.e.e.t.r.i.0.Y * & ! r.s.u.p.s.p.p.p.'.p.p.p.s.[.[.[.[.].].[.[.[.[.].].].].].s.].'.'.'.p.p.p.p.s.*.= + I ,.3.1.,.w @ 8 ;XnXNXBXmXCXJXPXPXPXPXPXPXPXPXPXPXPXPXPXPXPXPXPXPXPXPXPXPXPXPXPXPXPXPXPXPXPXPXPXPXPXPXPXPXPXPXPXPXPXPXPXPXPXPXPXPXPXPXPXPXPXPXPXPXPXPXPXPXPXPXPXPXPXPXPXPXPXPXPXPXPXPXPXPXPXPXPXPXPXPXPXPXPXPXPX",
"PXPXPXPXPXPXPXPXPXPXPXPXPXPXPXPXPXPXPXPXPXPXPXPXPXPXPXPXPXPXPXPXPXPXPXPXPXPXPXPXPXPXPXPXPXPXPXPXPXPXPXPXPXPXPXPXPXPXPXPXPXPXPXPXPXPXPXPXPXPXPXPXPXPXPXPXPXPXPXPXPXPXPXPXPXPXPXKXPXPXHXJXkXr + T 2X4X1X1X1X5Xi.4 4 a.2X<X2X5X5X2X2X2X2X2X5X5X:X+X[.[.[.[.].[.].].].[.[.[.].].].s.s.f.p.p.p.p.f.0.I $ $ 0 Y U U T U U U U U T Y Y 8 #   + 6 J ) ) S S D D C C D D C F ` ` M.U.Y.Y.Y.Y.).).).Q.Q.Q.Q.Q.Q.Q.W.Q.Q.W.Q.!.Q.Q.Q.Q.Q.Q.E.E.E.Q.E.Q.W.W.W.W.Q.Q.Q.E.E.Y.E.E.Y.Y.U.U.U.U.U.U.U.U.U.U.U.Y.Y.Y.Y.Y.Y.Y.Y.U.U.U.U.Y.U.U.U.U.Y.I.I.Y.Y.I.R.R.W.R.I.I.I.V.B.b.b.v.V.v.v.B.V.V.V.V.V.Z.Z.Z.G.B.B.V.b.G.V.V.V.B.B.H.L.L.L.J.S.c.F C S S S V V S V ) ) J H > o o 4 O.0.r.e.e.e.w.e.e.e.t.r.i.i.i.%.: * w 0.p.p.'.'.'.'.].'.p.p.s.[.[.[.[.].[.[.[.[.[.p.p.p.s.].].p.'.'.'.p.'.'.'.p.s.+.* @ Y ,.,.3.*.9 & e hXBXNXBXmXAXJXPXPXPXPXPXPXPXPXPXPXPXPXPXPXPXPXPXPXPXPXPXPXPXPXPXPXPXPXPXPXPXPXPXPXPXPXPXPXPXPXPXPXPXPXPXPXPXPXPXPXPXPXPXPXPXPXPXPXPXPXPXPXPXPXPXPXPXPXPXPXPXPXPXPXPXPXPXPXPXPXPXPXPXPXPXPXPXPX",
"PXPXPXPXPXPXPXPXPXPXPXPXPXPXPXPXPXPXPXPXPXPXPXPXPXPXPXPXPXPXPXPXPXPXPXPXPXPXPXPXPXPXPXPXPXPXPXPXPXPXPXPXPXPXPXPXPXPXPXPXPXPXPXPXPXPXPXPXPXPXPXPXPXPXPXPXPXPXPXPXPXPXPXPXPXPXPXPXKXPXJXBXy.. 6 -X9X1X,X6X9X+X0 * 5.fX2X<X2X5X2X2X2X2X5X5X5X2X+X[.f.s.].].].[.[.[.[.[.[.[.].].].[.s.[.p.p.u.u.8.0 @ : q Y I U U P T U T U Y Y r =     * h E ) ( D S S C D D D D F ` F l.U.Y.Y.Y.).E.).).E.Q.Q.Q.Q.Q.Q.Q.Q.W.W.W.W.!.!.!.!.Q.Q.Q.Q.Q.Q.W.W.W.W.W.!.W.!.Q.E.E.Y.Y.(.(.(.(.^.^.e.q.>.>.Q R J l h h h h h h h h l v E ) >.<.4.^.^.^.(.P.U.U.I.I.Y.Y.R.W.R.I.I.R.C.b.b.b.V.V.V.V.V.V.V.V.V.V.G.G.G.V.B.V.v.v.V.V.V.v.V.V.J.L.L.K.K.K.J.D.M.F V S S V V C C C V J R H $   % Y r.r.t.w.4.w.w.e.e.e.e.r.w.r.6.8 + q 0.p.p.'.'.].].s.].s.s.[.[.[.].].[.[.[.[.[.s.s.s.s.].].].'.'.'.'.p.p.p.u.p.s.I   : O.,.,.1.#.8 # 5.vXNXBXmXBXFXKXKXPXPXPXPXPXPXPXPXPXPXPXPXPXPXPXPXPXPXPXPXPXPXPXPXPXPXPXPXPXPXPXPXPXPXPXPXPXPXPXPXPXPXPXPXPXPXPXPXPXPXPXPXPXPXPXPXPXPXPXPXPXPXPXPXPXPXPXPXPXPXPXPXPXPXPXPXPXPXPXPXPXPXPXPXPXPX",
"PXPXPXPXPXPXPXPXPXPXPXPXPXPXPXPXPXPXPXPXPXPXPXPXPXPXPXPXPXPXPXPXPXPXPXPXPXPXPXPXPXPXPXPXPXPXPXPXPXPXPXPXPXPXPXPXPXPXPXPXPXPXPXPXPXPXPXPXPXPXPXPXPXPXPXPXPXPXPXPXPXPXPXPXPXPXPXPXPXJXAXh.& * {.8X1X,XeX9X-XY + Y dX5X<X<X2X2X2X2X2X2X2X5X:X+Xs.s.s.].].[.[.[.[.[.[.[.[.[.].].].s.p.p.u.f.f.1.8 + , q Y U U U U T T Y ~ Y Y 0 +   + 6 R ) ) C C C D D C C D D F F [ H.Y.Y.E.Q.Q.).E.E.E.E.E.E.Q.Q.Q.Q.Q.Q.W.W.W.W.!.!.!.!.Q.Q.Q.Q.Q.Q.Q.W.W.W.W.Q.Y.U.U.P.P.F.;.) g 6 - - - - @ O O + + o O O O O O O o O O O O + O O + @ - - - ; y v ) ;.<.A.F.D.U.U.U.U.E.J.V.b.V.B.V.V.V.V.V.V.V.B.V.V.V.G.B.B.G.V.V.V.b.B.v.V.V.J.L.L.T.K.K.K.L.L.H.[ D C V V V C C V V J E H > o o 0 6.8.p.e.w.w.w.w.e.e.e.e.r.s.6.0 + 8 6.s.s.].[.[.s.p.].[.[.[.[.].[.[.[.].[.[.s.].].].s.s.].].'.p.p.p.p.p.p.p.].r.0 + 8 #.1.,.,.+.: * a.nXNXNXmXBXFXPXPXPXPXPXPXPXPXPXPXPXPXPXPXPXPXPXPXPXPXPXPXPXPXPXPXPXPXPXPXPXPXPXPXPXPXPXPXPXPXPXPXPXPXPXPXPXPXPXPXPXPXPXPXPXPXPXPXPXPXPXPXPXPXPXPXPXPXPXPXPXPXPXPXPXPXPXPXPXPXPXPXPXPXPXPXPX",
"PXPXPXPXPXPXPXPXPXPXPXPXPXPXPXPXPXPXPXPXPXPXPXPXPXPXPXPXPXPXPXPXPXPXPXPXPXPXPXPXPXPXPXPXPXPXPXPXPXPXPXPXPXPXPXPXPXPXPXPXPXPXPXPXPXPXPXPXPXPXPXPXPXPXPXPXPXPXPXPXPXPXPXPXPXPXPXPXPXDXhX4 + 6.8X6X1XwX6X8X:.+ 0 +X5X5X3X3X5X2X2X2X2X2X2X2X#X[.s.[.s.].].[.[.[.[.[.[.[.[.[.].].].s.p.p.f.s.6.5 + , r I K U U U U T T Y ! Y 8 X   @ h ) ) C C C C C D C C D F F [ M.Y.).E.E.E.Q.Q.Q.E.).Q.).).).Q.Q.Q.Q.Q.!.!.!.!.!.!.!.!.!.W.W.W.W.W.W.E.Y.U.(.P.<.<.) h 1 - - O O o o O + @ : , 6 0 0 0 H K K K L K L K H H h 0 0 0 6 < : @ + O o o O O O - - 6 R | >.A.F.P.U.B.N.B.v.V.V.V.V.V.V.V.V.V.V.V.Z.B.B.G.G.V.v.V.B.v.V.V.J.T.K.T.K.K.K.K.K.T.U.D.[ _ C C D V V V V V ) J 6 @ + , +.w.e.w.e.e.e.e.e.e.e.t.e.r.6.w & 4 6.t.].s.s.s.s.].].[.[.[.[.[.[.].].[.[.s.].].[.].s.].].p.p.p.p.p.p.p.'.'.s.0.4 + w *.,.2.,.U , 4 sXmXNXNXmXAXJXPXPXPXPXPXPXPXPXPXPXPXPXPXPXPXPXPXPXPXPXPXPXPXPXPXPXPXPXPXPXPXPXPXPXPXPXPXPXPXPXPXPXPXPXPXPXPXPXPXPXPXPXPXPXPXPXPXPXPXPXPXPXPXPXPXPXPXPXPXPXPXPXPXPXPXPXPXPXPXPXPXPXPXPXPXPX",
"PXPXPXPXPXPXPXPXPXPXPXPXPXPXPXPXPXPXPXPXPXPXPXPXPXPXPXPXPXPXPXPXPXPXPXPXPXPXPXPXPXPXPXPXPXPXPXPXPXPXPXPXPXPXPXPXPXPXPXPXPXPXPXPXPXPXPXPXPXPXPXPXPXPXPXPXPXPXPXPXPXPXPXPXPXPXPXPXJXnX! + T 2X9X6XwXwX6Xi.& 5 d.2X2X2X<X3X2X2X2X2X2X2X2X#X{.].[.].].].].].].[.[.[.[.[.[.[.[.].s.p.p.p.i.*.5 + 8 r Y I K U Y K I T Y ! r 4   o 5 H ) S C C C C S _ _ C D F F M.D.U.E.E.E.E.Q.Q.Q.Q.Q.).).).).).Q.Q.Q.Q.!.!.).).Q.Q.!.!.W.W.E.Q.Q.Q.Y.Y.U.<.) J h - O O O @ @ : 5 q T #.,.8.r.].{. X#X#X>X3X8X8X8X8X8X8X4X4X4X3X3X>X#X#X X[.s.r.6.*.T K 6 4 $ @ O O O @ > h v ) ;.;.M.B.B.V.V.V.B.S.S.S.G.b.V.Z.V.V.V.B.B.V.V.B.v.V.V.J.K.K.T.K.K.K.K.K.K.H.L.H.A.[ F C S V V M V S V J h , + + K 8.e.e.e.e.w.e.t.w.e.w.e.r.8.! # : %.i.s.p.p.s.].].].[.s.[.[.[.[.[.[.[.s.s.s.].].].s.p.p.p.p.p.p.p.p.'.u.i.d.*.* & Y 2.>.>.,.0 & e kXNXNXBXBXDXKXPXPXPXPXPXPXPXPXPXPXPXPXPXPXPXPXPXPXPXPXPXPXPXPXPXPXPXPXPXPXPXPXPXPXPXPXPXPXPXPXPXPXPXPXPXPXPXPXPXPXPXPXPXPXPXPXPXPXPXPXPXPXPXPXPXPXPXPXPXPXPXPXPXPXPXPXPXPXPXPXPXPXPXPXPX",
"PXPXPXPXPXPXPXPXPXPXPXPXPXPXPXPXPXPXPXPXPXPXPXPXPXPXPXPXPXPXPXPXPXPXPXPXPXPXPXPXPXPXPXPXPXPXPXPXPXPXPXPXPXPXPXPXPXPXPXPXPXPXPXPXPXPXPXPXPXPXPXPXPXPXPXPXPXPXPXPXPXPXPXPXKXKXKXKXAXy.* 0 #X9X6XwXeXrX|., = 6.:X5X5X<X<X2X2X2X2X2X2X2X#X{.].[.].].].].].].[.[.[.f.p.p.f.[.].].s.'.'.s.#.4 $ 8 K Y T Y I I Y K T Y ~ q & X + 6 E / C S C C / / S C S D F ] N.U.Y.Q.Q.Q.Q.Q.Q.E.Q.Q.Q.Q.Q.Q.Q.Q.Q.E.W.W.Q.Q.!.).Q.W.W.W.Q.Q.U.(.(.F.| v a > - + @ & , 0 U 6.s.{. X$X>X4X6X6X6XeXeXeXeXrXrXrXrXrXzXlXlXrXrXrXrXrXrXrXrXrXeXeXrXrX9X9X4X>X$X#X{.r.$.q 5 4 # + O - < 1 x ) | n.n.B.M.M.B.B.V.b.V.V.G.b.G.B.B.B.V.v.v.V.V.C.K.K.K.K.K.K.K.K.K.K.K.J.H.H.M.] S S ) / V S S V ) L 5 + + 8 $.r.r.e.e.w.e.r.t.w.e.e.t.r.! * * ~ r.'.p.p.'.].].].s.].].s.].[.].].s.s.s.].].].].s.[.].s.p.p.p.u.p.p.p.p.i.T + 5 #.>.>.6.+.8 & 5.vXNXNXBXBXFXPXPXPXPXPXPXPXPXPXPXPXPXPXPXPXPXPXPXPXPXPXPXPXPXPXPXPXPXPXPXPXPXPXPXPXPXPXPXPXPXPXPXPXPXPXPXPXPXPXPXPXPXPXPXPXPXPXPXPXPXPXPXPXPXPXPXPXPXPXPXPXPXPXPXPXPXPXPXPXPXPXPXPXPXPX",
"PXPXPXPXPXPXPXPXPXPXPXPXPXPXPXPXPXPXPXPXPXPXPXPXPXPXPXPXPXPXPXPXPXPXPXPXPXPXPXPXPXPXPXPXPXPXPXPXPXPXPXPXPXPXPXPXPXPXPXPXPXPXPXPXPXPXPXPXPXPXPXPXPXPXPXPXPXPXPXPXPXPXPXPXKXKXHXGXdX8 4 f.9X6XwXwX9X-X9 + O.:X5X2X2X2X2X2X2X2X2X5X2X-X{.[.[.[.].].].].[.[.[.[.[.s.p.f.f.f.[.'.p.s.s.*.: @ 0 I Y Y Y T I T T W U ! q + X & h E J / / C C C C C C D D F c.H.Y.Y.Y.Q.Q.Q.Q.Q.Q.E.Q.Q.Q.Q.Q.Q.Q.Q.Q.Q.Q.Q.Q.Q.Q.W.W.W.Q.(.(.P.^.| h > @ o o - < h #.].>X3X4X6X9XrXeXeXrXeXrXeX9XeXeXrX9X9X9X9X9X9X9X9X9X9X9X9X9X9X9X9X9X9X9XrXlXlXlXzXzXzXlXzXlXgX9X8X3X#Xw.L 0 , + o O - > h ) | M.N.V.V.V.V.V.G.G.m.G.S.S.S.S.G.b.V.V.C.K.K.K.K.K.I.K.K.K.K.K.K.H.H.J.J.;.S V ) ) S S / / J R H - + : +.r.i.w.e.e.t.p.w.e.e.t.i.0.+., & ~ r.p.p.p.].s.s.s.s.].s.].[.].].].].].].].].].].[.[.].].].].p.u.p.p.p.p.8.0 + 0 1.3.>.1.@.* & g.mXNXBXBXNXGXKXPXPXPXPXPXPXPXPXPXPXPXPXPXPXPXPXPXPXPXPXPXPXPXPXPXPXPXPXPXPXPXPXPXPXPXPXPXPXPXPXPXPXPXPXPXPXPXPXPXPXPXPXPXPXPXPXPXPXPXPXPXPXPXPXPXPXPXPXPXPXPXPXPXPXPXPXPXPXPXPXPXPXPX",
"PXPXPXPXPXPXPXPXPXPXPXPXPXPXPXPXPXPXPXPXPXPXPXPXPXPXPXPXPXPXPXPXPXPXPXPXPXPXPXPXPXPXPXPXPXPXPXPXPXPXPXPXPXPXPXPXPXPXPXPXPXPXPXPXPXPXPXPXPXPXPXPXPXPXPXPXPXPXPXPXPXPXPXKXKXHXHXvXr & *.8XrX1XwXrX5XO.+ q ;X5X:X:X2X2X2X2X2X:X2X5X-X|.[.[.].[.[.[.[.[.[.[.[.[.s.p.p.f.f.f.u.].[.d.%.: @ 8 Y T Y Y Y Y U U P W Y 8 X   : H J ) / / / / S C C C C F ' D.Y.Y.E.E.R.Q.Q.Q.Q.Q.Q.E.Q.Q.Q.Q.Q.Q.Q.Q.Q.Q.Q.Q.Q.Q.R.W.Q.U.P.<.Q h - O O + 5 r O.e.#X9XeXrXeXeXwXeXeXeXeXeX6X6X6X,X4X>X>X>X#X#X X|.{.{.{.{.{.`.{.{.{.{.{. X X X#X#X>X>X3X3X4X8X9X6XeXrXrXrXrXeX9X9XgX#X6.! 0 : o o O ; g ) ] M.B.B.b.b.V.b.V.G.b.b.b.G.V.V.V.C.K.K.I.I.K.K.K.K.K.K.I.K.K.K.L.H.D.D.[ _ _ ) ) ) / / / ) R > + @ w 0.i.t.e.e.e.t.e.e.e.e.w.i.&., * ! r.f.p.p.s.].s.].].].[.[.].].s.s.s.s.].].].[.[.].s.'.'.'.p.p.p.p.p.p.s.6.4 X r 6.2.:.,.h & 8 dXBXNXNXmXAXJXKXPXPXPXPXPXPXPXPXPXPXPXPXPXPXPXPXPXPXPXPXPXPXPXPXPXPXPXPXPXPXPXPXPXPXPXPXPXPXPXPXPXPXPXPXPXPXPXPXPXPXPXPXPXPXPXPXPXPXPXPXPXPXPXPXPXPXPXPXPXPXPXPXPXPXPXPXPXPXPXPXPXPX",
"PXPXPXPXPXPXPXPXPXPXPXPXPXPXPXPXPXPXPXPXPXPXPXPXPXPXPXPXPXPXPXPXPXPXPXPXPXPXPXPXPXPXPXPXPXPXPXPXPXPXPXPXPXPXPXPXPXPXPXPXPXPXPXPXPXPXPXPXPXPXPXPXPXPXPXPXPXPXPXPXPXPXPXKXKXHXAXy.X 0 -X9XwXwXwX9Xd.= 8 g.5X2X:X2X2X5X5X:X2X2X2X-X|.[.[.[.[.[.[.[.[.[.f.[.[.[.s.p.f.f.f.f.p.p.u.O.* + 9 I T K Y Y Y Y I T U Y 8     > J / V C C ( / V / C C A F l.U.).E.E.E.E.E.Q.Q.Q.Q.Q.Q.E.Q.Q.E.Q.Q.Q.Q.Q.W.!.W.E.Y.Y.).(.F.=.h > O o + 5 I 6.|.4X9XlX9XeXeXwXwXwXeXeXwX1X>X>X X X}.`.e.4.2.>.>.>.:.#.:.:.:.:.:.:.:.:.#.:.:.:.:.:.>.,.>.2.3.4.e.^.`.|. X>X>X4X9XrXlX9X9X9X9X9X>X[.*.0 &   O $ 5 H E | A.B.v.v.V.b.b.b.b.b.V.G.V.C.K.K.I.I.I.K.K.K.K.I.I.Y.K.K.J.K.K.K.J.A.] _ _ / / ( ( _ J R 5 + + 0 0.i.i.e.p.i.e.e.e.e.4.p.i.%.= * @.i.p.p.s.s.[.[.[.[.[.[.[.[.].].s.s.].].[.[.[.].s.p.p.p.p.p.p.p.p.p.p.i.O.X & Y :.>.3.,.8 + &.kXBXBXBXBXDXKXPXPXPXPXPXPXPXPXPXPXPXPXPXPXPXPXPXPXPXPXPXPXPXPXPXPXPXPXPXPXPXPXPXPXPXPXPXPXPXPXPXPXPXPXPXPXPXPXPXPXPXPXPXPXPXPXPXPXPXPXPXPXPXPXPXPXPXPXPXPXPXPXPXPXPXPXPXPXPXPXPXPX",
"PXPXPXPXPXPXPXPXPXPXPXPXPXPXPXPXPXPXPXPXPXPXPXPXPXPXPXPXPXPXPXPXPXPXPXPXPXPXPXPXPXPXPXPXPXPXPXPXPXPXPXPXPXPXPXPXPXPXPXPXPXPXPXPXPXPXPXPXPXPXPXPXPXPXPXPXPXPXPXPXPXPXPXKXHXDXsXX , [.9XrXeXeX9X#X0 & 0.5X2X2X2X2X2X5X2X2X2X5X:X{.p.p.].[.[.[.[.[.[.[.f.f.f.[.s.p.p.f.f.f.s.i...& + 0 T T I I U I Y U I ! Y =   o 5 J / / C S C C ( C D F A F M.Y.).E.E.E.E.E.E.Q.Q.Q.Q.Q.Q.Q.Q.Q.W.W.Q.Q.Q.Q.R.Q.E.(.(./.<.H < O o + , +.i.+X3X9XeXwXwXeX6XrXrXeX6X>XoX X`.^.w.q.2.:.>.:.=.>.>.>.:.:.:.:.:.:.:.:.:.:.:.:.:.:.>.>.>.>.:.:.:.:.:.=.:.:.=.:.#.,.q.e.].{.#X>X4X6X6XwXeXrXzX5X@X6.q * # o O - s ) ;.A.M.V.b.b.b.b.V.G.V.G.K.K.K.I.K.K.K.K.K.I.I.I.I.K.J.J.K.L.K.H.H.} ` / V _ C V V ) R 0 @   , *.i.p.i.r.t.t.p.e.e.w.i.i.&.4 + Y i.p.i.p.s.].].[.[.[.[.[.].[.].s.].].[.].[.].].].].].p.i.p.p.p.p.p.i.a.e + , ..,.>.>.o.> & g.nXCXNXBXNXDXKXPXPXPXPXPXPXPXPXPXPXPXPXPXPXPXPXPXPXPXPXPXPXPXPXPXPXPXPXPXPXPXPXPXPXPXPXPXPXPXPXPXPXPXPXPXPXPXPXPXPXPXPXPXPXPXPXPXPXPXPXPXPXPXPXPXPXPXPXPXPXPXPXPXPXPXPXPXPXPXPXPX",
"PXPXPXPXPXPXPXPXPXPXPXPXPXPXPXPXPXPXPXPXPXPXPXPXPXPXPXPXPXPXPXPXPXPXPXPXPXPXPXPXPXPXPXPXPXPXPXPXPXPXPXPXPXPXPXPXPXPXPXPXPXPXPXPXPXPXPXPXPXPXPXPXPXPXPXPXPXPXPXPXPXPXPXKXGXvXe @ *.8XrXeX6XuXfXT @ O.;X2X:X2X2X2X:X2X2X2X2X:X+X[.s.p.[.[.[.[.[.[.[.f.f.f.f.f.s.s.u.p.p.f.i.+.: @ 9 Y T U U I P L U Y I r *   o 6 R J V V C S S C C C D F [ H.Y.E.).Q.E.E.E.E.Q.Q.Q.Q.Q.Q.Q.Q.E.R.W.W.Q.W.W.W.E.Y.U.F.) h - @ $ 4 I r.#X4X1XeXeXeXeXwXwX1X1X>X X}.`.e.w.3.>.>.>.,.>.,.:.:.:.>.:.:.:.:.#.#.#.:.$.$.$.$.#.#.#.:.:.:.:.:.:.#.:.:.:.:.:.=.=.#.o.#.#.:.:.>.2.4.e.{.#X>X8X8X9XlXlX9X>X X6.0 , + O - < v | } A.B.V.b.b.G.b.G.L.K.I.I.K.K.K.I.K.K.K.I.K.K.K.K.T.L.K.K.J.J.S.] _ S ) S S V V E H : o * +.r.i.i.r.t.t.t.p.e.e.i.r.$.= $ T i.u.p.p.s.].].[.[.[.[.].s.[.].].].[.].[.].].].].].s.p.p.p.u.u.u.i.i.8., + 0 *.>.>.,.H : e hXMXAXBXBXAXJXPXPXPXPXPXPXPXPXPXPXPXPXPXPXPXPXPXPXPXPXPXPXPXPXPXPXPXPXPXPXPXPXPXPXPXPXPXPXPXPXPXPXPXPXPXPXPXPXPXPXPXPXPXPXPXPXPXPXPXPXPXPXPXPXPXPXPXPXPXPXPXPXPXPXPXPXPXPXPXPXPX",
"PXPXPXPXPXPXPXPXPXPXPXPXPXPXPXPXPXPXPXPXPXPXPXPXPXPXPXPXPXPXPXPXPXPXPXPXPXPXPXPXPXPXPXPXPXPXPXPXPXPXPXPXPXPXPXPXPXPXPXPXPXPXPXPXPXPXPXPXPXPXPXPXPXPXPXPXPXPXPXPXPXPXPXHXBXy.# 0 -XrXwXwX9XrXa.* 0 +X5X2X:X2X2X2X2X2X2X2X:X+X[.[.[.[.].].[.[.[.].].s.f.f.f.s.s.s.p.'.s.d.*., & 0 Y Y I I T T L U U T w = . O 6 J / V S S C C C C C C ' M.U.Y.Y.E.).Q.Q.W.Q.E.Q.Q.Q.W.E.E.).E.I.H.E.W.W.W.E.(.U.F.Q 6 $ + : 9 :.|.3X9XeXeXwXeXeXwX6X4X>X X`.^.4.2.3.,.:.,.,.,.,.>.:.:.$.$.:.:.:.:.:.:.:.>.>.>.>.>.>.>.>.>.>.>.>.>.>.>.>.:.>.>.>.:.:.:.:.:.:.#.#.=.:.#.#.#.:.$.,.8.r.|.#X3X9X9XuXzX9X>X|.,.0 : o @ > h | <.S.B.z.G.v.G.L.L.I.K.K.K.K.K.K.K.K.K.K.K.K.K.L.K.K.K.K.K.J.F.} _ S _ _ C S S J R , o * ~ r.i.t.e.p.p.i.i.e.e.p.t.%.: & T i.p.u.s.s.s.[.].].].s.p.].].s.].].].].].].].].].s.p.p.p.p.p.u.p.p.i.#.& # Y ,.:.2.,.0 # 5.kXCXMXMXBXDXJXPXPXKXPXPXPXPXPXPXPXPXPXPXPXPXPXPXPXPXPXPXPXPXPXPXPXPXPXPXPXPXPXPXPXPXPXPXPXPXPXPXPXPXPXPXPXPXPXPXPXPXPXPXPXPXPXPXPXPXPXPXPXPXPXPXPXPXPXPXPXPXPXPXPXPXPXPXPXPXPX",
"PXPXPXPXPXPXPXPXPXPXPXPXPXPXPXPXPXPXPXPXPXPXPXPXPXPXPXPXPXPXPXPXPXPXPXPXPXPXPXPXPXPXPXPXPXPXPXPXPXPXPXPXPXPXPXPXPXPXPXPXPXPXPXPXPXPXPXPXPXPXPXPXPXPXPXPXPXPXPXPXPXPXPXDXsX= 4 s.9XeXwXwX9X X8 * 0.:X2X2X2X2X2X2X2X2X5X2X#X[.s.s.].].].].[.[.].p.].s.f.f.s.s.s.p.p.p.s.*., & e U T Y Y Y U U U T Y q &   % 6 v b M V C S C C C A A [ D.U.Y.E.E.E.Q.Q.Q.Q.Q.Q.Q.Q.W.W.Q.).).E.K.N.Y.W.W.Q.U.<.b < - + 4 T w.-X6XeXeXeXeXrXwX1X,XoX}.'.q.4.4.2.>.>.>.:.$.$.$.:.:.:.:.#.:.>.>.>.2.3.4.q.w.e.e.^.t.'.'.'.'.'.'.'.'.'.'.^.t.e.e.e.w.q.7.7.6.,.>.:.:.=.:.:.$.$.#.#.^ #.#.:.>.w.[.#X>X9XeXrX9X8X>Xr.^ 5 o O - h ) ;.D.M.B.Z.T.T.K.K.L.L.K.K.K.K.K.K.K.K.K.K.K.K.K.K.K.K.J.H.H.D.[ C _ S S C C _ R 6 o # I r.p.u.e.u.r.i.e.u.u.p.i.$.: * +.i.'.p.s.s.s.].].].p.p.'.].p.].p.p.p.p.].].].].].].].p.p.p.'.p.p.i.r.Y X 8 $.>.>.>.+.4 = g.mXNXMXmXBXFXKXPXPXPXKXKXPXPXPXPXPXPXPXPXPXPXPXPXPXPXPXPXPXPXPXPXPXPXPXPXPXPXPXPXPXPXPXPXPXPXPXPXPXPXPXPXPXPXPXPXPXPXPXPXPXPXPXPXPXPXPXPXPXPXPXPXPXPXPXPXPXPXPXPXPXPXPXPXPXPX",
"PXPXPXPXPXPXPXPXPXPXPXPXPXPXPXPXPXPXPXPXPXPXPXPXPXPXPXPXPXPXPXPXPXPXPXPXPXPXPXPXPXPXPXPXPXPXPXPXPXPXPXPXPXPXPXPXPXPXPXPXPXPXPXPXPXPXPXPXPXPXPXPXPXPXPXPXPXPXPXPXPXPXJXvX .& ~ 8X9XeXwX9X2XI & O.:X2X2X:X2X2X2X2X5X2X5X-X{.s.s.s.s.s.].].[.[.].'.].s.f.f.p.p.f.f.f.i.*., & 0 Y P U I Y I U P Y ! e &   - 0 J v b M V V S C C F F [ H.(.Y.Y.).E.Q.Q.Q.Q.Q.Q.Q.Q.Q.W.Q.Q.).Q.R.C.Z.I.Y.(.<.R < + o : Q `.4X6XuXuXeXeXeXrX,XoX}.`.4.3.2.>.>.>.:.:.:.:.$.#.#.o.Q =.>.>.3.4.e.e.e.^.^.'.`.`.`.`.`.`.`.`.`.`.`.`.`.`.`.`.`.`.`.`.'.`.`.].].t.t.e.w.q.3.2.>.:.:.#.#.#.Q o.o.#.o.#.>.q.].#X3X9X9XgXgX8X+X6., o o : s _ A.M.Z.T.T.K.K.I.I.K.K.I.K.K.K.K.K.K.K.L.K.K.K.K.K.J.K.G.J.S.c.` D ) S C _ ) R 6 + + r a.i.u.u.t.p.p.p.t.p.p.i.*., : &.s.i.p.p.s.s.s.[.p.p.'.].'.].p.p.p.p.].].].].].].].].].].].p.p.i.s.0.8 + w ,.>.>.,.K & 8 kXBXNXBXmXNXJXKXPXKXPXKXPXPXPXPXPXPXPXPXPXPXPXPXPXPXPXPXPXPXPXPXPXPXPXPXPXPXPXPXPXPXPXPXPXPXPXPXPXPXPXPXPXPXPXPXPXPXPXPXPXPXPXPXPXPXPXPXPXPXPXPXPXPXPXPXPXPXPXPXPXPXPXPXPXPX",
"PXPXPXPXPXPXPXPXPXPXPXPXPXPXPXPXPXPXPXPXPXPXPXPXPXPXPXPXPXPXPXPXPXPXPXPXPXPXPXPXPXPXPXPXPXPXPXPXPXPXPXPXPXPXPXPXPXPXPXPXPXPXPXPXPXPXPXPXPXPXPXPXPXPXPXPXPXPXPXPXPXPXAXg.+ 8 #X6XeXwX9XgX6.+ 8 ;X2X2X:X:X2X2X2X2X5X2X:X|.f.[.f.s.'.'.].].[.[.].'.].s.f.].'.u.p.f.d.6., + 0 Y Y U U U I I Y Y ! e #   : l b v b V M V V S C A F M.U.Y.).E.Q.Q.Q.Q.Q.Q.Q.Q.Q.Q.Q.Q.Q.Q.E.W.W.R.H.Z.Y./.R > + o & @. X1XuXuXuXeXeXwX6X$X X`.4.4.2.>.,.,.,.:.:.$.:.#.#.#.o.=.>.3.q.e.e.^.^.`.^.^.^.^.^.^.^.`.`.^.^.^.`.`.`.`.`.`.`.`.`.`.`.`.`.`.`.`.`.`.`.`.`.`.`.^.^.e.w.q.>.:.#.o.o.#.o.o.o.o.Q #.*.,.'.#X4X9XlXlXlX-X0.4 o O - a | F.K.T.T.K.K.K.K.I.K.K.K.I.I.K.K.K.K.K.J.H.K.K.K.K.H.K.J.H.N.` ) S C C V ) E 0 +   e a.f.u.e.e.e.i.i.i.t.i.i.%.* , 5.s.s.].].].s.s.p.p.'.].].'.p.p.p.'.].].].].].].].'.'.'.p.p.p.p.p.i.+.& * #.,.:.,.#.5 X 5.nXNXNXmXmXDXKXPXPXPXPXPXPXPXPXPXPXPXPXPXPXPXPXPXPXPXPXPXPXPXPXPXPXPXPXPXPXPXPXPXPXPXPXPXPXPXPXPXPXPXPXPXPXPXPXPXPXPXPXPXPXPXPXPXPXPXPXPXPXPXPXPXPXPXPXPXPXPXPXPXPXPXPXPXPX",
"PXPXPXPXPXPXPXPXPXPXPXPXPXPXPXPXPXPXPXPXPXPXPXPXPXPXPXPXPXPXPXPXPXPXPXPXPXPXPXPXPXPXPXPXPXPXPXPXPXPXPXPXPXPXPXPXPXPXPXPXPXPXPXPXPXPXPXPXPXPXPXPXPXPXPXPXPXPXPXPXPXGXkX8 & 8.gXwXeX6X9X+X8 % a.:X2X2X2X2X2X5X2X2X2X:X+Xs.s.s.p.].].].'.].[.[.].].].p.p.u.'.p.f.f.6.8 + 8 I Y Y I K U I Y Y Y q + X : H b m b b V V V V S F ' D.U.Y.Q.Q.W.W.Q.Q.Q.Q.Q.).).!.Q.Q.Q.Q.Q.Q.E.E.Y.J.U.;.y - @ , +.#X8XuXuXeXrX9X1X,X X`.e.4.3.>.>.:.$.$.#.#.=.=.#.Q Q :.>.4.4.e.e.^.^.^.^.^.`.^.^.^.`.`.`.`.^.`.`.`.`.^.`.`.`.`.`.`.`.`.`.`.`.`.`.`.`.`.`.`.`.`.`.`.`.`.`.].].'.t.q.2.>.:.#.#.o.o.#.+.+.+.#.:.4.}.>X6XuXzXgX3Xq.8 + O - h <.F.L.K.T.T.T.T.T.K.K.K.K.H.H.K.K.K.K.K.K.K.K.K.K.K.K.K.G.D.} _ C D D D S J 6 # + q 0.p.u.u.p.i.i.t.t.p.i.i.O.* 4 6.s.i.'.].s.d.p.p.'.].].'.p.p.p.'.].].].].].].].].].].].p.p.p.p.p.i.0 + 8 ,.:.>.>.K & + sXmXBXNXmXNXGXKXPXPXPXPXPXPXPXPXPXPXPXPXPXPXPXPXPXPXPXPXPXPXPXPXPXPXPXPXPXPXPXPXPXPXPXPXPXPXPXPXPXPXPXPXPXPXPXPXPXPXPXPXPXPXPXPXPXPXPXPXPXPXPXPXPXPXPXPXPXPXPXPXPXPXPXPXPX",
"PXPXPXPXPXPXPXPXPXPXPXPXPXPXPXPXPXPXPXPXPXPXPXPXPXPXPXPXPXPXPXPXPXPXPXPXPXPXPXPXPXPXPXPXPXPXPXPXPXPXPXPXPXPXPXPXPXPXPXPXPXPXPXPXPXPXPXPXPXPXPXPXPXPXPXPXPXPXPXPXJXSX5.& U 3X9XwXrX9X3XT + 5.:X2X2X<X2X2X5X2X2X5X2X+Xf.s.].s.p.].'.].].].[.].].].].s.f.'.'.'.p.0.0 + 8 I Y I I U K T T Y ! 8 +   , H J b V M V V V M C D ' D.(.Y.E.W.Q.!.!.W.W.W.Q.Q.).).).Q.Q.Q.Q.Q.Q.Y.(./.<.h - O > P +XgXuXuXuXeX6X8X>X}.u.4.4.3.>.>.:.:.$.#.#.#.#.#.o.:.>.3.e.e.e.e.^.^.^.^.`.`.`.^.^.^.`.`.^.^.^.^.^.^.`.^.^.`.`.`.`.`.`.`.`.`.`.`.`.`.`.`.`.`.`.`.`.`.`.}.`.`.`.`.`.`.`.'.'.w.4.2.:.:.#.#.#.W ..#.o.o.2.'. X6X9XzXlX5X6.0 @ O > R <.P.H.K.T.T.T.T.T.K.K.K.K.K.L.L.L.L.K.K.L.K.K.K.K.K.K.K.H.c.` D C C C ) E 0 + + 0 0.f.p.i.p.p.p.t.e.u.f.i.Y $ 8 6.p.p.'.p.s.p.p.'.].].'.p.p.p.'.].].'.].'.].].].].].s.p.p.p.p.p.p.*.: + T ,.:.>.#.8 X e kXBXMXMXMXDXJXKXPXPXPXPXPXPXPXPXPXPXPXPXPXPXPXPXPXPXPXPXPXPXPXPXPXPXPXPXPXPXPXPXPXPXPXPXPXPXPXPXPXPXPXPXPXPXPXPXPXPXPXPXPXPXPXPXPXPXPXPXPXPXPXPXPXPXPXPXPXPXPXPXPXPXPXPX",
"PXPXPXPXPXPXPXPXPXPXPXPXPXPXPXPXPXPXPXPXPXPXPXPXPXPXPXPXPXPXPXPXPXPXPXPXPXPXPXPXPXPXPXPXPXPXPXPXPXPXPXPXPXPXPXPXPXPXPXPXPXPXPXPXPXPXPXPXPXPXPXPXPXPXPXPXPXPXPXPXFXhX= 5 |.9XeXwXeX9Xw.: 8 ;X2X2X<X2X2X:X2X2X2X2X-X[.f.s.].s.p.].p.].].].].].].].].f.p.'.`.].0.w + 4 I ! I I I I U T Y ! 8 X   4 l v V V b M V V V C A c.J.(.Y.E.Q.W.W.!.W.W.W.W.W.Q.Q.Q.Q.Q.E.E.E.E.Q.Y.P.J > O $ U {.8XzXzXuXuX9X4XoX}.P.3.3.3.,.,.:.#.#.#.#.^ ^ #.>.2.4.q.e.^.^.^.`.`.^.^.^.^.^.^.^.^.`.`.`.'.'.'.'.t.'.'.p.t.t.'.'.'.'.'.`.`.].].].].`.`.`.`.`.`.`.`.`.}.`.`.`.'.`.`.`.`.`.`.`.[.'.'.w.q.>.:.=.o.+.+.....+.#.:.4.}.>XgXzXgX:X6.0 @ O < E F.I.K.K.K.T.T.K.K.K.K.T.K.K.K.K.K.K.K.J.J.K.K.K.K.K.K.H.A.{ S S C V ) b 0 + + 8 0.f.i.i.p.p.p.p.u.u.i.0.I + 0 7.'.'.p.p.p.p.'.].].'.p.p.p.p.].p.t.p.p.].].].].].s.p.p.'.u.'.p.i.Y + , +.>.=.:.T , % y.nXMXMXBXNXDXPXPXPXPXPXPXPXPXPXPXPXPXPXPXPXPXPXPXPXPXPXPXPXPXPXPXPXPXPXPXPXPXPXPXPXPXPXPXPXPXPXPXPXPXPXPXPXPXPXPXPXPXPXPXPXPXPXPXPXPXPXPXPXPXPXPXPXPXPXPXPXPXPXPXPXPXPX",
"PXPXPXPXPXPXPXPXPXPXPXPXPXPXPXPXPXPXPXPXPXPXPXPXPXPXPXPXPXPXPXPXPXPXPXPXPXPXPXPXPXPXPXPXPXPXPXPXPXPXPXPXPXPXPXPXPXPXPXPXPXPXPXPXPXPXPXPXPXPXPXPXPXPXPXPXPXPXPXHXBXe & +.8X9XwXwX9X-X9 , 0.5X2X2X2X2X2X:X:X2X2X-X{.s.s.].].].].].].].].].].].].].'.u.p.'.[.i.Y & , w Y Y I I U U U T Y 8 + X < J b V M V V V M M V C [ Y.E.E.Q.Q.Q.W.W.Q.Q.Q.Q.Q.W.R.Q.I.Q.).E.W.W.Y.(.| a - - 0 d.3XzXzXuXrXrX1X X`.4.4.4.2.>.,.,.$.#.^ o.Q Q :.>.q.q.e.^.^.^.^.^.^.P.P.P.`.^.'.p.p.w.3.,.$.W U K K K H H H q q q q H K K K U W +.*.6.r.s.[.[.[.].`.`.`.`.`.`.`.`.`.`.}.`.`.`.`.].`.{.{.[.[.'.e.q.>.$.$.+.+.+.^ +.#.#.3.[.>XzXgXgX#X,.> O - h | D.H.T.T.T.K.K.K.K.K.K.K.K.K.K.K.J.J.J.J.J.J.K.K.K.J.H.D.[ C C M S V J 0 + X 8 i.i.u.u.e.u.u.u.u.i.s.9.e + 0 8.p.p.p.u.p.'.].].[.s.s.s.s.s.p.t.s.s.].].p.p.p.p.p.p.p.p.p.p.s.8.5 + q *.=.o.:.K @ 8 hXmXBXMXmXAXJXPXPXPXPXPXPXPXPXPXPXPXPXPXPXPXPXPXPXPXPXPXPXPXPXPXPXPXPXPXPXPXPXPXPXPXPXPXPXPXPXPXPXPXPXPXPXPXPXPXPXPXPXPXPXPXPXPXPXPXPXPXPXPXPXPXPXPXPXPXPXPXPXPXPXPXPX",
"PXPXPXPXPXPXPXPXPXPXPXPXPXPXPXPXPXPXPXPXPXPXPXPXPXPXPXPXPXPXPXPXPXPXPXPXPXPXPXPXPXPXPXPXPXPXPXPXPXPXPXPXPXPXPXPXPXPXPXPXPXPXPXPXPXPXPXPXPXPXPXPXPXPXPXPXPXKXKXDXg.& 8  X9X6X6XrX8X+.+ r :X2X:X2X2X2X2X2X2X2X-X{.[.s.].s.].].].[.[.[.[.[.].].'.].].'.'.].f.+.* * q Y I Y U T U L Y Y 8 +   5 E J V M M V V C C V C [ Y.).Q.Q.Q.W.Q.W.W.Q.!.!.Q.Q.Q.W.R.Q.Q.Q.Q.Q.U.P.v ; @ : *.2XgXzXzXrXrX1X X^.4.4.3.2.3.>.>.:.#.^ ^ W Q :.3.q.e.^.e.e.e.^.e.e.e.e.u.p.t.7.$.L 0 > > : - @ @ O o o o o o o o o o o o o + + + + + @ : , > 5 0 h P ,.r.[.[.].`.`.`.`.`.`.`.`.}.}.`.`.}.}.`.{.{.{.[.p.w.3.:.$.+.+.+.+.+.o.#.:.'.8XgXzXgX#XU o O - v F.H.K.K.T.T.T.T.K.K.K.K.K.K.K.K.L.L.L.J.J.K.L.K.J.H.H.D.c.F S C V ) E 0 o   0 r.u.u.e.u.u.u.u.t.p.p.6.0 + Y i.s.p.u.'.'.].[.[.s.s.s.s.s.s.s.].].].p.p.p.p.p.p.p.p.i.p.p.p.i.+.# & Y #.o.:...5 + 5.vXNXNXNXBXDXKXKXPXPXPXPXPXPXPXPXPXPXPXPXPXPXPXPXPXPXPXPXPXPXPXPXPXPXPXPXPXPXPXPXPXPXPXPXPXPXPXPXPXPXPXPXPXPXPXPXPXPXPXPXPXPXPXPXPXPXPXPXPXPXPXPXPXPXPXPXPXPXPXPXPXPX",
"PXPXPXPXPXPXPXPXPXPXPXPXPXPXPXPXPXPXPXPXPXPXPXPXPXPXPXPXPXPXPXPXPXPXPXPXPXPXPXPXPXPXPXPXPXPXPXPXPXPXPXPXPXPXPXPXPXPXPXPXPXPXPXPXPXPXPXPXPXPXPXPXPXPXPXPXPXKXHXkX8 * $.gX6X1XeXjX+X, 4 d.2X-X:X:X2X2X2X2X2X2X X[.p.s.].p.].[.].[.[.].].'.'.'.'.].].'.[.p.6., @ q U U I U U T U Y Y e %   6 J J ) V V V C V V V V ' U.).E.R.Q.Q.E.Q.Q.W.E.Q.Q.W.W.Q.Q.).W.!.Q.U.U.=.1 - @ 0 +XgXgXzXzX6X4X X'.4.4.4.4.2.,.>.:.#.Q W W Q :.4.4.e.e.e.^.e.4.4.4.e.e.w.,.! 8 $ + o o o o o o O O O - - - > > > > > > > > > > - - - @ @ O O O O O O O O @ @ & 8 O.0.p.].].`.`.`.`.}.`.`.`.}.`.`.}.{.{.{.{.{.].e.4.:.o.o.o...#.#.o...:.[.3XgXgXfX9.5 @ O 6 7.P.H.K.T.T.T.).K.K.K.K.K.L.L.K.K.K.J.J.K.L.K.K.J.J.H.L.M.` C C V S J 0 O   q a.f.'.u.u.u.u.u.i.i.i.6., & O.i.'.u.p.'.].[.[.s.].].].].s.p.s.].s.p.p.p.p.p.p.p.p.i.p.p.p.i.r.w o 8 +.o.:.:.U * 4 sXmXNXNXBXAXGXKXPXPXPXPXPXPXPXPXPXPXPXPXPXPXPXPXPXPXPXPXPXPXPXPXPXPXPXPXPXPXPXPXPXPXPXPXPXPXPXPXPXPXPXPXPXPXPXPXPXPXPXPXPXPXPXPXPXPXPXPXPXPXPXPXPXPXPXPXPXPXPXPXPXPX",
"PXPXPXPXPXPXPXPXPXPXPXPXPXPXPXPXPXPXPXPXPXPXPXPXPXPXPXPXPXPXPXPXPXPXPXPXPXPXPXPXPXPXPXPXPXPXPXPXPXPXPXPXPXPXPXPXPXPXPXPXPXPXPXPXPXPXPXPXPXPXPXPXPXPXPXPXKXHXAXy.& 0 3X9X6X1XeXfXO.+ O.:X2X:X:X:X2X2X2X2X2X-X[.f.[.s.].s.].[.[.[.[.].'.'.'.p.'.].].'.].1.8 + 8 U U U U U U T T r e % . 3 J S V b V V C C C C C ' U.(.E.).R.Y.E.E.Q.Q.W.Q.!.Q.Q.Q.Q.Q.!.W.W.Y.P.E - + : *.5XzXzXuX6X1XoX`.4.e.e.4.3.>.:.$.#.W W W o.:.3.e.e.e.e.e.e.^.e.w.7.$.K 5 @ + X   o @ @ : > < 6 h H J E E ) ) ) ) ) ) ) ) ) ) ) ) ) E E E E R l h a 6 < > - - @ + + @ @ - 6 ~ 6.r.t.].`.}.`.`.`.`.}.}.}.}.`.}.}.{.}.{.'.4.:.:.#.#.#...#.Q Q >. X8XgXjX:XP - O @ E <.H.T.T.T.L.K.K.K.K.L.L.L.L.L.L.J.J.K.K.L.L.J.J.K.L.J.A.` A C V ) J 6 o X r r.'.u.u.u.u.u.u.i.'.i.&.= 4 1.p.p.p.p.].[.[.s.].].].s.s.s.s.p.p.p.p.p.p.p.p.p.p.p.p.p.p.p.s.6.: @ Y #.:.:.*.0 + 5.vXAXNXBXBXDXKXPXPXPXPXPXPXPXPXPXPXPXPXPXPXPXPXPXPXPXPXPXPXPXPXPXPXPXPXPXPXPXPXPXPXPXPXPXPXPXPXPXPXPXPXPXPXPXPXPXPXPXPXPXPXPXPXPXPXPXPXPXPXPXPXPXPXPXPXPXPXPXPXPXPX",
"PXPXPXPXPXPXPXPXPXPXPXPXPXPXPXPXPXPXPXPXPXPXPXPXPXPXPXPXPXPXPXPXPXPXPXPXPXPXPXPXPXPXPXPXPXPXPXPXPXPXPXPXPXPXPXPXPXPXPXPXPXPXPXPXPXPXPXPXPXPXPXPXPXPXPXKXKXGXhXe : r.9X6X1X6X9Xd.* 8 g.5X<X<X:X:X:X:X2X5X-X|.f.[.[.[.[.[.].].[.].[.[.'.].].p.].].[.s.8.9 X 8 I U U U U L U I Y q #   4 R b N C V V V V D C A l.U.Y.).Q.Q.Q.R.I.Q.W.E.W.Q.!.Q.Q.W.Q.W.R.Q.U.<.y - : U +XcXcXzXeX,X X`.4.e.e.q.3.:.:.#.#.W ^ W #.>.3.q.q.e.e.e.e.q.3.=.L 0 @ o o o + @ > 6 h h J E ) ) / _ _ _ _ ` ` ` ` ` ` ` _ _ ` ` ` ` _ S S S S S _ _ ) ) ) E J h h a 6 < - + o o O : 0 T *.8.[.`.{.{.{.{.`.{.}.`.}.}.}.}.{.{.`.e.2.:.$.#.#.#.o.Q Q q. X9XzX3Xr.0 O O 1 ] H.K.K.K.K.K.K.K.L.L.L.K.K.L.L.J.J.J.K.L.J.K.K.T.K.H.S.' C C C S b 6 # + I i.u.u.u.u.u.u.i.u.p.a.! & 8 6.s.s.s.p.].[.[.].[.s.s.s.s.].s.s.p.p.p.'.p.i.p.p.p.p.p.p.p.p.i.U + 5 +.o.#.,.~ * * ;XmXNXNXBXNXGXPXPXPXPXPXPXPXPXPXPXPXPXPXPXPXPXPXPXPXPXPXPXPXPXPXPXPXPXPXPXPXPXPXPXPXPXPXPXPXPXPXPXPXPXPXPXPXPXPXPXPXPXPXPXPXPXPXPXPXPXPXPXPXPXPXPXPXPXPXPXPXPXPXPX",
"PXPXPXPXPXPXPXPXPXPXPXPXPXPXPXPXPXPXPXPXPXPXPXPXPXPXPXPXPXPXPXPXPXPXPXPXPXPXPXPXPXPXPXPXPXPXPXPXPXPXPXPXPXPXPXPXPXPXPXPXPXPXPXPXPXPXPXPXPXPXPXPXPXPXPXPXKXmXy.* 9 gX6XwXrX9X2Xq + 6.:X2X2X:X2X2X2X2X2X2X|.f.p.p.[.].s.].'.].[.].].].'.].].'.].s.s.r.K + 4 r Y Y I U U L U Y q *   - H J V V V V M C S C A c.Y.(.Y.Q.Q.Q.E.E.Y.I.E.E.W.Q.Q.Q.Q.!.!.Q.U.P.J > - 5 8.5XcXzXzX1XoX}.P.4.e.t.q.>.$...W W W ^ #.:.3.7.q.4.4.q.r.6.+.q 5 @ O o o - > 6 h l b ) ) ) _ _ _ _ D D F F F ` ` ` ` F F ` ` ` ` ` ` ` F F F F F F F F D D S S ) ) ) ) / J J h 0 6 - @ O O @ 5 I +.r.{.{.{.{.{.}.}.}.}.}.}.{.{.{.{.].w.2.>.:.#.#.o.Q W o.u.>X9X8X#Xo.: O ; J F.H.Z.K.K.J.K.K.L.L.L.K.L.J.J.J.J.L.L.K.K.K.K.K.H.K.N.[ D C C S J 6 o @ Y i.p.p.i.p.i.i.u.p.i.r.I + r 0.s.s.p.].[.].].].s.s.s.s.].s.s.p.p.p.p.p.i.p.p.s.p.p.p.'.'.p.7.5 & K $.#.:.*.0 + r vXNXNXBXBXAXPXPXPXPXPXPXPXPXPXPXPXPXPXPXPXPXPXPXPXPXPXPXPXPXPXPXPXPXPXPXPXPXPXPXPXPXPXPXPXPXPXPXPXPXPXPXPXPXPXPXPXPXPXPXPXPXPXPXPXPXPXPXPXPXPXPXPXPXPXPXPXPXPXPX",
"PXPXPXPXPXPXPXPXPXPXPXPXPXPXPXPXPXPXPXPXPXPXPXPXPXPXPXPXPXPXPXPXPXPXPXPXPXPXPXPXPXPXPXPXPXPXPXPXPXPXPXPXPXPXPXPXPXPXPXPXPXPXPXPXPXPXPXPXPXPXPXPXPXPXPXPXFXhX8 3 f.gX6XwX9XgX0.+ w ;X2X:X:X2X2X2X2X2X:X-Xf.f.f.p.p.s.s.].p.].[.].].].'.'.'.p.].[.s.@.& * r ! Y Y Y U U U Y w & . $ H ) C V V N N C C C F l.J.Y.Y.Q.E.!.W.E.E.Q.H.I.E.W.W.W.Q.!.Q.!.).<.h : + 0 |.gXzXuX9X>X`.u.u.u.p.r.,.:.Q ......W #.$.,.2.3.q.q.q.q.>.w , @ o # # $ 6 H R J ) _ _ S _ S C C F ` _ D D ` D ` ` ` ` F D D D D D D D _ _ ` D F _ D _ ` ` _ _ _ _ _ _ _ _ _ _ / / / J R J 6 > - $ O + : 0 $.].[.{.}.}.}.}.}.{.{.{.{.{.{.{.'.e.>.:.#.$.#.#.+...=.}.4XgX8Xw.6 O - g <.U.K.J.J.J.J.K.L.L.K.K.J.K.L.L.L.L.L.K.K.K.K.K.H.H.D.} _ C C S v > o & +.s.s.i.i.i.i.i.p.p.p.6.8 % @.i.s.p.s.].s.s.s.s.s.s.s.].s.s.p.p.p.'.p.i.p.p.p.p.p.p.].t.'.i.Y & 5 ..:.#.:.T : + h.mXNXNXmXBXFXPXPXPXPXPXPXPXPXPXPXPXPXPXPXPXPXPXPXPXPXPXPXPXPXPXPXPXPXPXPXPXPXPXPXPXPXPXPXPXPXPXPXPXPXPXPXPXPXPXPXPXPXPXPXPXPXPXPXPXPXPXPXPXPXPXPXPXPXPXPXPXPXPX",
"PXPXPXPXPXPXPXPXPXPXPXPXPXPXPXPXPXPXPXPXPXPXPXPXPXPXPXPXPXPXPXPXPXPXPXPXPXPXPXPXPXPXPXPXPXPXPXPXPXPXPXPXPXPXPXPXPXPXPXPXPXPXPXPXPXPXPXPXPXPXPXPXPXKXHXPXBX5.& I 8X9X1X6XgX-X4 + a.5X2X2X5X2X:X:X2X:X-X|.f.[.[.[.[.].].].].p.s.].].p.p.p.].'.'.s.6.4 + q Y I T U U L U U K *   @ H ) V V N C D M C C C F B.I.E.Q.E.E.W.W.E.E.Q.E.Z.Y.Y.Q.Q.!.Q.).(.| 4 @ > W 8XzXzXuX<X}.`.u.u.'.u.3.#.+.^ Q O.+.+.o.:.:.3.q.3.r.6.+.5 @ X   @ > 6 H R S _ _ S D C D D _ ( ` A A F F A ` ` F ` ` ` ` ` ` ` ` F F F F F F F F F F F F F F D _ _ _ ` _ D _ _ _ D D D ` ` _ _ ) J g < - O O o : ! 0.f.[.{.{.}.{.{.{.}.}.}.{.{.|.].3.>.:.:.$.$.+.W E w.>X8X6X XK : - 1 q.H.K.K.T.H.J.J.H.K.K.H.K.L.L.K.K.K.K.K.K.K.K.K.H.H.H.c.A V C / v > X @ *.i.p.p.i.i.p.u.t.t.s.*.* : *.s.p.'.p.p.i.p.p.s.].].].].].].].'.p.p.p.p.p.p.p.p.s.s.p.u.p.8.8 + w *.=.=.$.q X 4 kXmXBXMXmXAXKXKXPXPXPXPXPXPXPXPXPXPXPXPXPXPXPXPXPXPXPXPXPXPXPXPXPXPXPXPXPXPXPXPXPXPXPXPXPXPXPXPXPXPXPXPXPXPXPXPXPXPXPXPXPXPXPXPXPXPXPXPXPXPXPXPXPXPXPXPXPXPXPX",
"PXPXPXPXPXPXPXPXPXPXPXPXPXPXPXPXPXPXPXPXPXPXPXPXPXPXPXPXPXPXPXPXPXPXPXPXPXPXPXPXPXPXPXPXPXPXPXPXPXPXPXPXPXPXPXPXPXPXPXPXPXPXPXPXPXPXPXPXPXPXPXPXPXKXKXJXhX= , +X9X6X1X9XgX&.+ Y :X2X2X2X5X2X:X:X2X:X|.s.[.].].].].].].].].].s.p.s.].[.p.].[.[.9.0 + 0 Y Y I U T L U U Y 4   $ H E ) V N C M C C V C F ' M.I.Q.Q.Q.E.W.W.Q.W.W.Q.E.Z.Y.E.W.Q.(.^.) - + , w.jXzXzX9X X`.'.'.'.'.4.:.o.#.^ ^ ^ W W o.=.:.3.w.q.,.K : o   O - < l J ) ) ) S _ _ _ ` ` D D ` ` ` ( ( ` D F ` F F F _ ` _ ` _ _ _ _ ` ` ` _ _ _ _ _ _ _ _ _ _ D D D _ _ _ _ _ _ _ _ ` F ` ` ` ` _ ) ) ) E h < - o   + 0 6.s.|.}.{.{.`.`.`.}.{.{. X{.{.t.2.:.:.:.$.#.Q R Q |.4XgX>X#.- o - _ P.H.K.K.K.L.G.K.K.K.K.L.L.K.K.K.K.K.K.K.K.K.J.J.L.J.c.C C / J H : o : 6.s.i.i.i.u.u.t.t.i.i.O.@ 8 8.s.s.p.p.p.p.s.].].].].].].].].'.p.p.p.p.'.p.p.p.s.s.p.u.p.d.+.+ , ^ #.=.:.! * + a.BXBXNXBXNXDXKXPXPXPXPXPXPXPXPXPXPXPXPXPXPXPXPXPXPXPXPXPXPXPXPXPXPXPXPXPXPXPXPXPXPXPXPXPXPXPXPXPXPXPXPXPXPXPXPXPXPXPXPXPXPXPXPXPXPXPXPXPXPXPXPXPXPXPXPXPXPXPX",
"PXPXPXPXPXPXPXPXPXPXPXPXPXPXPXPXPXPXPXPXPXPXPXPXPXPXPXPXPXPXPXPXPXPXPXPXPXPXPXPXPXPXPXPXPXPXPXPXPXPXPXPXPXPXPXPXPXPXPXPXPXPXPXPXPXPXPXPXPXPXPXKXKXKXHXAX5.* +.5X9X1X1X9X#X4 = d.fX5X:X:X2X2X2X2X:X+Xf.s.s.].].].].].].p.[.[.s.p.p.[.[.].].[.i.Y # 4 I Y Y T U U L P ! 8   + h J ) V V V C / C C C [ D.G M.U.Q.Q.Q.Q.W.W.Q.W.W.W.!.I.Z.K.E.U.F.l - O h +XjXjXzX<X}.'.`.`.'.e.>.#.W +.^ W ^ ^ Q Q =.2.w.8.+.q * o O - < h z S S D F D D S D _ _ D D F F F _ _ _ _ _ _ _ _ ` ` _ D _ D ] D D D _ _ _ _ _ _ _ _ _ _ _ _ _ _ S D _ D D _ _ _ _ _ _ ` ` F ` ` ` _ _ _ _ ` _ ) v 0 > + X + 0 +.r.{.{.{.`.`.`.`.`.{.{.{.|.[.w.>.=.:.:.$.Q R L e.>X9X>X3.> + - J F.U.L.T.T.K.H.K.H.K.L.L.K.K.K.K.K.K.K.K.K.K.L.L.L.H.c.C V V J h : o 5 0.s.i.i.u.u.t.t.t.p.r.q @ I i.s.i.i.s.p.].].].].].].].].].].p.p.p.p.p.p.p.'.p.p.p.p.p.s.0.8 + q *.o.:.#.q   8 kXBXBXmXBXAXHXPXPXPXPXPXPXPXPXPXPXPXPXPXPXPXPXPXPXPXPXPXPXPXPXPXPXPXPXPXPXPXPXPXPXPXPXPXPXPXPXPXPXPXPXPXPXPXPXPXPXPXPXPXPXPXPXPXPXPXPXPXPXPXPXPXPXPXPXPXPXPX",
"PXPXPXPXPXPXPXPXPXPXPXPXPXPXPXPXPXPXPXPXPXPXPXPXPXPXPXPXPXPXPXPXPXPXPXPXPXPXPXPXPXPXPXPXPXPXPXPXPXPXPXPXPXPXPXPXPXPXPXPXPXPXPXPXPXPXPXPXPXPXHXPXKXKXGXhX4 5 |.9X6X1X6X8X*.* ! :X5X:X:X2X2X2X2X:X-X{.p.s.].'.].].'.].].p.[.[.].s.].].'.'.f.d.&.& * w Y Y U I T T L T q X + 6 b V M V V V C / C C F D.H.l.c.I.Q.Q.Q.Q.W.Q.Q.Q.W.!.!.).I.V.H.<.1 @ @ T -XzXzX9X>X}.'.'.[.'.q.:.Q W ^ ^ W W W ^ o.:.7.8.+.0 * X o - 1 v ) ) S D F F F D D D D _ ` ` ` ` F F D _ _ _ _ S D D D _ D D F F F F F F F F F F F F F D D D D D D D D D D D D D C _ _ _ ` ` ` ` F F ` ` ` ` ` F F _ _ ) J h 6 @ o + 5 T r.[.{.`.`.`.`.}.{. X{.{.{.u.4.=.:.:.:.#.W L >. X4X4Xp.0 + - h <.J.T.T.J.K.K.K.K.U.L.L.L.L.L.L.K.K.K.K.K.K.K.J.U.D.c.A M V b 0 - o q 0.i.i.e.e.p.t.p.p.i.0.8 * &.a.s.p.p.p.p.].].].].].].].].].p.p.p.p.p.p.p.p.p.p.p.p.p.s.i.O.@ 4 ^ o.o.:.~ @ # g.nXBXNXBXNXDXKXPXPXPXPXPXPXPXPXPXPXPXPXPXPXPXPXPXPXPXPXPXPXPXPXPXPXPXPXPXPXPXPXPXPXPXPXPXPXPXPXPXPXPXPXPXPXPXPXPXPXPXPXPXPXPXPXPXPXPXPXPXPXPXPXPXPXPXPXPXPX",
"PXPXPXPXPXPXPXPXPXPXPXPXPXPXPXPXPXPXPXPXPXPXPXPXPXPXPXPXPXPXPXPXPXPXPXPXPXPXPXPXPXPXPXPXPXPXPXPXPXPXPXPXPXPXPXPXPXPXPXPXPXPXPXPXPXPXPXPXPXPXPXPXHXHXBXO.* W 8X9X6X6X9X+X8 5 d.5X2X2X5X2X2X2X2X-X X[.[.s.s.p.].].].].].p.].[.[.[.[.].'.'.f.0.4 + q I U T T U U T Y 0 + o 5 J V C V V V V C / C C N.I.U.l.l.I.Q.Q.Q.Q.W.W.Q.W.Q.Q.!.Q.Y.P.) 1 O : &.5XzXzX8X-X`.`.[.p.t.3.#.W W W ^ ^ W W W #.6.0.&.q &     - 0 H J _ _ C D D F ` _ _ _ ` _ D D _ ` ` F F D F D C C D F D F ` [ c.B.N.H.H.H.H.H.U.H.H.U.U.U.H.H.H.H.Z.Z.N.;.[ G F F F F F F ` F F ` F D F F F ` ` F D D F F ` ` ` ) v 6 @ o # > L w.[.{.{.`.{.{.{.{.{.}.{.`.4.2.:.:.,.*.@.L E }.4X4X XK @ - a <.J.J.K.K.K.K.K.L.L.L.L.L.L.L.K.K.K.K.L.K.K.H.H.H.H.B.A V C J 6 O @ Y r.i.e.p.p.p.p.p.p.a.O.* 8 6.d.p.p.p.s.].].].].'.].].].].].].].].p.'.p.p.p.i.p.p.p.p.i.8.0 O q ..o.=.:.0 + e kXBXmXNXBXAXJXPXPXPXPXPXPXPXPXPXPXPXPXPXPXPXPXPXPXPXPXPXPXPXPXPXPXPXPXPXPXPXPXPXPXPXPXPXPXPXPXPXPXPXPXPXPXPXPXPXPXPXPXPXPXPXPXPXPXPXPXPXPXPXPXPXPXPXPXPXPX",
"PXPXPXPXPXPXPXPXPXPXPXPXPXPXPXPXPXPXPXPXPXPXPXPXPXPXPXPXPXPXPXPXPXPXPXPXPXPXPXPXPXPXPXPXPXPXPXPXPXPXPXPXPXPXPXPXPXPXPXPXPXPXPXPXPXPXPXPXPXPXPXPXHXJXdX4 , [.9X6X6X9X8X&.$ O.2X2X:X2X2X2X2X2X2X#X[.[.].].].p.].].].].].p.s.].].[.[.].].s.a.q + 5 I U U U U T U Y q &   > J / C C C C N C C C C M.U.I.I.N.l.H.Q.Q.Q.Q.Q.W.W.W.W.Q.Q.(.(.=.> o , i.gXzXuX4X X`.`.`.[.w.>.o.W W W T W W W W ,.6.&.q &   o - 6 v ) ) _ C ` ` _ _ C C _ _ _ ` _ D D _ _ D D C F F G l.l.N.Z.H.U.Y.Y.).).).).).).).)..XQ..X.X.X.X.XQ.Q.U.U.Q.U.Y.U.U.H.Z.B.l.[ G F F D F F D D F F F ` ` D D F F F A F F _ ) J 6 - o O , ~ r.{.{.}.`.`.`.`.{.}.{.{.'.4.=.>.:.$.#.L H q.>X6X Xo.- O 1 <.(.K.K.K.H.K.L.L.L.L.L.L.L.K.K.K.K.K.K.K.H.H.G.H.H.M.F N V b < o * %.i.p.u.p.p.p.p.p.p.0.Y + r d.s.s.p.p.].].].'.'.].].].].].].].].p.p.p.p.p.p.p.'.p.p.p.i.+.o 4 T o.=.:.W : * g.nXNXNXBXNXDXKXPXPXPXPXPXPXPXPXPXPXPXPXPXPXPXPXPXPXPXPXPXPXPXPXPXPXPXPXPXPXPXPXPXPXPXPXPXPXPXPXPXPXPXPXPXPXPXPXPXPXPXPXPXPXPXPXPXPXPXPXPXPXPXPXPXPXPXPXPX",
"PXPXPXPXPXPXPXPXPXPXPXPXPXPXPXPXPXPXPXPXPXPXPXPXPXPXPXPXPXPXPXPXPXPXPXPXPXPXPXPXPXPXPXPXPXPXPXPXPXPXPXPXPXPXPXPXPXPXPXPXPXPXPXPXPXPXPXPXPXPXPXKXHXCX5.& Y 8X9XwX9X9X+X5 4 g.2X<X2X2X2X2X2X2X-X|.f.[.[.].].p.].].].].].p.p.s.s.[.[.].].s.~ # = r U P U U U U T I =   @ v / / / V M C N C C C } J.U.U.I.Z.l.H.E.Q.Q.Q.Q.W.W.W.Q.Q.U.U.=.: o 8 g.jXuXeX>X}.}.`.`.'.q.#.Q W W ~ ^ T ....o.,.,.K *     @ 6 E ) S D A A A ` D S C A F F F D F F D D S S S ` [ M.Z.K.R.W.Q.)..X_..X.X.X.XU.U.H.D.Z.F.F.M.A.A.A.F.D.D.D.P.P.U.(.Q.Q.Q.Q.Q.Q.E.I.H.N.M.F D S S D F F D F ` ` ` ` _ _ _ S D ` ` ` ) J 0 $   o 5 o.'. X{.`.`.`.}.{.{.{.{.`.e.>.>.>.>.^ U h 2.oXqX$X$.@ O 1 <.H.K.K.H.J.J.J.L.L.K.K.L.J.J.J.L.K.H.C.C.K.H.K.H.D.N.F Z M v , o 8 6.p.e.u.p.p.p.u.u.i.6.8 & 6.s.p.p.s.].].p.'.'.].].].].].].].].p.'.'.p.i.p.p.'.'.p.u.u.w.5 + 0 #.=.=.:.q X r kXMXNXNXNXAXJXPXPXPXPXPXPXPXPXPXPXPXPXPXPXPXPXPXPXPXPXPXPXPXPXPXPXPXPXPXPXPXPXPXPXPXPXPXPXPXPXPXPXPXPXPXPXPXPXPXPXPXPXPXPXPXPXPXPXPXPXPXPXPXPXPXPXPXPXPX",
"PXPXPXPXPXPXPXPXPXPXPXPXPXPXPXPXPXPXPXPXPXPXPXPXPXPXPXPXPXPXPXPXPXPXPXPXPXPXPXPXPXPXPXPXPXPXPXPXPXPXPXPXPXPXPXPXPXPXPXPXPXPXPXPXPXPXPXPXPXKXHXHXHXhX8 : |.9X6X6XrX8X&.% O.:X5X:X:X2X2X2X2X:X+Xs.].].[.[.s.].].[.].p.p.p.s.p.'.'.'.'.s.6., + q ! I U U L P L I 8 X + h S V C / V C C C C C ' U.U.Y.I.I.I.N.Z.I.W.Q.W.!.!.).!.W.Q.(.Q : X 8  XzXuX9X>X`.}.`.{.p.2.#.+.W W W W W E E #.6.~ 8 .   + 6 J ) ] D F F F ` ` ( ( F F F A A F F / / S C F l.Z.K.I.Y..X.XXXXX.X(.A.| ) b l h 0 6 5 4 2 : : : : : : : : : , 5 6 0 0 h v ) <.F.(..X_.!.!.W.R.H.N.G F N D ] D _ D ` ` ( ` _ _ F ` _ _ ` ` ) J 6 +   # q 6.|.{.`.`.{.{.{.{.{.{.{.^.>.=.:.=.o.L 9 o.oX1X>X=.- o 5 ;.P.K.C.K.J.J.J.L.L.L.L.L.J.K.K.H.H.J.J.L.L.J.J.J.G.V.` M V g - o q e.u.u.p.p.t.^.p.p.i.#.: 5 a.i.p.'.'.'.'.p.p.p.].].].].].].].p.s.].s.p.p.p.].].'.].p.p.T + 3 ~ X...$.W @ $ ;XmXVXMXBXBXDXPXPXPXPXPXPXPXPXPXPXPXPXPXPXPXPXPXPXPXPXPXPXPXPXPXPXPXPXPXPXPXPXPXPXPXPXPXPXPXPXPXPXPXPXPXPXPXPXPXPXPXPXPXPXPXPXPXPXPXPXPXPXPXPXPXPXPXPXPX",
"PXPXPXPXPXPXPXPXPXPXPXPXPXPXPXPXPXPXPXPXPXPXPXPXPXPXPXPXPXPXPXPXPXPXPXPXPXPXPXPXPXPXPXPXPXPXPXPXPXPXPXPXPXPXPXPXPXPXPXPXPXPXPXPXPXPXPXPXPXKXHXHXAXg.& U gX9X6XeX9X:X* 8 g.5X2X:X2X2X2X2X2X-X[.s.].].].[.p.].].].].p.].s.f.].'.'.'.].r.w + 8 Y Y U U U L K U 0 + o 6 E V C C / C C C C C F D.Y.Y.Y.I.I.I.C.N.I.Q.W.W.!.!.W.W.Q.U.=.- + 8 #XzXuX6XoX`.}.{.[.e.>.#.^ W W W W W W ..*.*.8 @ o o > H E ) ` ` D F D ` ` ` ( ( _ ( _ F D D D F F M.D.U.U..X.X.X}.^.>.J s 6 < ; - - - - - - - O - - - - - - - - O O - O - - - - - - - ; < 1 y g J <.P.(.(.U.U.H.l.G G G G F F A F ` _ D F F ` _ _ ` _ ] ) R < O o & U i.[.{.{.}.}.{.{.{.{.{.`.2.o.:.:.W P 9 E  X,X>X3.- O 1 <.U.K.K.K.L.J.J.L.K.L.L.L.K.K.K.K.J.L.L.L.J.J.J.J.J.M.F C z h @ + W s.e.u.u.p.p.p.t.p.i.w @ ! i.p.p.p.'.p.p.p.].].].'.'.].].].p.s.s.s.s.p.p.p.p.p.p.p.p.8.5 $ q ..o.:.#.0 + O.vXVXMXMXBXAXJXPXPXPXPXPXPXPXPXPXPXPXPXPXPXPXPXPXPXPXPXPXPXPXPXPXPXPXPXPXPXPXPXPXPXPXPXPXPXPXPXPXPXPXPXPXPXPXPXPXPXPXPXPXPXPXPXPXPXPXPXPXPXPXPXPXPXPXPX",
"PXPXPXPXPXPXPXPXPXPXPXPXPXPXPXPXPXPXPXPXPXPXPXPXPXPXPXPXPXPXPXPXPXPXPXPXPXPXPXPXPXPXPXPXPXPXPXPXPXPXPXPXPXPXPXPXPXPXPXPXPXPXPXPXPXPXPXPXPXKXHXJXkXe * |.gX6X6X6XgX*.+ O.;X2X2X2X2X2X:X2X:X|.[.[.].[.].f.p.].].].].].].].p.'.'.'.[.s.*.& * r I T L L P T Y w &   > R J M V C / C C C C F M.U.Y.Y.Y.I.I.R.K.N.I.E.Q.W.W.!.W.).(.E - o 0 #XgXzX9X X`.{.{.'.w.:.$.#.W W W Q W +.$.*.w *   o - h J ) ` ` ` ` ` _ D _ ` ` ` ( _ _ _ D D F [ N.I..X.X}.^.<.E 1 > - O O o + @ : > 6 6 h v E ) =.<.4.^.^.^.^.^.^.^.^.q.<.=.) b g h 6 < < - - O # @ - < 1 j ) F.(.(.).L.v.k.G A G G F F F F F ` ` ` ` D ` ] _ ) h > + X 8 &.d.{.}.}.}.}.{.{.{.{.`.4.:.>.#.Q L h E {.>X3X2.- O 6 <.U.K.K.K.H.K.K.L.L.Y.L.L.K.K.K.K.L.L.K.K.J.K.K.K.J.B.A M v 6 O 4 6.s.u.e.t.t.t.p.i.i.6.: : 1.s.p.p.p.p.p.p.'.].'.'.'.].].].p.s.s.s.s.p.p.t.p.p.p.p.p.f.Y $ 5 W o.#.$.U * = dXMXNXNXNXCXFXPXPXPXPXPXPXPXPXPXPXPXPXPXPXPXPXPXPXPXPXPXPXPXPXPXPXPXPXPXPXPXPXPXPXPXPXPXPXPXPXPXPXPXPXPXPXPXPXPXPXPXPXPXPXPXPXPXPXPXPXPXPXPXPXPXPXPXPX",
"PXPXPXPXPXPXPXPXPXPXPXPXPXPXPXPXPXPXPXPXPXPXPXPXPXPXPXPXPXPXPXPXPXPXPXPXPXPXPXPXPXPXPXPXPXPXPXPXPXPXPXPXPXPXPXPXPXPXPXPXPXPXPXPXPXPXPXPXPXKXHXAXh.* K 5X9X6X6X9X:X: = a.5X2X:X2X:X:X2X:X#X[.p.s.].[.].s.p.].[.].'.].[.].].[.].s.s.0.8 + q Y T U L L L T r 4   $ h J V M V C C C V C A c.H.U.Y.Y.E.E.I.R.R.V.Z.E.Q.Q.W.W.W.P.Q @ + 9 #XrX9X4X X`.{.[.p.7.$.#.^ ^ W W W W #.*.^ 0 o   + 6 R ) _ D F ` ` ` ` ` ` ` ` ` ( ( D D D ] M.P.(.(.P.<.E 1 > - @ O - < 6 H E ) <.^.}.oX$XOXOXOXOX&XqX&X%XqXqX&X&X&X%X%X&XOXOXOXOXOX$XoXoX}.^.>.Q U h < ; - - - ; 1 g ) F.F.(.J.B.l.G F G F F F F F F ` F F A ' ` _ J 0 - o # r 6.].{.}.}.`.}.{.{.}.`.q.=.:.:.Q U h L '.<X>X2.: @ 6 <.U.K.C.K.K.K.K.K.L.L.K.K.K.K.L.L.L.L.K.K.K.K.K.H.H.V.G V v < . 8 r.u.u.p.i.e.t.u.r.0.~ @ w 0.i.p.p.p.p.p.p.].].].].].].].p.s.s.s.s.p.p.t.p.p.p.p.i.p.6.5 @ K o.o.#.+.8 % 5.mXAXNXNXBXDXJXPXPXPXPXPXPXPXPXPXPXPXPXPXPXPXPXPXPXPXPXPXPXPXPXPXPXPXPXPXPXPXPXPXPXPXPXPXPXPXPXPXPXPXPXPXPXPXPXPXPXPXPXPXPXPXPXPXPXPXPXPXPXPXPXPXPXPX",
"PXPXPXPXPXPXPXPXPXPXPXPXPXPXPXPXPXPXPXPXPXPXPXPXPXPXPXPXPXPXPXPXPXPXPXPXPXPXPXPXPXPXPXPXPXPXPXPXPXPXPXPXPXPXPXPXPXPXPXPXPXPXPXPXPXPXPXPXPXHXGXnXr & f.gX6X6X9X9X5.+ r ;X:X2X2X2X2X:X2X-X|.f.s.s.].].].s.s.].[.].].].].].].[.[.s.d.I + 4 I I U U U L L Y 8   o 6 J / V C C C V M C C ' H.U.Y.Y.Y.Y.R.R.R.R.K.V.Y.Q.Q.Q.Q.(.) > + 9 -XgXrX4X X`.`.[.i.7.$.#.+.^ ^ W W W +.*.Y : o   - h E ) ` D D D _ _ _ _ _ ` ` ` ` ` ` D G D.(.(.P.] H 6 - - O O , H >.^.(.XXOXOXqX&X%X%X%X%X%X%X%X%X%X%X%XXXXXXXXX%X%X%X_._._._._._.XXXXXXOX%XOXOXOXXX}.^.^.<.E 1 - - - ; ; 1 J | F.(.F.[ G F F F F F F ` F F A A ` _ _ | J 6 o + , +.s.{.{.}.}.{.{.}.}.{.q.=.:.#.#.P h L `.,X>X1.: O h <.H.H.K.K.G.J.J.K.L.K.K.K.K.L.L.L.K.K.K.K.H.K.K.H.H.V.` V x @ + T i.p.u.e.u.e.u.u.r.0.0 : %.i.p.p.p.p.'.p.].p.].].].].].p.s.s.s.s.p.p.p.p.p.p.s.p.u.i.Y + 8 Q o.#.$.K & 8 hXVXNXBXBXCXGXPXPXPXPXPXPXPXPXPXPXPXPXPXPXPXPXPXPXPXPXPXPXPXPXPXPXPXPXPXPXPXPXPXPXPXPXPXPXPXPXPXPXPXPXPXPXPXPXPXPXPXPXPXPXPXPXPXPXPXPXPXPXPXPXPXPXPX",
"PXPXPXPXPXPXPXPXPXPXPXPXPXPXPXPXPXPXPXPXPXPXPXPXPXPXPXPXPXPXPXPXPXPXPXPXPXPXPXPXPXPXPXPXPXPXPXPXPXPXPXPXPXPXPXPXPXPXPXPXPXPXPXPXPXPXPXPXPXHXDXsX= 0 >XrXwX6XgX:X5 * a.:X2X2X2X2X5X2X:X+Xf.s.s.[.].].].].[.].].].].].].[.].[.].f.6.* & q Y U U U U U U q #   > v b V V M C C V C C F D.U.Y.E.Y.Y.Y.R.R.R.R.Y.V.I.Q.Q..XU.Q > o 9 -XzXrX1X X`.].{.p.7.,.#.W W W W W ^ *.%.q +   o 6 E ) ` ` ` D D _ ` _ ` _ _ D F F F F [ P.}.`.=.g 1 - O O - 1 =.}.oXOXqXqXqXqX0X0X0X0X%X%X%X_.!.!.!.W.W.W.W.R.R.R.T.C.z.C.C.C.C.C.C.C.C.C.C.C.K.R.Q.)._..XXXOX$X$X$X X4.g ; - - - - 1 v <.(.P.c.' F F F F ` F F F D C ( ( ` _ / h - o # q d. X}.}.}.|.}.}.}.{.e.:.:.=.^ T 0 h `.,X>X>.- o a F.H.H.H.H.H.H.J.K.K.I.I.K.L.L.L.K.K.H.H.H.H.H.K.H.H.B.A V h @ @ 6.d.u.P.e.u.u.e.e.s.*.* 0 0.s.i.p.p.p.p.p.p.].].].].].p.s.s.].p.p.'.].p.p.p.s.p.u.i.6.: & U $.o.#.^ 4 + 5.BXNXNXBXBXDXPXPXPXPXPXPXPXPXPXPXPXPXPXPXPXPXPXPXPXPXPXPXPXPXPXPXPXPXPXPXPXPXPXPXPXPXPXPXPXPXPXPXPXPXPXPXPXPXPXPXPXPXPXPXPXPXPXPXPXPXPXPXPXPXPXPXPX",
"PXPXPXPXPXPXPXPXPXPXPXPXPXPXPXPXPXPXPXPXPXPXPXPXPXPXPXPXPXPXPXPXPXPXPXPXPXPXPXPXPXPXPXPXPXPXPXPXPXPXPXPXPXPXPXPXPXPXPXPXPXPXPXPXPXPXPXPXPXHXNXO.# ,.9XeXeXeXgX1.$ 8 :X5X2X2X:X2X5X2X-Xf.f.f.s.[.].].].].[.].'.p.].p.].[.].[.f.r.8 + 8 I U L U I Y T K *   $ h b V V V V C V C C C c.U.Y.Y.R.E.R.R.R.R.R.R.E.G.Z.Y.Q.Q.;.: + 8 -XgXeX1X X`.`.{.t.7.:.#.W W W W #.^ #.6.4     # 0 E ] ' A F F A A A ` ` ` ` ` D F [ M.U..XP.v 1 - O @ * 6 :. XOXOXqX0X0X0X%X%X%X%XXX_.W.R.R.E.E.E.W.E.E.Y.E.Y.Y.Y.Y.Y.H.' D.B.S.S.S.G.G.G.D.H.H.G.(.).Y.E.E.R.E.R.)._..XXX$X$X].H > : - - ; u { F.M.G G A G G ` D S _ _ ( ( ( _ _ _ R 5 # # : >.{.}.}.|.}.}. X X Xt.>.>.:.^ U h 1 `.=X>X$.$ O g F.K.C.K.K.K.K.K.K.K.K.I.L.L.L.K.K.H.Z.Z.Z.H.U.H.K.H.M.D z < + 8 ;X3X=X X}.`.u.w.i.8.e * #.s.p.p.p.p.].p.'.].].].].].p.s.s.].s.p.'.].p.p.p.p.p.u.p.0.r + 9 ..o.o.#.q o 8 kXAXNXBXMXAXPXPXPXPXPXPXPXPXPXPXPXPXPXPXPXPXPXPXPXPXPXPXPXPXPXPXPXPXPXPXPXPXPXPXPXPXPXPXPXPXPXPXPXPXPXPXPXPXPXPXPXPXPXPXPXPXPXPXPXPXPXPXPXPXPXPXPX",
"PXPXPXPXPXPXPXPXPXPXPXPXPXPXPXPXPXPXPXPXPXPXPXPXPXPXPXPXPXPXPXPXPXPXPXPXPXPXPXPXPXPXPXPXPXPXPXPXPXPXPXPXPXPXPXPXPXPXPXPXPXPXPXPXPXPXPXPXPXJXhX8 8 +XrXwXeXlX2Xw & a.fX5X2X2X2X2X2X:X|.[.s.s.].].[.[.].].].'.'.'.'.'.'.].'.p.d.O.& * r Y U L L P U Y 8 X X 0 J C C C C V C C C V F H.I.I.I.I.R.Y.R.E.R.R.R.I.I.C.I.(.<.> X 8 |.zXrX6X X`.`.[.e.w.1.$.^ T Y T W Q #.I *     : J _ _ _ _ _ _ _ F _ _ _ ` F G D ` M.U.}.^.H - O O 2 a ) .X,XqXqXqXqXqX%XXX&XOX!.T.T.R.R.R.E.R.E.E.Q.W.R.R.E.E.W.W.R.R.Y.I.[ B.S.G.S.G.G.G.G.H.G.G.G.L.).L.E.E.R.Y.K.L.E.R.Q._.XXOXqX$Xq.x 1 - $ # 5 ) <.{ ' F F Z G ( ` _ _ F F D F _ _ ) h @   $ ~ s. X}.}.`.{. X#X{.t.>.>.:.W L 0 h }.>X>XE @ @ T F.Z.C.J.(.K.K.K.K.K.J.K.K.K.K.K.G.G.K.K.K.K.K.J.J.H.z.S g - + O.gXlXuXuXrX9X4X>X}.>.: 8 a.i.].].p.p.p.p.p.].'.p.p.p.p.].].p.p.p.p.'.'.'.p.p.u.u.i.+.* $ ! #.o.=.T & . g.NXNXNXBXNXFXPXPXPXPXPXPXPXPXPXPXPXPXPXPXPXPXPXPXPXPXPXPXPXPXPXPXPXPXPXPXPXPXPXPXPXPXPXPXPXPXPXPXPXPXPXPXPXPXPXPXPXPXPXPXPXPXPXPXPXPXPXPXPXPXPXPX",
"PXPXPXPXPXPXPXPXPXPXPXPXPXPXPXPXPXPXPXPXPXPXPXPXPXPXPXPXPXPXPXPXPXPXPXPXPXPXPXPXPXPXPXPXPXPXPXPXPXPXPXPXPXPXPXPXPXPXPXPXPXPXPXPXPXPXPXPXKXDXy.& +.8XrXeXeXgXd.* q fX5X2X2X2X2X2X:X#Xf.s.s.s.].].[.[.].].].'.'.'.p.p.p.'.'.f.0.5 + q Y Y U U L U Y q +   , L b V C C C V V C C D D.U.I.R.R.R.E.R.E.W.R.E.R.R.R.C.U.<.< + , {.zXrX6X X^.[.].p.q.,.#.W W W W W #.#.q #   o 6 E | _ _ _ S _ _ ` D D ` ` A F ` ;.P.^.<.g - - - a E ^.OXqXqXqXqX&X&XOX_.Q.l.XXOXQ.W.W.Q.E.Q.Q.E.E.E.R.R.R.E.E.E.Q.W.R.R.Y.I.l.l.S.S.G.G.G.G.G.G.G.V.V.J.).E.).).E.Y.R.E.E.Y.Y.L.Y.Y.(..XoX$X`.) h - O O < E ] ] F F F A A ` F F D C ` ( _ ) ) H > o + w u.|.}. X}. X X X{.t.>.>.#.Q U 0 l `.>X#XL + - ) H.K.H.J.K.K.K.K.J.J.K.K.K.K.K.G.G.K.K.K.K.J.J.J.H.H.M.S 1 + : s.gXrX6XeX9X9X9X9X-XK * &.i.[.t.p.].p.p.].].p.p.p.p.p.].].p.p.p.p.p.'.'.s.p.p.u.i.0.0 + 0 #.#.#.#.8 .  .vXVXNXNXMXSXJXPXPXPXPXPXPXPXPXPXPXPXPXPXPXPXPXPXPXPXPXPXPXPXPXPXPXPXPXPXPXPXPXPXPXPXPXPXPXPXPXPXPXPXPXPXPXPXPXPXPXPXPXPXPXPXPXPXPXPXPXPXPXPXPXPX",
"PXPXPXPXPXPXPXPXPXPXPXPXPXPXPXPXPXPXPXPXPXPXPXPXPXPXPXPXPXPXPXPXPXPXPXPXPXPXPXPXPXPXPXPXPXPXPXPXPXPXPXPXPXPXPXPXPXPXPXPXPXPXPXPXPXPXPXPXPXkXr , f.gX6XeXrX8X@.& 0.fX2X:X:X:X2X2X-X|.f.[.].].].].[.[.].].].'.'.'.p.p.p.p.f.s.Y + 5 I Y I T U U T I =   @ H J V V C C C S C C A M.U.Y.R.R.R.R.R.R.E.E.E.E.R.W.I.H.<.1 o * p.gXuX1X X^.'.[.t.r.6.#.W W P W W ^ ~ q %   @ h ) ` ` _ S ` _ ` ` ` ` F F G G } F.P.=.h - - - H <.}.=X0X0X0X0X%XXX_.W.K.Z.Z.c.M.OX_.).E.R.E.E.E.E.E.E.R.R.E.E.E.E.Q.W.E.R.Y.U.Z.G M.S.G.G.G.G.G.G.G.V.V.G.E.).E.E.R.R.E.E.E.Y.R.R.K.R.R.I.I.Q..XXX}.F.J 2 - O < v ) ] _ F Z G F D C C ` ( ( _ _ ) E 6 O o 8 0.|. X|.{. X X{.{.e.3.>.#.W L 9 R `.>X Xh o > <.H.H.H.H.K.J.K.J.J.K.K.K.K.K.G.H.K.K.K.J.J.G.H.G.K.Z.M.b > O 0 -X9X9XrX6XrXrX6X5Xi.> 8 i.s.p.p.].p.p.p.'.].p.p.p.p.].].p.t.p.p.p.p.p.p.p.p.p.p.i.Y + : @.+.#.*.K # = dXNXNXVXMXBXGXPXPXPXPXPXPXPXPXPXPXPXPXPXPXPXPXPXPXPXPXPXPXPXPXPXPXPXPXPXPXPXPXPXPXPXPXPXPXPXPXPXPXPXPXPXPXPXPXPXPXPXPXPXPXPXPXPXPXPXPXPXPXPXPXPX",
"PXPXPXPXPXPXPXPXPXPXPXPXPXPXPXPXPXPXPXPXPXPXPXPXPXPXPXPXPXPXPXPXPXPXPXPXPXPXPXPXPXPXPXPXPXPXPXPXPXPXPXPXPXPXPXPXPXPXPXPXPXPXPXPXPXPXPXPXJX;X* K 3XeXwXeX9X+X, 8 ;X5X2X:X:X2X2X2X#Xs.s.].].].p.].[.[.[.].'.'.'.].'.p.[.f.s.6.: @ w I T T P U U I 0 X   6 ) V C M C C C C C C [ H.I.Y.R.R.R.R.R.R.E.E.E.E.E.R.I.<.h O + 6.9XrX6X X^.'.[.s.r.6.#.^ W W Q W ^ ^ 5 X   : R ) ` ` F D D _ ` ` ` ` ` F G l.D.^.>.h - O - J ^.OXqXqX0X%X%XXX).T.K.C.V.Z.G.G.G.A ).OX).E.R.E.E.E.E.E.E.E.R.E.E.E.E.W.R.I.R.I.Y.K.l.c.S.G.G.H.G.G.G.G.V.V.G.L.E.E.E.R.R.R.E.E.Y.I.R.R.R.R.R.R.T.R.K.(..XXX].R > + O 2 h ) ] F F F F ( ( ( ( C C A D S J h + X = 1.|.{.{. X{. X{.{.e.3.2.#.#.K 1 S  X>X|., # 6 <.H.G.H.H.J.J.J.K.K.K.K.K.K.G.K.K.K.K.J.J.J.H.H.H.C.G.} g - @ &.8X9X6XeXeXeXrX9X>XW : +.{.s.p.p.].].p.p.].p.p.p.].].].p.t.p.p.p.p.p.p.i.p.p.i.i.1.: + w #.#.*.T 4 X y.nXNXNXNXBXDXKXPXPXPXPXPXPXPXPXPXPXPXPXPXPXPXPXPXPXPXPXPXPXPXPXPXPXPXPXPXPXPXPXPXPXPXPXPXPXPXPXPXPXPXPXPXPXPXPXPXPXPXPXPXPXPXPXPXPXPXPXPXPXPXPX",
"PXPXPXPXPXPXPXPXPXPXPXPXPXPXPXPXPXPXPXPXPXPXPXPXPXPXPXPXPXPXPXPXPXPXPXPXPXPXPXPXPXPXPXPXPXPXPXPXPXPXPXPXPXPXPXPXPXPXPXPXPXPXPXPXPXPXPXJXBXO.& 8.9XrXrXrXgX*.& 5.:X2X:X2X2X2X2X-X{.s.s.].].].].].].[.].p.p.].].].[.s.f.s.a.K + 5 I U P U U U U w &   : J / C C C C C C C C G S.I.Y.R.E.R.R.E.R.R.E.E.E.E.E.I.P.R - + %.gXeX6X X`.'.[.s.r.6.#.W W W W W +.~ 5 o   > J | _ _ D ) _ _ _ F F F F ` ` ;.P.<.x ; O - H ^.$XqX0X0X%XXX!.T.L.L.C.H.C.H.C.H.G.G.c.c.&X.XE.E.E.E.R.R.E.E.E.R.E.E.E.E.W.E.E.E.Y.Y.Y.z.k.S.G.H.H.H.G.G.G.G.G.G.L.).E.E.R.R.Y.E.E.R.I.I.R.R.R.W.R.R.E.L.H.G.J.).oX^.H > # O < J _ ` F A ( ( ( D C A A C C _ ) h @ X : #.{.{. X{. X X X`.4.3.3.#.+.K 1 E  X>Xi.: O h P.H.U.H.G.K.K.K.K.K.K.K.K.G.J.J.J.J.J.J.J.H.H.K.H.H.H.} y O & |.8XrXeXeXeX6X6X8X|.6 6 i.s.p.p.p.p.p.p.p.p.p.p.p.p.'.p.p.p.p.'.'.p.i.p.p.p.p.p.i.0   8 #.#.#.+.q   8 kXNXVXMXBXAXJXPXPXPXPXPXPXPXPXPXPXPXPXPXPXPXPXPXPXPXPXPXPXPXPXPXPXPXPXPXPXPXPXPXPXPXPXPXPXPXPXPXPXPXPXPXPXPXPXPXPXPXPXPXPXPXPXPXPXPXPXPXPXPXPX",
"PXPXPXPXPXPXPXPXPXPXPXPXPXPXPXPXPXPXPXPXPXPXPXPXPXPXPXPXPXPXPXPXPXPXPXPXPXPXPXPXPXPXPXPXPXPXPXPXPXPXPXPXPXPXPXPXPXPXPXPXPXPXPXPXPXPXPXJXkX* 5 -X9X9X9XgX5X8 4 d.:X:X:X2X2X2X:X+Xs.[.].].].].].].].].].'.].].].].f.s.f.s.6.: & q Y U P U U P I 8   + h J V C C C C C C C N l.K.I.I.E.E.E.E.Y.R.R.R.E.E.E.E.U.=.> o 0 8XuX6XoX`.'.{.].r.6.#.W W W W W ^ ! =     , J _ ] S _ _ _ ` ` F F F F F [ P.^.Q < - - g ^.,XqXqX0X%XXXW.H.G.J.T.K.J.J.J.H.G.J.C.H.S.A .XOXQ.W.E.E.R.R.E.E.R.R.).).).E.E.E.E.E.Y.Y.Y.G.' M.G.G.G.H.H.G.G.G.G.G.H.(.E.E.R.R.Y.E.E.R.I.I.I.E.R.R.R.R.Y.Y.G.v.b.V.H.).oX^.h - O O 0 E ] ` A A A D _ D A _ C D _ ) J - + * +.|. X X X X X X'.4.3.>.#.W H 1 >.>X>X$.+ - ) P.H.H.G.K.K.K.K.K.K.I.K.K.H.H.H.J.J.J.J.H.G.Z.H.J.H.D.) - + 0 fX9X6XwX6X6X6X1X<X*.@ +.f.p.p.].p.p.p.p.p.p.'.p.p.p.'.p.p.p.'.'.p.i.p.p.p.p.p.i.+.+ * Y #.#.#.! + & ;XmXVXVXNXNXFXKXPXPXPXPXPXPXPXPXPXPXPXPXPXPXPXPXPXPXPXPXPXPXPXPXPXPXPXPXPXPXPXPXPXPXPXPXPXPXPXPXPXPXPXPXPXPXPXPXPXPXPXPXPXPXPXPXPXPXPXPXPXPXPX",
"PXPXPXPXPXPXPXPXPXPXPXPXPXPXPXPXPXPXPXPXPXPXPXPXPXPXPXPXPXPXPXPXPXPXPXPXPXPXPXPXPXPXPXPXPXPXPXPXPXPXPXPXPXPXPXPXPXPXPXPXPXPXPXPXPXPXPXDXh.X T 8XeX9X9XgXd.@ Y :X:X:X:X:X2X2X-X{.[.[.].].].].].].].p.].[.[.[.[.s.s.s.f.r.q @ 8 Y T U U U P U w +   6 J b S C C C V V V C F H.Y.I.I.E.Y.Y.Y.Y.R.R.R.E.E.E.E.A.1 + 0 :X9XwX$X`.'.[.s.i.8.#.^ W W W W W U * . X 5 R ) S ) S D ` ' ` ` F ` F ` M.D.<.1 O O 0 7.OXqX0X%X%X_.W.C.H.J.J.H.C.C.G.H.H.H.G.J.C.C.H.} c.&XXXE.E.Q.R.R.E.E.E.R.).).).E.E.E.E.Y.Y.Y.Y.Y.l.l.S.G.G.H.H.G.G.G.G.G.H.Y.).E.E.Q.E.Q.E.R.R.Y.Y.E.E.Y.I.Y.Y.I.G.z.z.v.b.b.V.).XXq.q $ o - j C F A A D _ _ ( _ / A A D _ J = o @ W {.|. X}. X X X'.3.3.:.,.+.0 < 4.=X Xw O - ;.H.H.H.K.J.J.K.K.K.I.K.K.K.K.K.L.K.J.K.J.H.H.J.G.C.G.<.h O @ r.9X6XwX6X9XeX1X9X#X6 < i.[.p.p.'.p.].p.p.'.].].].].p.p.p.p.'.'.p.p.p.i.p.p.u.p.r.: + q #.#.o.%.5 X 5.nXVXVXNXNXDXKXPXPXPXPXPXPXPXPXPXPXPXPXPXPXPXPXPXPXPXPXPXPXPXPXPXPXPXPXPXPXPXPXPXPXPXPXPXPXPXPXPXPXPXPXPXPXPXPXPXPXPXPXPXPXPXPXPXPXPXPXPXPXPX",
"PXPXPXPXPXPXPXPXPXPXPXPXPXPXPXPXPXPXPXPXPXPXPXPXPXPXPXPXPXPXPXPXPXPXPXPXPXPXPXPXPXPXPXPXPXPXPXPXPXPXPXPXPXPXPXPXPXPXPXPXPXPXPXPXPXPXJXnXe + s.9XwXwX9XjXr : 8.:X:X:X2X2X2X:X+X[.].[.[.[.[.[.s.].s.p.].[.[.f.].'.'.p.d.&.= * w U U U I I W U =   - v S V _ V V C C C C C M.K.R.Y.Y.Y.Y.Y.Y.Y.W.E.Y.E.R.R.P.h o 4 [.rXrX>X[.'.{.].i.8.*.^ W P P W W I ,   . 5 E ] F ` _ _ ` ` ` ` ` ] D ] <.A.J ; - < ) }.qXqXqX%X_.R.C.C.H.J.J.J.J.J.J.C.G.G.G.H.J.H.Z.G.M.F .XOX.XE.).E.Y.Y.E.E.R.).).).E.E.W.W.R.R.R.R.K.B.G M.G.G.G.G.G.G.G.S.S.G.L.Q.E.Q.Q.E.E.E.Y.Y.Y.Y.Y.I.I.I.R.R.Y.J.v.v.v.v.V.v.v.H.(.`.:.4 O O < J ) ( ( ( ( _ _ ` ` A C D _ R < o $ ~ |.|.}. X X#X#Xt.3.2.2.:.Q 0 0 ].>X}.> X 0 F.K.H.K.K.L.L.K.K.L.L.J.K.K.K.K.K.K.K.J.J.J.H.H.C.H.H.] ; O 0 -X9X1X6X9XwX1X6X<X#.@ 5.f.p.'.'.u.p.p.p.].].].].].p.p.p.p.'.p.p.p.p.p.p.p.p.p.s.K o 5 ~ #.o.#.0 + 8 kXNXVXNXNXAXGXPXPXPXPXPXPXPXPXPXPXPXPXPXPXPXPXPXPXPXPXPXPXPXPXPXPXPXPXPXPXPXPXPXPXPXPXPXPXPXPXPXPXPXPXPXPXPXPXPXPXPXPXPXPXPXPXPXPXPXPXPXPXPX",
"PXPXPXPXPXPXPXPXPXPXPXPXPXPXPXPXPXPXPXPXPXPXPXPXPXPXPXPXPXPXPXPXPXPXPXPXPXPXPXPXPXPXPXPXPXPXPXPXPXPXPXPXPXPXPXPXPXPXPXPXPXPXPXPXPXPXFXhX* 8 -XlXeXeXgX@X= 8 +X:X:X:X:X2X:X-X{.p.[.[.[.[.[.[.].].s.s.].[.[.[.'.'.].s.i.0 & 8 I P U U T U T q X + 0 J V S V C C C C C V ' H.Y.R.Y.Y.Y.Y.Y.Y.Y.E.E.Y.W.R.U.S - + 6.9XeX4X{.p.{.{.p.r.$...W W P L W Y 4     0 W ) ] _ _ _ ) ` ` ` _ D F } F.=.6 - - v }.=XqXqX%X_.K.C.C.K.K.H.J.J.J.J.J.L.J.C.G.G.H.H.G.Z.G.H.' M.OXXXE.E.E.E.E.E.Y.R.).).E.E.E.R.E.R.R.R.R.R.H.G c.B.G.G.G.G.G.G.G.S.G.H.E.Q.Q.E.E.E.E.E.E.E.Y.Y.I.I.I.R.Y.K.K.V.v.v.v.G.m.v.V.V.D.(.p.K @ o : h ) _ ( A ` D D A A D _ S ) E 6 O @ T |. X X X X#X Xe.3.2.,.$.W 6 h  X>X,.+ + J F.H.Z.K.L.L.K.L.L.K.J.K.K.K.K.K.K.K.J.J.J.H.G.C.C.H.F.b - @ 1.8X6XrX6X1X1XeX8X X5 0 d.f.p.'.p.p.s.].].].].].].p.p.p.p.p.p.p.p.p.p.p.i.p.p.s.*.@ * I +.Q $.U : # g.BXNXNXBXNXDXPXPXPXPXPXPXPXPXPXPXPXPXPXPXPXPXPXPXPXPXPXPXPXPXPXPXPXPXPXPXPXPXPXPXPXPXPXPXPXPXPXPXPXPXPXPXPXPXPXPXPXPXPXPXPXPXPXPXPXPXPXPXPX",
"PXPXPXPXPXPXPXPXPXPXPXPXPXPXPXPXPXPXPXPXPXPXPXPXPXPXPXPXPXPXPXPXPXPXPXPXPXPXPXPXPXPXPXPXPXPXPXPXPXPXPXPXPXPXPXPXPXPXPXPXPXPXPXPXPXPXSX5.& *.gX9X6XrXzX&.* @.:X2X:X:X:X:X:X+Xf.].].].].[.[.[.].].[.].].[.].[.'.'.p.f.*.: , w T P P T P P K *   : J / V C C C C ( C C C S.U.Y.Y.Y.Y.Y.Y.Y.Y.Y.E.E.W.W.Y.<.> + U 5XrX1X Xt.{.{.p.t.,.W W P W W W U 4     6 E ) _ ] _ _ _ _ ` ` ` D D M.F.J - + 6 >.oXqX0X%X_.T.H.C.K.K.J.J.G.H.J.J.J.J.L.J.J.H.G.H.G.G.Z.G.G.M.F .XOX).Y.E.E.E.E.E.R.).).E.E.E.R.R.R.R.R.T.R.Y.l.' B.G.G.G.G.G.G.G.S.S.G.R.Q.Q.E.E.E.E.E.E.E.Y.Y.I.I.I.R.Y.K.L.G.z.v.v.v.v.b.v.b.v.M.P.}.,.5 + + < J _ A G D C C C C D _ D S J 6 o @ Y |. X X X X X|.r.>.3.,.#.U 6 ..#X>XK o > | P.H.K.L.L.L.L.L.L.J.K.K.K.K.K.K.J.J.J.K.H.H.H.C.Z.Z.M.6 O 0 -XgXeXeX6XeX6X9X5X,.& 1.{.p.'.p.p.].'.p.p.].].].p.p.p.p.p.p.p.p.p.p.p.p.p.p.s.r.5 + 0 +.o.#.^ 8 X O.nXVXNXNXNXAXJXPXPXPXPXPXPXPXPXPXPXPXPXPXPXPXPXPXPXPXPXPXPXPXPXPXPXPXPXPXPXPXPXPXPXPXPXPXPXPXPXPXPXPXPXPXPXPXPXPXPXPXPXPXPXPXPXPXPXPXPXPXPX",
"PXPXPXPXPXPXPXPXPXPXPXPXPXPXPXPXPXPXPXPXPXPXPXPXPXPXPXPXPXPXPXPXPXPXPXPXPXPXPXPXPXPXPXPXPXPXPXPXPXPXPXPXPXPXPXPXPXPXPXPXPXPXPXPXKXJXnX8 : {.zX9X6XzX5X0 & i.5X2X-X:X:X:X-X{.s.[.].s.].[.[.[.].[.[.].].].p.'.].p.p.i.K + 0 Y T L P T T U 8 X + h ) V C C C C C C C C [ J.Y.L.K.Y.Y.Y.Y.Y.E.E.Y.R.W.I.P.0 o , -XuX1XoXt.[.{.'.t.3.W W W Q Q W U 5 X   5 Q ) ] ` _ ) _ _ ` ` ` F F ;.<.h - - h }.qX0X%X%X_.L.G.J.G.J.J.J.J.Z.H.J.J.J.J.L.J.J.H.G.H.H.G.G.G.G.G.G D.OXXXY.Q.Q.Q.E.E.E.Q.).E.E.E.E.R.R.R.R.R.R.Y.H.Z z.G.G.G.G.G.G.G.G.G.V.K.E.E.E.E.E.E.E.E.E.E.Y.Y.Y.R.R.R.Y.L.J.z.z.v.v.v.b.b.B.B.B.G ;.$X].q o O - x _ F D D C ` D D D F F _ E 6 o & #.|.|. X X X X{.q.3.3.*.*.H 0 4.>X X> O 0 <.P.H.L.L.J.K.K.K.K.J.J.J.K.K.K.J.H.J.K.K.K.K.C.C.Z.Z.| - @ 6.gXrXeX9XrXeX6X9X+X6 0 d.f.'.'.'.p.p.'.p.].p.p.p.'.p.p.p.p.'.p.p.p.i.p.p.p.i.i.~ + 5 T o.Q #.w + 8 hXVXNXNXBXCXGXPXPXPXPXPXPXPXPXPXPXPXPXPXPXPXPXPXPXPXPXPXPXPXPXPXPXPXPXPXPXPXPXPXPXPXPXPXPXPXPXPXPXPXPXPXPXPXPXPXPXPXPXPXPXPXPXPXPXPXPXPXPX",
"PXPXPXPXPXPXPXPXPXPXPXPXPXPXPXPXPXPXPXPXPXPXPXPXPXPXPXPXPXPXPXPXPXPXPXPXPXPXPXPXPXPXPXPXPXPXPXPXPXPXPXPXPXPXPXPXPXPXPXPXPXPXPXPXPXFXsX* K 3XlX6XrXzXi.& 8 -X2X2X:X:X:X:X+X[.f.].s.p.].[.[.[.].[.[.].[.[.].p.p.p.f.*.: * w T U U U U Y w &   > J V C C C C V C V M D S.L.Y.L.K.Y.Y.Y.E.E.Q.I.Y.E.E.U.E @ # 0.zXeX>X`.p.{.`.p.q.W W W W W ^ Y 5     , Q ) _ ` _ _ _ _ ` ` ` ` ] F.<.1 + : o.$XqX0X%X_.!.).).H.H.J.J.J.J.J.C.C.G.G.G.G.H.J.J.G.G.G.G.H.G.Z.G.G.B.F XXOX).R.W.Q.E.E.E.E.).E.E.E.E.R.R.R.R.R.R.Y.L.k.k.S.G.G.G.G.G.G.G.G.V.J.E.E.E.E.E.E.E.E.E.Y.Y.Y.E.Y.Y.Y.K.K.K.B.c.v.v.v.b.b.z.M.M.' N F.$X#X>.- O - l ) _ _ ` F F D D F F D _ Q 6 o @ *. X X X XoX#X].3.3.6.,.#.h h `.4Xu.@ o R F.H.J.L.K.K.J.J.J.J.J.J.J.K.K.J.J.J.J.K.H.Z.Z.Z.Z.C.F.s @ 5 #X9XrX9XeXeXrX9X8Xo.: 6.[.p.u.u.'.'.p.p.p.p.p.p.p.p.p.p.'.'.p.p.i.i.p.p.p.p.s.6.* : U W o.o.Y * + g.NXVXNXBXBXDXPXPXPXPXPXPXPXPXPXPXPXPXPXPXPXPXPXPXPXPXPXPXPXPXPXPXPXPXPXPXPXPXPXPXPXPXPXPXPXPXPXPXPXPXPXPXPXPXPXPXPXPXPXPXPXPXPXPXPXPXPXPX",
"PXPXPXPXPXPXPXPXPXPXPXPXPXPXPXPXPXPXPXPXPXPXPXPXPXPXPXPXPXPXPXPXPXPXPXPXPXPXPXPXPXPXPXPXPXPXPXPXPXPXPXPXPXPXPXPXPXPXPXPXPXPXPXPXPXAX5.& #.gX9X6XrXgXT + &.2X<X2X:X:X2X-X|.f.f.].].].[.[.[.[.].[.[.].[.[.].u.u.p.s.0 + 8 U U L L U T I 4 . + H / V V D C C C C C S [ U.L.T.L.L.Y.Y.E.E.E.I.I.R.R.(.<.> + ~ 5XuX,X{.r.{.}.`.e.#.W W W ^ W ~ 8 X   - v ) ] _ _ _ _ ` ` ` F D ` <.>.> @ - q.,XqX0XXX!.Q.Q.).).K.G.K.J.J.H.H.H.H.H.H.J.J.J.J.J.H.H.H.J.J.G.Z.C.C.B.[ A.OXXXE.W.Q.E.E.E.E.).E.E.E.E.W.W.W.R.R.R.Y.Y.G.G z.G.G.G.G.G.G.G.G.V.G.Y.E.R.R.E.E.Y.E.E.Y.Y.Y.E.Y.Y.Y.Y.K.K.G.c.v.B.v.b.b.v.v.m.n.( c.).).XX`.0 + - 6 ) _ ` ` A F D _ ` F D _ E <   : 3. X XoXoX X#Xp.2.3.,.,.Q 6 v >X>XP o , <.D.H.K.K.K.J.K.K.K.K.K.K.K.K.J.J.J.J.K.Z.Z.Z.Z.Z.K.K.| - + 6.9X9X9XeXrXeXrX9X|.8 w d.p.p.p.'.p.p.p.p.p.p.p.p.p.p.p.p.p.p.i.i.i.p.p.p.t.i.r.0 + 0 W Q Q +.8 X O.nXVXNXNXBXAXKXPXPXPXPXPXPXPXPXPXPXPXPXPXPXPXPXPXPXPXPXPXPXPXPXPXPXPXPXPXPXPXPXPXPXPXPXPXPXPXPXPXPXPXPXPXPXPXPXPXPXPXPXPXPXPXPXPXPXPXPXPX",
"PXPXPXPXPXPXPXPXPXPXPXPXPXPXPXPXPXPXPXPXPXPXPXPXPXPXPXPXPXPXPXPXPXPXPXPXPXPXPXPXPXPXPXPXPXPXPXPXPXPXPXPXPXPXPXPXPXPXPXPXPXPXPXPXJXvXr , |.zX6XrXzX-X8 * @X5X<X:X2X2X2X-X[.s.s.].[.[.[.[.[.[.].].[.p.p.s.p.'.p.f.0.& * w T U L P T Y w &   6 J C V S D C C C C C F D.U.L.K.L.Y.Y.Y.I.I.I.I.I.R.Y./.h o , #XzX1XoXu.d.{.`.t.>.W W W W W W 0 . . @ R ) D _ _ _ _ ` ` F F F D <.) , @ > e.eXqX%X.X).).).).!.W.E.H.H.G.J.H.H.H.J.K.K.J.J.L.J.J.J.G.G.G.G.G.H.C.C.S.c.F XX&XQ.Q.Q.E.E.E.Q.).).Q.E.R.W.W.W.W.R.R.R.E.L.k.l.S.G.G.G.G.G.G.G.V.Z.L.R.R.R.E.E.I.Y.E.E.Y.Y.Y.R.R.R.R.I.K.G.c.z.v.v.b.b.b.b.m.n.` ' U.K.E.}.#XU @ o y ) ` ` A F _ _ _ F A D ) E 4 o > p. X XoX X X X4.2.2.,.:.H < =.<X[.5 o h P.H.H.Z.K.K.K.K.L.L.L.K.K.J.J.J.K.J.K.K.K.H.Z.Z.K.C.P.h + , 2XrX9X6XeXeX6XrX<XY 5 i.{.u.'.p.p.p.].'.].].].'.'.p.p.p.p.p.p.p.p.t.p.p.t.i.i.! + 5 T Q o.#.w + 4 hXAXNXNXNXNXGXPXPXPXPXPXPXPXPXPXPXPXPXPXPXPXPXPXPXPXPXPXPXPXPXPXPXPXPXPXPXPXPXPXPXPXPXPXPXPXPXPXPXPXPXPXPXPXPXPXPXPXPXPXPXPXPXPXPXPXPXPX",
"PXPXPXPXPXPXPXPXPXPXPXPXPXPXPXPXPXPXPXPXPXPXPXPXPXPXPXPXPXPXPXPXPXPXPXPXPXPXPXPXPXPXPXPXPXPXPXPXPXPXPXPXPXPXPXPXPXPXPXPXPXPXPXKXFXdX4 K 8XrXeXrXgXa.* w :X:X:X:X2X2X-X|.p.[.[.].].[.[.].].].].].].].].p.p.`.f.a.! + 8 Y P U L U I Y 8   @ l b V C C C C C C C C [ H.H.U.K.Y.L.I.Y.Y.I.I.I.I.R.(.Q 2 - 3.jXrX>X`.'.[.{.'.6.^ W W W W W q +   + H ) _ _ _ ` ` ` ` ` F F ] ;.H : - 6 `.wXqXXXN.R._.).!.!.Q.W.Q.R.H.H.J.J.L.J.J.K.K.J.J.J.J.J.J.G.G.G.G.Z.Z.G.G.G.N.' U.&XXXW.W.Q.W.W.Q.).).Q.W.Q.E.E.E.E.R.I.R.R.L.v.G v.G.G.N.B.N.V.Z.N.V.K.R.R.R.R.R.Y.I.E.I.I.I.I.L.Y.R.R.I.I.K.B.z.B.z.V.b.v.v.b.c.F N (.L.K.T._..XQ : o 6 S D F F D _ _ A A C D _ J > o 8 f.#XoXoX X#X[.2.3.>.>.Q 0 6 '.>XX.. $ Q U.C.H.H.Z.H.K.I.K.K.L.J.J.J.J.J.L.H.K.C.H.C.C.Z.J.K.;.< + *.gX6X6X9X6X6X6X6Xp., O.|.`.'.s.p.p.p.p.].].].p.p.].p.p.p.p.p.p.p.p.p.p.t.p.p.*.: * I o.o.#.! * + h.VXVXNXNXNXFXKXPXPXPXPXPXPXPXPXPXPXPXPXPXPXPXPXPXPXPXPXPXPXPXPXPXPXPXPXPXPXPXPXPXPXPXPXPXPXPXPXPXPXPXPXPXPXPXPXPXPXPXPXPXPXPXPXPXPXPXPX",
"PXPXPXPXPXPXPXPXPXPXPXPXPXPXPXPXPXPXPXPXPXPXPXPXPXPXPXPXPXPXPXPXPXPXPXPXPXPXPXPXPXPXPXPXPXPXPXPXPXPXPXPXPXPXPXPXPXPXPXPXPXPXPXHXAXa.* 1.zXeXeX9X8X5.+ 0.2X:X:X:X2X2X#Xf.s.s.[.].].[.].].].'.].s.].].].].'.[.f.0.4 & w Y P U U U Y w +   6 R V V C C C C S C C ` N.U.H.H.K.Y.L.I.Y.Y.Y.Y.I.E.R.<.6 + H 3XzX9X}.'.`.{.`.e.#.W W W W W I *   o q Q ) _ _ _ ` _ ` ` F F ] <.l - O h  XeXqX.XZ.F K.).Q.Q.Q.W.W.Q.W.K.G.J.L.L.J.J.K.K.J.J.J.J.J.H.G.C.G.Z.Z.Z.Z.Z.G.G.c.' XX&X).E.W.W.W.E.).Q.Q.W.Q.E.E.E.E.R.I.T.R.R.G.G l.D.G.G.V.B.Z.Z.B.Z.G.I.E.R.R.R.Y.Y.E.Y.I.I.Y.L.L.K.R.I.I.K.G.l.B.z.v.b.v.v.b.c.` m Y.E.K.K.K.(.oXQ @ O 1 J _ D F _ D C C C C S ) l - o h #X>XoXoX#X Xe.2.>.>.:.L 1 l  X|.5   6 A.H.Z.H.H.H.K.K.K.K.K.J.J.J.J.J.K.K.K.H.H.C.C.C.K.C.D.v @ , -XrX9X9XrXrXeX6X>Xw 8 f.{.u.p.u.p.p.p.].].p.p.p.'.p.p.p.p.p.p.p.p.p.p.t.p.p.8.0 + q ..o.#.^ 5 X 5.nXVXNXNXBXAXJXPXPXPXPXPXPXPXPXPXPXPXPXPXPXPXPXPXPXPXPXPXPXPXPXPXPXPXPXPXPXPXPXPXPXPXPXPXPXPXPXPXPXPXPXPXPXPXPXPXPXPXPXPXPXPXPXPXPXPXPX",
"PXPXPXPXPXPXPXPXPXPXPXPXPXPXPXPXPXPXPXPXPXPXPXPXPXPXPXPXPXPXPXPXPXPXPXPXPXPXPXPXPXPXPXPXPXPXPXPXPXPXPXPXPXPXPXPXPXPXPXPXPXPXKXHXvXO., +XrXeXrXrX-X8 * @X5X:X2X2X2X:X|.s.[.].s.'.].].].].].].p.].[.[.[.[.[.].f.@.@ 8 Y U P U U U Y 8 o - h E V C D C C C S D C c.H.U.K.K.K.Y.L.U.Y.I.R.R.R.E.(.J + , |.zXrX>X`.`.{.[.'.>.W W W W ~ Y 8 . o 6 ) ) _ _ ` ` ` ` _ _ F ] <.H - - h oXeXqXY.N.Z.G v.Q.Q.Q.Q.Q.!.W.Q.K.J.J.L.J.J.J.J.K.J.J.K.J.J.H.G.H.H.Z.Z.C.C.C.C.Z.N.F D.qXXXE.W.R.E.).).E.Q.R.E.E.E.E.E.E.E.R.R.E.L.l.G v.Z.G.Z.V.G.G.G.Z.Z.K.E.R.E.E.E.E.E.E.Y.Y.Y.R.R.L.R.I.I.K.H.z.z.z.v.b.V.v.b.z.[ n (.).E.T.C.C.(.XX>.@ O 6 E _ G S D C A C C D _ ) h O + ..#X>X>XoXoX X4.>.>.>.#.L < :.>X7.+ O E P.Z.K.K.H.H.K.K.K.H.H.H.K.H.H.K.H.K.H.K.K.H.H.Z.C.K.} 1 + &.gX9X9XrXeXeX6X8X8.: 6.|.'.'.p.p.'.[.].].].p.p.].'.p.p.p.p.p.p.i.p.p.s.p.p.r.I + 8 ....#.+.q + = kXVXNXBXNXNXGXPXPXPXPXPXPXPXPXPXPXPXPXPXPXPXPXPXPXPXPXPXPXPXPXPXPXPXPXPXPXPXPXPXPXPXPXPXPXPXPXPXPXPXPXPXPXPXPXPXPXPXPXPXPXPXPXPXPXPXPX",
"PXPXPXPXPXPXPXPXPXPXPXPXPXPXPXPXPXPXPXPXPXPXPXPXPXPXPXPXPXPXPXPXPXPXPXPXPXPXPXPXPXPXPXPXPXPXPXPXPXPXPXPXPXPXPXPXPXPXPXPXPXPXKXGXdX= 0 5XuXeXrXgXf.* r :X2X:X2X2X2X-Xf.s.s.[.].].].].].].].].p.].[.].].].p.p.i.8 & w Y U U U U T w @ o 1 R V V C C C C C C C F D.L.K.H.K.K.L.L.U.I.I.R.R.E.(.<.; + ..9XxX,X`.e.'.'.'.q.Q W W W W ~ 0     > E ` ` ` ` ` ` _ _ _ _ ] ;.h @ @ h #XqX&XW.B.V.G.l.j.E.).E.Q.Q.!.Q.!.R.K.J.L.J.J.J.J.J.J.J.K.J.J.H.G.G.G.G.C.C.C.C.C.Z.G.l.F XX&X).R.R.E.Q.Q.Q.E.R.R.E.E.E.E.E.E.R.R.R.E.G.Z l.B.G.Z.B.G.G.Z.V.Z.J.R.R.R.R.Y.Y.E.E.Y.Y.Y.E.R.R.K.I.I.Y.K.B.z.z.v.b.v.z.V.v.[ m D.).Q.T.C.C.K.Y. X:.- o 6 ) F S S C A A D D A S ) 1 O @ 0.oX>XoXoXoX`.3.>.>.=.Q 0 h {.-X0   5 <.H.Z.Z.K.K.G.H.K.H.H.C.H.K.K.K.K.K.K.K.H.H.K.Z.C.C.H.j - 8 -XgX9XrXeXrX6X9X#X6 0 +Xf.'.u.p.[.p.p.p.p.p.p.].'.p.p.p.p.p.p.t.p.s.s.p.u.i.#.* , T ..#.$.U * X sXNXNXNXNXBXDXPXPXPXPXPXPXPXPXPXPXPXPXPXPXPXPXPXPXPXPXPXPXPXPXPXPXPXPXPXPXPXPXPXPXPXPXPXPXPXPXPXPXPXPXPXPXPXPXPXPXPXPXPXPXPXPXPXPXPXPX",
"PXPXPXPXPXPXPXPXPXPXPXPXPXPXPXPXPXPXPXPXPXPXPXPXPXPXPXPXPXPXPXPXPXPXPXPXPXPXPXPXPXPXPXPXPXPXPXPXPXPXPXPXPXPXPXPXPXPXPXPXPXPXKXDXg.+ $.9X9X1XrXgX%.& 0.2X2X2X2X2X:X{.s.s.].[.].].].'.].].].].p.s.].].].].p.f.%.* 4 Y T L U T Y Y 8   @ h J V V C C C C C C D l.H.K.K.K.Y.K.Y.L.U.I.K.R.Y.Y.U.h o 5 -XzXrXoX`.'.'.'.t.:.Q Q W W ~ r +   @ R ) ` ` ` ` ` ` _ _ _ _ =.J - + h $XeX%XW.K.z.z.G.S.Z K.E.Q.Q.Q.Q.Q.Q.Q.Y.J.J.J.J.J.J.J.J.J.K.J.J.J.G.G.H.G.C.C.C.C.C.C.Z.S.F D.qXXXE.Q.E.Q.Q.W.E.E.R.E.Q.W.E.E.R.R.R.R.R.Y.' G B.Z.Z.Z.Z.Z.Z.V.V.G.R.E.R.E.Y.Y.E.Y.Y.Y.Y.E.R.R.I.I.I.I.L.Z.l.z.v.v.v.v.V.v.c.m } ).W.T.C.C.C.Z.Y.$X>.- O h ) _ C D A ( A C C D _ J >   5 ].>X>X>XoX X4.3.2.>.:.R 0 Q >Xs.o o W F.H.Z.I.K.K.K.K.K.H.H.K.K.K.K.J.J.J.H.H.H.H.C.G.C.J.} - # 1.gX9XrXeXrX6X9X4X#.+ a.|.'.p.p.[.p.p.p.p.p.p.].'.'.p.p.p.s.p.p.p.p.s.p.u.p.0.5 + K +.#.#.W 5   5.nXNXNXNXBXAXPXPXPXPXPXPXPXPXPXPXPXPXPXPXPXPXPXPXPXPXPXPXPXPXPXPXPXPXPXPXPXPXPXPXPXPXPXPXPXPXPXPXPXPXPXPXPXPXPXPXPXPXPXPXPXPXPXPXPXPX",
"PXPXPXPXPXPXPXPXPXPXPXPXPXPXPXPXPXPXPXPXPXPXPXPXPXPXPXPXPXPXPXPXPXPXPXPXPXPXPXPXPXPXPXPXPXPXPXPXPXPXPXPXPXPXPXPXPXPXPXPXPXPXJXnXr = f.9XrXwXuX5X0 8 g.5X:X2X3X2X#X[.[.].[.].].].].].].].].].p.s.s.s.].s.p.r.q & 0 Y U L U U T w &   , R b V V V S V C C C F B.K.K.K.K.Y.Y.Y.L.U.K.K.I.I.(.{ @ + 6.gXuX,X'.u.{.'.`.3.Q Q E Q W Y *     h ) _ F F _ ` ` ` ` _ _ { H @ O h  XqXOX!.R.R.v.z.G.G.Z K.E.Q.Q.Q.Q.Q.Q.Q.E.K.J.J.H.H.H.J.J.J.K.J.J.J.G.G.G.G.Z.Z.C.C.C.C.C.H.M.C XX&X!.Q.E.Q.W.W.E.E.R.E.E.E.E.E.R.R.R.E.E.Y.B.Z z.N.G.G.B.B.Z.V.V.Z.I.E.R.E.Y.Y.E.Y.Y.Y.Y.E.R.R.I.I.I.K.L.H.z.z.v.v.z.v.b.b.l.N ` ).!.T.T.K.H.G.T.L.oXo.- O q ) _ _ A A A A C C D _ l + + 0 |.>X>X>X#X{.3.2.>.:.^ L 0 ].#Xh   , <.U.Z.I.K.K.K.K.K.J.J.K.K.K.K.J.J.J.J.H.H.H.C.H.H.C.H.g # 0 2X9XrXeXrX6X6X6X'.* r -X'.p.p.'.p.p.p.p.p.p.'.'.p.p.p.p.s.p.i.p.p.s.p.u.u.r.q + 8 +.o.o.o.0   8 kXAXNXNXBXNXJXPXPXPXPXPXPXPXPXPXPXPXPXPXPXPXPXPXPXPXPXPXPXPXPXPXPXPXPXPXPXPXPXPXPXPXPXPXPXPXPXPXPXPXPXPXPXPXPXPXPXPXPXPXPXPXPXPXPXPX",
"PXPXPXPXPXPXPXPXPXPXPXPXPXPXPXPXPXPXPXPXPXPXPXPXPXPXPXPXPXPXPXPXPXPXPXPXPXPXPXPXPXPXPXPXPXPXPXPXPXPXPXPXPXPXPXPXPXPXPXPXPXPXGXkX= 0 :XrXeXwXrX+X4 r :X5X:X2X2X2X|.s.].].[.].].[.].].].].].].].].].p.'.p.p.1., , r Y P U U U T 8   o h J z V V V V V C C C [ G.K.L.L.K.L.Y.Y.L.K.K.I.I.U.F.a + 0 :XzX6X Xe.'.'.].w.Q W W P W ~ 8     5 ) ] _ D F _ ` ` ` ` _ ) b - + 0  XwXOX!.W.W.R.H.l.G.V.G z.Y.Q.Q.Q.Q.Q.Q.Q.E.L.H.H.H.J.J.J.J.J.J.J.J.J.G.H.G.G.Z.Z.C.C.C.C.Z.G.J.A D.&XXXQ.Q.Q.Q.E.E.E.E.E.E.E.E.E.R.R.R.E.E.Y.K.Z G B.N.S.S.B.Z.V.V.Z.K.E.E.R.Y.Y.E.E.Y.E.E.E.E.E.I.I.I.K.K.K.B.z.v.v.z.z.b.v.c.C C _._.T.K.K.H.H.T.K.Y.oXQ @ # g ) S C A A _ C D S _ ) h o @ $.-X>X=X>X X4.2.>.>.:.W 0 E >Xp.& + J F.Z.I.K.K.L.K.K.J.J.J.J.J.J.J.J.J.H.C.H.H.C.H.G.Z.H.| - & s.gXeXeXrX9X9X6X>XI $ +X{.u.'.'.p.p.p.p.p.p.].'.p.p.p.p.p.p.i.p.p.p.p.u.u.r.~ @ , T ..o.#.K + X hXNXNXBXBXVXDXKXPXPXPXPXPXPXPXPXPXPXPXPXPXPXPXPXPXPXPXPXPXPXPXPXPXPXPXPXPXPXPXPXPXPXPXPXPXPXPXPXPXPXPXPXPXPXPXPXPXPXPXPXPXPXPXPXPXPX",
"PXPXPXPXPXPXPXPXPXPXPXPXPXPXPXPXPXPXPXPXPXPXPXPXPXPXPXPXPXPXPXPXPXPXPXPXPXPXPXPXPXPXPXPXPXPXPXPXPXPXPXPXPXPXPXPXPXPXPXPXKXKXDXdX+ @.5XeXwXeXgX6.* *.2X:X2X2X2X-X[.].[.[.[.[.[.].].].].].].].[.].].u.p.p.p.O.@ 8 Y T P L U P K = . > b S V V S C C C S C F N.K.L.L.L.L.L.L.L.L.K.I.I.Y.U.Q @ + r.zXrX>X`.^.'.'.'.>.W W W P W I #   - J _ _ _ D F F F F F ` ] J > + < {.6XXXQ.R.R.R.W.K.l.V.V.k.G Y.Q.Q.Q.Q.).).).E.Y.H.H.H.J.J.J.J.J.J.J.H.G.G.J.G.G.Z.Z.C.C.C.C.Z.Z.J.S.N XXOX).E.Q.E.E.E.Y.Y.E.E.E.E.E.E.E.R.R.R.R.E.z.N l.S.S.S.G.Z.N.N.Z.G.E.E.E.E.E.).).).).E.E.E.E.K.K.R.I.R.R.G.z.v.v.z.z.z.z.z.A V )._.T.C.C.H.T.C.C.C.Y.}.Q # @ h ) F Z A S C S S S _ ) 1   4 s.>X=X>X-X}.2.4.3.>.Q H a 4.<XY   < <.Z.I.K.L.L.K.K.K.H.H.J.J.H.J.J.J.C.G.H.J.J.H.Z.Z.D.F.u + T 5XeXeXeX9XrX1X1X6.# 6.-X'.`.'.'.p.p.p.p.p.].p.p.p.p.p.p.p.p.p.i.p.p.p.p.i.1.: - U ..o.#.W : X g.mXCXNXNXNXDXKXKXKXPXPXPXPXPXPXPXPXPXPXPXPXPXPXPXPXPXPXPXPXPXPXPXPXPXPXPXPXPXPXPXPXPXPXPXPXPXPXPXPXPXPXPXPXPXPXPXPXPXPXPXPXPXPXPXPX",
"PXPXPXPXPXPXPXPXPXPXPXPXPXPXPXPXPXPXPXPXPXPXPXPXPXPXPXPXPXPXPXPXPXPXPXPXPXPXPXPXPXPXPXPXPXPXPXPXPXPXPXPXPXPXPXPXPXPXPXPXPXKXCX5.$ 0.gXrXeXeXgXK 4 a.5X:X:X2X:X+X].].[.].[.[.[.].].].].].].].].].].p.p.[.w.9 @ q Y U L L U T 0 .   h J S S S S C C C S C [ G.I.L.L.L.L.L.L.L.K.T.I.I.U.F.1 + 0 3XlX9X{.e.^.'.'.q.#.W W W P T 4 X   0 ) _ _ _ D ` ` F F F { ) < @ > {.4XXXN.K.E.R.R.R.I.l.V.V.z.Z Y.Q.Q.Q.Q.).).).).).U.G.H.H.J.J.J.J.J.G.H.H.H.G.G.G.Z.Z.C.C.C.C.C.C.J.L.G M.OX.XE.Q.R.E.E.Y.R.E.E.E.E.E.E.E.R.R.R.R.E.H.G A M.S.G.G.Z.N.N.Z.G.Y.R.R.E.E.E.E.).).).E.E.E.Y.L.R.I.L.L.L.v.v.v.z.z.z.z.z.` m ).XXW.C.Z.H.K.K.T.C.H.(.}.h O : J _ A A D C S S _ _ _ R : + I -X=X,X>X X4.3.q.,.:.~ h l >Xd.* + E P.Z.K.L.J.K.K.K.K.K.J.J.H.J.J.J.H.H.H.J.L.J.H.Z.D.P._ @ > +XrXeXwX9XeX1X6X+X4 0 -X].'.'.'.'.p.p.p.p.].'.p.p.p.p.p.p.t.p.p.i.p.p.p.i.8.5 o 0 +.o.Q #.5 X r nXAXNXNXNXAXHXKXKXPXPXPXPXPXPXPXPXPXPXPXPXPXPXPXPXPXPXPXPXPXPXPXPXPXPXPXPXPXPXPXPXPXPXPXPXPXPXPXPXPXPXPXPXPXPXPXPXPXPXPXPXPXPXPXPX",
"PXPXPXPXPXPXPXPXPXPXPXPXPXPXPXPXPXPXPXPXPXPXPXPXPXPXPXPXPXPXPXPXPXPXPXPXPXPXPXPXPXPXPXPXPXPXPXPXPXPXPXPXPXPXPXPXPXPXPXPXKXHXnX= 5 |.gXeXeXrX-X8 0 +X:X2X2X2X-X|.].].[.].[.[.[.'.].].].].].].].].'.p.p.f.*.& , I Y U L L U I 4   : R ) V S S _ D C C S F B.H.K.K.L.L.K.L.K.Y.K.T.R.I.U.) - & 2.zXlX#Xe.t.].'.p.>.Q W W W W 0 +   , Q ] _ _ _ D D ` F ` _ ) 1 - : q.4X,XN.F K.E.R.R.R.E.B.V.V.G.Z U.Q.Q.Q.Q.Q.).Q.E.).Y.K.H.G.H.J.J.J.J.G.G.H.J.G.G.H.Z.C.C.C.C.C.C.C.K.J.S.N .XOX).Q.E.R.R.R.R.R.E.E.E.E.E.W.E.R.R.R.E.Y.z.N l.S.S.B.V.N.N.Z.G.Y.R.R.E.E.E.).).).).).E.E.R.R.R.Y.L.L.L.V.v.v.z.z.z.z.z.' m (.XX!.C.K.K.K.H.C.T.K.H..X}.> o > E _ A F D S S ` ` ` _ h + & 8.<X>X,X>X`.2.q.>.>.#.L y e.3XK o 6 <.H.H.H.H.K.K.K.K.J.J.J.J.J.J.J.J.H.H.H.J.K.K.H.G.H.A.6 - ,.gXeXeXrXeXwX6X5XH : d. Xp.].].'.p.p.p.p.].'.p.p.p.p.p.i.t.p.p.i.p.p.p.i.i.w o 5 ..o.o.$.0 X 8 kXNXNXNXBXCXGXKXKXPXPXPXPXPXPXPXPXPXPXPXPXPXPXPXPXPXPXPXPXPXPXPXPXPXPXPXPXPXPXPXPXPXPXPXPXPXPXPXPXPXPXPXPXPXPXPXPXPXPXPXPXPXPXPXPX",
"PXPXPXPXPXPXPXPXPXPXPXPXPXPXPXPXPXPXPXPXPXPXPXPXPXPXPXPXPXPXPXPXPXPXPXPXPXPXPXPXPXPXPXPXPXPXPXPXPXPXPXPXPXPXPXPXPXPXPXPXKXGXhX# K 3X9XeX6XzXi., O.:X:X2X2X2X#Xf.p.].].[.].].'.].].].].].].].].'.p.p.s.d.K + 0 Y U P P L T q X   6 J b V C C C C S S D G H.K.H.K.K.J.J.K.K.K.K.T.K.I.F.h o 0 3XlX4X`.w.p.[.'.w.o.W W W W T :   + H ) _ _ _ _ _ ` D F D ) h - - W $XOXU.l.G G.).Q.W.Q.E.V.z.V.G.G z.E.Q.Q.Q.Q.Q.).).).E.U.Z.G.H.G.J.J.J.J.C.C.J.J.J.H.Z.C.C.C.C.V.C.C.C.C.Y.[ M.OX.XE.).R.R.Q.E.E.E.R.E.E.E.R.R.R.R.R.R.R.K.A A v.S.V.V.S.S.Z.Z.K.E.L.E.E.E.E.E.Y.Y.Y.Y.Y.R.Y.Y.T.R.L.L.J.v.v.z.z.z.z.B.[ k U.XX_.C.K.K.H.K.T.K.C.K.H.XX,.- o 6 ) F F C _ _ F G ` _ E <   * -X>X,X4X X4.4.3.,.*.P 1 J >Xs.: + E U.H.H.H.K.K.K.J.J.K.K.K.K.J.J.H.J.J.J.H.H.H.H.G.G.H.J - 0 5X9XeXrXeXwX1X9X6.$ %.#X[.p.p.p.p.p.p.p.'.'.p.p.p.p.i.p.t.p.p.i.p.p.p.s.i.*.+ , Y Q Q #.K & * dXMXMXMXNXNXDXHXKXPXPXPXPXPXPXPXPXPXPXPXPXPXPXPXPXPXPXPXPXPXPXPXPXPXPXPXPXPXPXPXPXPXPXPXPXPXPXPXPXPXPXPXPXPXPXPXPXPXPXPXPXPXPXPXPX",
"PXPXPXPXPXPXPXPXPXPXPXPXPXPXPXPXPXPXPXPXPXPXPXPXPXPXPXPXPXPXPXPXPXPXPXPXPXPXPXPXPXPXPXPXPXPXPXPXPXPXPXPXPXPXPXPXPXPXPXPXKXFXy.& #.9X9XeXrXjX%.: 0.:X:X:X<X-X{.p.'.].].[.].].].].].].].].].].p.p.'.p.s.a., * w T U U P P U 8   @ v ) V C C C C C C C D M.I.K.K.K.K.J.K.I.K.K.K.K.Z.U.) : @ 3.zX9XoX^.e.'.`.u.>.E W W W W q     6 | _ _ _ _ _ _ ` F ` ] R - @ h  XOX).' H.' G.E.R.R.R.R.G.z.V.Z.k.G E.Q.Q.Q.Q.Q.Q.Q.Q.Q.Y.G.G.H.G.J.J.J.J.G.G.J.J.J.H.G.Z.C.C.C.C.C.C.C.C.H.H.F .XOXE.).R.R.W.R.E.E.E.E.E.E.R.R.R.R.R.R.R.Y.c.N c.S.B.V.S.N.N.Z.G.Y.R.E.E.E.E.E.Y.E.).Y.Y.E.Y.L.L.T.T.T.K.V.v.z.z.z.z.z.} m D.XX_.C.K.K.K.K.K.K.H.H.H.C.oXE + @ H ] D C D D F A F D _ l @ X Y 3X,X,X>X`.3.3.,.>.^ K < 4.>X0 o 0 A.H.J.L.K.K.K.K.K.K.K.K.J.J.J.J.J.K.J.J.H.H.G.C.C.G.<.; : s.gXrXrXeX6X6X9X#X5 q #X{.p.p.p.p.p.p.p.p.'.p.p.p.p.p.i.p.p.p.i.p.i.p.i.d.6.& & K ..Q #.Y = & g.mXNXMXmXBXDXHXKXPXPXPXPXPXPXPXPXPXPXPXPXPXPXPXPXPXPXPXPXPXPXPXPXPXPXPXPXPXPXPXPXPXPXPXPXPXPXPXPXPXPXPXPXPXPXPXPXPXPXPXPXPXPXPXPX",
"PXPXPXPXPXPXPXPXPXPXPXPXPXPXPXPXPXPXPXPXPXPXPXPXPXPXPXPXPXPXPXPXPXPXPXPXPXPXPXPXPXPXPXPXPXPXPXPXPXPXPXPXPXPXPXPXPXPXPXPXHXAXe : 9.zX9X9XrX5XI , d.2X:X2X2X-X[.p.'.].].].].].].p.].'.].].].].p.p.'.].f.%.+ 4 Y T U U P U H # . < S V V C C C C C C C F H.K.K.K.K.J.K.I.I.K.I.K.U.I.P.h # 5 >XzX4X}.e.u.`.`.w.o.E W W W U =   & R | _ ) _ _ _ _ ] ` ] ) < @ < `.$XXXG.' J.l.Z.Q.W.R.R.E.K.z.V.B.z.Z Y.Q.Q.Q.Q.Q.Q.Q.Q.).).K.G.G.G.J.J.J.G.G.G.J.J.J.J.G.G.C.K.C.J.H.H.C.C.C.U.[ D.OX_.Q.R.R.W.R.E.W.E.E.E.E.R.R.E.W.Q.E.E.E.H.F G v.V.G.S.B.N.V.G.L.E.E.E.E.).E.Y.E.).E.E.E.Y.L.L.L.T.R.L.H.v.z.N.z.z.z.c.m } XX_.C.K.K.K.K.K.K.H.H.K.C.I.}.8 o > ) D ` D D F F F D F _ 6 X # |.,X,X,X X4.>.>.>.:.T 6 l  Xr.$ - | H.H.H.K.K.H.H.J.K.K.K.H.J.J.J.J.K.J.K.H.G.G.H.C.C.F.h O U gXrX6XrXeXeX9X8Xw , d.+X[.p.'.'.'.p.p.p.p.p.p.p.p.p.p.p.p.p.i.p.p.p.i.s.0.8 X 9 ..Q #.@.8 + 5.nXMXMXmXBXAXHXKXPXPXPXPXPXPXPXPXPXPXPXPXPXPXPXPXPXPXPXPXPXPXPXPXPXPXPXPXPXPXPXPXPXPXPXPXPXPXPXPXPXPXPXPXPXPXPXPXPXPXPXPXPXPXPXPX",
"PXPXPXPXPXPXPXPXPXPXPXPXPXPXPXPXPXPXPXPXPXPXPXPXPXPXPXPXPXPXPXPXPXPXPXPXPXPXPXPXPXPXPXPXPXPXPXPXPXPXPXPXPXPXPXPXPXPXPXKXHXnX8 5 #XzX6X9XgX+X8 0 -X2X:X:X:X|.].p.].].].].].].].].].].].].].].p.'.'.].i.q + 0 Y T U L P Y 8   + h ) V V C / / C C C C l.H.K.H.K.K.K.K.K.K.K.K.K.T.U.<.> @ ,.zXgX Xe.e.u.`.^.:.Q Q W W ~ q . X 0 ) ` _ _ ` _ ` ` ` _ ) h & @ 3.,XOX).' l.U.l.B.E.W.R.E.R.Y.v.B.B.B.A H.Q.Q.W.W.W.Q.Q.Q.).).E.J.G.G.J.L.J.C.C.J.J.C.J.G.H.J.K.K.K.K.J.J.C.C.C.R.N.F XXXXE.E.R.E.E.E.E.W.E.E.E.R.R.E.E.E.E.E.E.Y.l.Z l.B.Z.S.B.B.B.B.L.E.E.E.).E.E.E.E.E.E.E.E.E.E.L.L.T.T.L.L.v.z.B.v.z.z.v.B ` XX_.C.K.K.K.K.K.K.K.K.K.C.V.(.q.: O 6 ) ` D F F F F D D ` b 2   K <X,X,X>X{.>.3.>.>.#.h 1 `.#X5 o H F.H.H.K.G.G.G.J.J.J.H.J.J.J.K.K.K.K.K.K.J.G.H.C.C.H.) - 5 :XlXeXrXeXeX9X9X6.: 6.#X[.p.'.'.p.p.p.p.p.p.p.p.p.p.p.p.p.p.i.i.p.p.i.s.r.!   0 W ....+.q + r vXBXBXmXBXAXGXKXPXPXPXPXPXPXPXPXPXPXPXPXPXPXPXPXPXPXPXPXPXPXPXPXPXPXPXPXPXPXPXPXPXPXPXPXPXPXPXPXPXPXPXPXPXPXPXPXPXPXPXPXPXPXPXPX",
"PXPXPXPXPXPXPXPXPXPXPXPXPXPXPXPXPXPXPXPXPXPXPXPXPXPXPXPXPXPXPXPXPXPXPXPXPXPXPXPXPXPXPXPXPXPXPXPXPXPXPXKXPXPXPXPXPXKXPXHXFXdX= 0 5XrX6X9XjXa.& @.-X:X:X:X-X{.s.s.].].].].].].].].].].].].].].p.u.'.s.6., @ w Y U U U T Y =   > R / _ C C C / V V V F Z.H.K.H.H.K.K.K.K.K.K.K.K.T.U.R + > #XzX8X{.e.u.'.`.e.$.W Q W T ! & . > E _ _ _ ` ` ` ` F ` _ J - o L $XOX.XI.Z l.U.l.c.Y.E.R.Q.E.Y.B.B.N.B.G B.).Q.Q.W.W.!.Q.Q.Q.).Q.K.C.C.J.L.J.J.J.J.J.J.J.G.C.J.K.K.K.K.K.J.C.C.V.K.Y.' D.OX).Y.E.).E.E.W.W.E.E.E.R.E.E.E.E.W.E.R.W.G.Z G B.N.S.B.B.B.B.H.L.E.E.).E.E.E.Y.Y.Y.Y.Y.Y.E.E.R.Y.L.L.L.G.z.v.v.z.z.v.N C XX_.K.G.K.I.K.K.K.L.L.J.C.Z.V.}.W o O l _ D D ` F F F _ ` _ 6   & p.,X,X,XoXq.2.>.>.:.W 1 Q #XW + : 4.P.H.G.H.H.H.G.H.G.H.L.K.K.K.K.K.K.J.J.J.H.H.C.Z.H.;.< @ 6.zXwXrXrXeX9X9X+X< I +X[.u.'.s.s.i.i.p.p.p.p.p.s.].s.p.p.p.p.p.p.i.p.p.i.&.  5 P X.X.+.U @ 8 hXBXBXNXBXNXGXKXPXPXPXPXPXPXPXPXPXPXPXPXPXPXPXPXPXPXPXPXPXPXPXPXPXPXPXPXPXPXPXPXPXPXPXPXPXPXPXPXPXPXPXPXPXPXPXPXPXPXPXPXPXPXPXPX",
"PXPXPXPXPXPXPXPXPXPXPXPXPXPXPXPXPXPXPXPXPXPXPXPXPXPXPXPXPXPXPXPXPXPXPXPXPXPXPXPXPXPXPXPXPXPXPXPXPXPXPXKXPXPXPXPXPXKXPXHXDX5.& U zX6X1X9XgX&.@ 0.:X:X:X2X-Xf.p.s.p.'.'.].].].].].].].].s.].].p.p.p.f.+.+ 4 Y Y U L U T q % o 0 E / / C C / / V C S ] H.G.H.H.H.K.K.K.K.K.K.K.K.I.F.< + #.gXlX>Xe.e.u.'.'.>.o.Q Q W ^ 8   # 0 ) _ ` ` F ` _ ` ` _ ) < + > oXOX).Q.N.N M.U.l.l.Y.E.W.Q.E.R.Z.z.Z.B.' ' Y.Q.Q.W.W.!.!.!.).).).E.J.H.J.L.J.J.J.J.J.J.J.G.G.J.J.K.K.K.J.J.C.C.C.C.E.J.N OXXXY.E.).E.E.W.R.E.E.E.E.E.E.E.E.E.R.R.R.Y.l.N l.B.S.B.B.B.B.G.L.E.E.).E.).E.E.Y.Y.Y.E.E.E.Y.I.R.R.K.K.G.z.v.v.z.v.v.C m .X_.T.G.I.I.K.H.J.K.J.H.H.J.V.U.^.< o : ) _ _ C F F ` ` F ] R @   U >X,X,X>X`.2.3.>.:.^ h h ].r.@ o =.P.H.H.H.H.H.G.H.H.H.L.K.K.K.K.K.K.J.J.J.H.Z.Z.Z.H.D.h @ I 8XeXrXeXeX6X9X3X0 5 +X{.'.p.p.i.i.i.p.p.p.p.p.s.].s.p.p.p.p.p.p.p.p.p.p.6.& : U ......T & * ;XBXMXMXBXBXDXKXPXPXPXPXPXPXPXPXPXPXPXPXPXPXPXPXPXPXPXPXPXPXPXPXPXPXPXPXPXPXPXPXPXPXPXPXPXPXPXPXPXPXPXPXPXPXPXPXPXPXPXPXPXPXPXPX",
"PXPXPXPXPXPXPXPXPXPXPXPXPXPXPXPXPXPXPXPXPXPXPXPXPXPXPXPXPXPXPXPXPXPXPXPXPXPXPXPXPXPXPXPXPXPXPXPXPXPXPXKXPXPXPXPXPXKXPXHXCXO.* 6.zX6X1XuX5Xw : +X:X-X:X:X|.s.s.s.].].].].].].].].].].p.p.].].p.'.s.i.0 @ q Y U T P U Y 8 X @ h / V C C _ _ / C C D M.H.H.J.C.G.K.H.K.K.K.K.K.I.P.) - : {.zX6X{.4.e.'.'.e.o.Q Q Q W Y &   - R ) _ ` F F ` _ _ _ ) l @ + w.,X.X!.E.B.N H.J.B.l.(.Q.W.Q.E.R.G.z.Z.M.l.G Y.).W.W.W.!.!.!.).).).W.K.H.J.L.J.J.J.J.J.J.J.G.G.C.J.J.K.K.J.J.C.C.C.C.K.(.D M.,X).E.E.E.E.Q.R.E.E.E.E.E.Q.E.E.E.R.R.E.E.G.Z A c.N.B.B.B.V.G.L.E.E.E.E.E.E.R.Y.E.E.E.E.E.Y.I.I.R.K.K.H.z.v.v.z.B.v.A p .X_.R.G.I.K.K.C.H.J.C.H.H.K.C.V..X=.@ # g ) _ ` A F F ` A F ) < O : p.<X1X4X#Xq.2.>.>.#.R h >.|.0 o 0 <.H.H.G.G.K.K.K.K.H.L.L.L.K.K.K.K.J.J.H.C.Z.Z.Z.K.H.) - , |.lXrXeXeXrX9X8X6.: r.+Xf.p.p.p.i.i.p.p.p.p.p.s.s.].p.p.p.p.p.p.p.p.p.p.0.8 + K ......+.5 + a.mXNXmXMXBXDXKXPXPXPXPXPXPXPXPXPXPXPXPXPXPXPXPXPXPXPXPXPXPXPXPXPXPXPXPXPXPXPXPXPXPXPXPXPXPXPXPXPXPXPXPXPXPXPXPXPXPXPXPXPXPXPXPX",
"PXPXPXPXPXPXPXPXPXPXPXPXPXPXPXPXPXPXPXPXPXPXPXPXPXPXPXPXPXPXPXPXPXPXPXPXPXPXPXPXPXPXPXPXPXPXPXPXPXPXPXPXPXPXPXPXPXKXPXHXkXe , +XlX6X6XuX-X: 0 @X2X:X:X-X[.f.s.p.p.].].].'.'.'.].'.'.p.p.].].'.p.s.6.: & I Y T U U T I *   > J V V C C C V / C C F D.H.H.J.H.H.H.H.H.J.K.K.K.K.^.1 O 0 3XlX>X`.e.'.'.'.3.Q Q Q W W 0   X a ) _ ` ` ` F ` S _ _ ) < + K ,XOXW.W.R.z.A Y.U.B.l.Y.Q.W.Q.R.E.K.z.B.N.c.G H.E.!.W.Q.Q.!.Q.Q.).).).R.H.H.G.C.J.J.J.J.J.J.J.G.C.J.J.J.K.J.G.C.C.C.C.C.).D.m OXOXQ.R.E.E.E.R.E.E.E.R.E.E.R.R.I.I.R.R.E.Y.l.n c.B.B.B.B.G.v.L.R.R.E.E.E.E.E.E.E.E.E.L.L.K.I.K.I.K.Y.K.V.z.v.z.z.v.' p (.XXR.H.K.K.C.C.H.K.J.H.K.K.K.V.Z.}.< X - R ) D F F F F F D D E - o W -X,X1X>X`.2.2.>.,.W h L |.#.  : >.D.H.H.G.K.K.K.K.L.H.J.J.K.K.K.K.J.J.H.H.C.C.C.H.H.;.; O ,.gX9XeXeXeX6X9X{.: #.-Xf.s.p.p.p.p.p.s.p.p.p.s.s.].s.p.p.p.p.p.p.p.i.p.r.q @ q T W ..+.0 + 5.nXmXNXBXNXAXJXPXPXPXPXPXPXPXPXPXPXPXPXPXPXPXPXPXPXPXPXPXPXPXPXPXPXPXPXPXPXPXPXPXPXPXPXPXPXPXPXPXPXPXPXPXPXPXPXPXPXPXPXPXPXPXPX",
"PXPXPXPXPXPXPXPXPXPXPXPXPXPXPXPXPXPXPXPXPXPXPXPXPXPXPXPXPXPXPXPXPXPXPXPXPXPXPXPXPXPXPXPXPXPXPXPXPXPXPXPXPXPXPXPXPXPXPXGXdX8 6 8X9X6X6XgX|.+ ! -X2X:X:X#X[.s.s.p.p.].].].].].].].'.].'.p.].].'.p.d.+.@ 5 ! T U U U Y q + + 0 J C C C V V C C C A } H.H.H.G.G.G.G.G.H.J.K.K.K.I.<.- @ 6.zXrX Xe.^.`.`.t.:.W ^ W W T *   $ J ) _ _ _ F F F S _ ) h - : ^.,X_.W.E.E.z.G Y.H.B.' Y.Q.W.Q.E.R.Y.B.B.N.B.G B.E.!.!.!.!.!.Q.!.)._.).Q.H.C.C.J.J.J.J.J.J.J.J.G.G.C.H.C.C.J.H.C.C.b.C.C.T.).C M.OX.XE.E.E.E.R.E.E.E.R.R.R.R.R.R.I.K.R.E.Y.G.N A M.M.S.V.V.V.H.R.R.Y.Y.Y.Y.Y.E.E.E.E.Y.Y.Y.I.K.Y.L.L.L.G.z.v.z.v.v.} d H._.W.H.K.K.K.C.H.K.J.K.K.C.H.B.l.(.e.: O h ) _ F A F F _ _ F _ 6 o : {.,X6X4X X4.2.3.,.$.L 0 e.r.* + R F.H.G.G.G.K.K.K.K.J.J.J.K.K.K.K.J.K.H.H.H.C.C.K.H.D.g O H 3X9XrXeXwXeXeX-X0 8 ;Xf.f.p.p.p.p.p.s.p.p.p.p.t.p.s.p.p.p.p.p.p.p.p.p.i.T @ 0 T ..+.#.q & r kXMXNXMXNXAXJXPXPXPXPXPXPXPXPXPXPXPXPXPXPXPXPXPXPXPXPXPXPXPXPXPXPXPXPXPXPXPXPXPXPXPXPXPXPXPXPXPXPXPXPXPXPXPXPXPXPXPXPXPXPXPXPX",
"PXPXPXPXPXPXPXPXPXPXPXPXPXPXPXPXPXPXPXPXPXPXPXPXPXPXPXPXPXPXPXPXPXPXPXPXPXPXPXPXPXPXPXPXPXPXPXPXPXPXPXPXPXPXPXPXPXHXPXFXh.4 0 zX9XrX9X9X7.+ 6.:X<X:X:X|.f.s.s.p.p.].].].].].].].'.'.p.p.p.].'.].i.w + q Y U U U T Y 8 o : H V C C V V V V C C A D.H.G.H.J.H.G.H.G.H.J.K.K.I.I.v O 5 #XzX6X`.e.^.`.`.q.#.W ^ +.W 0 o   0 ) _ D _ _ D F F _ _ J < @ T >XXXW.Q.Y.Y.l.' Y.H.H.G U.Q.W.Q.W.E.E.B.B.N.M.' l.E.!.!.!.!.!.!.).).).!.!.R.C.C.C.J.J.J.J.J.J.J.G.Z.G.H.H.C.J.H.C.C.C.C.C.T._.J.M .XOXQ.E.E.R.R.R.E.R.E.R.R.E.E.R.R.R.I.I.I.K.c.n l.B.B.G.V.V.V.K.Y.R.L.K.K.Y.E.E.E.E.E.E.R.Y.L.Y.L.L.L.L.v.v.z.z.v.n.k M._.W.J.K.C.K.C.C.H.H.K.K.C.H.D.l.N.oXL O - J ` F A F F _ _ F F R + o o.>X1X4X>X^.2.>.,.*.W 0 ) {.8   0 F.H.G.G.G.K.K.K.L.J.J.J.K.K.K.K.J.K.J.H.C.Z.H.H.Z.D.) - : +XzXrXeXwXeXrX3X~ : +X+Xf.'.'.p.p.p.s.p.p.p.p.t.p.p.p.p.p.p.p.p.p.p.p.p.#.$ 4 T ..+.#.I & 8 hXNXMXMXNXNXGXPXKXPXPXPXPXPXPXPXPXPXPXPXPXPXPXPXPXPXPXPXPXPXPXPXPXPXPXPXPXPXPXPXPXPXPXPXPXPXPXPXPXPXPXPXPXPXPXPXPXPXPXPXPXPXPX",
"PXPXPXPXPXPXPXPXPXPXPXPXPXPXPXPXPXPXPXPXPXPXPXPXPXPXPXPXPXPXPXPXPXPXPXPXPXPXPXPXPXPXPXPXPXPXPXPXPXPXPXPXPXPXPXPXPXKXJXSXy.* #.zX6XeXeX3XK & d.2X2X:X-X[.f.s.].].p.].].].].].].].].p.p.p.p.p.p.s.0.8 & I Y I U P T r 4 o < J V C C V V V C _ C ` H.K.Z.G.J.H.H.H.H.G.G.H.J.U.A.5 O U gXuX>X^.`.`.`.^.>.Q W +...T 4   @ R _ _ _ _ _ _ D D F ] h @ > `.OX).W.W.Q.I.G B.Y.H.H.G H.E.Q.Q.Q.W.Q.G.B.B.M.l.l.Y.).!.!.!.).).).).Q.Q.!.E.K.G.G.J.J.J.C.C.H.H.H.H.H.H.H.H.J.J.K.C.C.C.C.K.W.).C <.OX.XY.Y.E.R.E.Y.Y.E.R.R.E.E.W.E.R.Y.I.R.E.H.N C M.B.V.V.V.S.G.Y.Y.Y.Y.R.L.E.E.E.E.E.E.R.L.T.E.L.L.Y.L.G.z.z.z.z.z.m F XXW.K.K.K.K.Z.C.H.K.K.H.C.K.G.l.l.(.(.- O h | ' F D D _ _ F F ) 1   > #X1X,X,X}.2.>.>.,.W h h [.+.o , <.H.G.G.H.J.K.K.J.K.K.K.K.K.K.K.J.K.K.H.Z.Z.Z.Z.Z.H.<.; o r.gXrXeXeXeXeX8X8.& a.-Xu.p.p.p.p.s.].s.p.p.p.t.p.p.p.p.p.p.p.p.p.p.p.p.*.: * Y W Q #.T * & dXmXMXmXmXNXFXKXPXPXPXPXPXPXPXPXPXPXPXPXPXPXPXPXPXPXPXPXPXPXPXPXPXPXPXPXPXPXPXPXPXPXPXPXPXPXPXPXPXPXPXPXPXPXPXPXPXPXPXPXPXPXPX",
"PXPXPXPXPXPXPXPXPXPXPXPXPXPXPXPXPXPXPXPXPXPXPXPXPXPXPXPXPXPXPXPXPXPXPXPXPXPXPXPXPXPXPXPXPXPXPXPXPXPXPXPXPXPXPXKXKXKXJXnX5.: f.zXrXeXrX2X, 8 +X2X:X:X+Xf.f.s.].].p.].].].].].].p.p.p.p.p.p.p.'.f.5.* 4 Y T Y L P Y q # o h J V C M V S M C _ C [ U.Y.G.V.J.G.H.H.J.G.G.H.H.U.) $ : e.zX9X Xt.`.`.'.e.:.#.W ..Q K % . 6 ) _ _ _ _ _ _ ` D F ) 2 $ H >X.XY.!.W.W.I.G N.E.H.H.G D.Y.E.Q.Q.Q.Q.H.l.B.B.c.k.H.).Q.Q.Q.).).).).!.!.!.Q.K.G.H.J.J.H.C.C.H.H.J.H.H.H.H.H.J.K.K.C.C.C.C.C.T.).D.C XXXXY.Y.E.W.R.R.Y.E.R.E.Q.W.W.R.Y.Y.Y.L.Y.L.k.m [ B.V.V.G.S.H.U.U.Y.K.R.Y.L.E.E.L.L.E.E.T.E.E.L.L.L.L.G.z.z.z.z.z.C N XX).K.Z.K.K.C.H.H.K.K.H.K.K.H.z.' B..XR + : ) ' F D D D F ` S _ v + + w.,X1X6XoX4.2.>.,.#.L 6 4.[.: + E H.H.H.H.H.J.L.J.K.K.K.K.K.K.K.G.J.K.G.G.H.H.Z.Z.G.D.x O Y 3XuXrXrXrXrX9X{.5 U 5X'.'.p.p.p.].p.p.p.p.p.p.p.p.p.p.p.p.p.p.p.p.p.i.6.8 & K W E o.T 4 X *XnXBXmXmXBXDXHXKXPXPXPXPXPXPXPXPXPXPXPXPXPXPXPXPXPXPXPXPXPXPXPXPXPXPXPXPXPXPXPXPXPXPXPXPXPXPXPXPXPXPXPXPXPXPXPXPXPXPXPXPXPXPX",
"PXPXPXPXPXPXPXPXPXPXPXPXPXPXPXPXPXPXPXPXPXPXPXPXPXPXPXPXPXPXPXPXPXPXPXPXPXPXPXPXPXPXPXPXPXPXPXPXPXPXPXPXPXPXPXKXKXHXJXkXe , :X9X6XeXlX-X+ r ;X2X:X:X|.f.s.s.].].p.].].].].].].p.p.p.p.p.p.'.p.d.O.+ 0 Y U I P P Y 8   - l J V M C C C C C D D D.Y.R.K.v.H.H.G.G.J.C.H.H.K.P.l @ , 3XzX>X`.e.^.`.'.q.o.o.W W W 0   X H ) _ _ _ ` _ ` ` F _ h @ : {.OXQ.E.W.W.R.I.G H.Y.H.H.' B.Y.Q.).Q.Q.Q.Y.l.B.B.z.G H.E.Q.).Q.).).).).!.!.!.!.R.H.H.J.J.J.H.H.C.C.H.H.H.H.H.H.C.J.J.G.G.V.G.C.C.Q.Y.( F.OX).R.R.E.R.R.E.R.E.E.E.E.E.I.R.Y.I.Y.E.E.G.C Z z.B.V.G.B.Z.K.Y.Y.K.R.R.L.Y.E.L.L.L.Y.Y.Y.E.Y.Y.L.L.J.V.v.z.v.B.F m XX).K.K.K.K.H.K.H.H.H.H.K.K.K.B.l.G Y.q.> o h ` ' F D D F F D _ J 5 o h 3X,X6X>Xe.2.2.,.#.L 0 o.-X6 o h D.H.H.H.H.K.K.H.K.K.K.K.K.K.K.H.G.G.H.H.H.K.Z.Z.G.F.) - , #XzXrXeXrXeX9X#X0 5 fX[.p.p.p.p.].i.p.p.p.p.p.p.t.p.p.p.p.p.t.t.p.p.i.r.0 @ q ..W Q W 0 + a.nXBXMXNXBXAXHXKXPXPXPXPXPXPXPXPXPXPXPXPXPXPXPXPXPXPXPXPXPXPXPXPXPXPXPXPXPXPXPXPXPXPXPXPXPXPXPXPXPXPXPXPXPXPXPXPXPXPXPXPXPXPX",
"PXPXPXPXPXPXPXPXPXPXPXPXPXPXPXPXPXPXPXPXPXPXPXPXPXPXPXPXPXPXPXPXPXPXPXPXPXPXPXPXPXPXPXPXPXPXPXPXPXPXPXPXPXPXPXPXKXHXJXhX4 5 gX9X6XrX9Xi.+ 5.:X2X2X-Xf.[.s.s.].].p.].].].].].].p.p.p.p.p.p.].s.r.w + w Y U U P T Y * o 6 J J b V V C S C V D F U.I.R.R.V.Z.H.G.H.K.C.H.C.H.<.1 @ U zXrXoX`.t.`.'.e.>.Q W W W Y :   : E _ _ _ _ D _ ` F F E < o h ,X.XQ.W.W.W.R.K.Z H.Y.H.L.[ M.Y.Q.).Q.Q.Q.R.z.z.M.M.G G.Q.Q.).Q.).).).).Q.Q.Q.Q.Q.K.G.H.H.J.J.J.H.J.J.J.J.J.H.H.C.J.C.G.G.V.G.V.C.R.).n.( XXXXE.R.R.E.E.R.R.E.E.R.R.E.R.R.R.I.R.R.R.L.l.N l.B.B.G.B.N.H.Y.Y.K.R.R.L.L.Y.E.L.L.L.E.E.E.E.Y.L.L.K.Z.z.z.v.B.' n )..XI.K.K.K.H.K.H.J.J.J.C.H.K.Z.l.G Z.}.L + > ) ` A F F F A D _ ) h O : |.,X6X,X`.2.,.,.$.W h h #X^ + < <.H.G.H.J.K.K.K.K.K.K.K.K.K.K.H.G.G.G.H.H.K.Z.Z.Z.D.;.< - [.9X6XeXrXeXrX3XT , -X#Xp.p.p.p.].p.i.i.p.p.'.p.t.p.p.p.t.t.t.t.p.p.i.i.K + 0 +.W W +.w + O.vXNXBXNXBXAXHXHXPXPXPXPXPXPXPXPXPXPXPXPXPXPXPXPXPXPXPXPXPXPXPXPXPXPXPXPXPXPXPXPXPXPXPXPXPXPXPXPXPXPXPXPXPXPXPXPXPXPXPXPXPXPX",
"PXPXPXPXPXPXPXPXPXPXPXPXPXPXPXPXPXPXPXPXPXPXPXPXPXPXPXPXPXPXPXPXPXPXPXPXPXPXPXPXPXPXPXPXPXPXPXPXPXPXPXPXPXPXPXPXJXJXFXdX* U jX9XeXrX9X#.@ 0.5X:X:X+Xp.f.s.].].'.].].].].].].].p.p.'.p.p.].].i.6.5 : I T K U P T r   o h J J / / V C C C C C M.U.I.R.E.H.V.G.G.H.C.C.C.C.J.| > - s.zX9X}.^.'.`.^.e.:.W W ^ Q I X o h ) _ _ _ _ D ` D F _ h + + ^.$X).W.W.W.W.E.H.G H.Y.K.L.l.[ Y.Q.Q.Q.!.Q.E.Z.z.M.B.' B.E.).Q.).!.!.!.).W.Q.Q.Q.Q.E.G.G.C.H.J.J.H.G.G.G.G.J.J.G.G.G.G.G.G.G.G.V.Z.C.W.L.C P.OXQ.E.R.R.Q.Q.R.E.E.R.E.E.R.E.E.R.R.R.E.T.G.Z A v.M.B.B.B.H.Y.Y.Y.R.R.L.Y.Y.Y.Y.Y.E.E.E.E.Y.Y.Y.L.L.H.z.z.z.v.c.p H.XXR.K.K.H.H.H.J.J.J.J.H.J.J.Z.z.k.z.U.<.- O h { ` F F F A D _ _ J - o #.9X1X,X X4.>.3.>.^ H 1 e.s.@ - | D.H.H.J.K.K.K.K.K.J.J.H.H.C.H.G.G.G.G.G.H.H.K.C.H.A.h - +.8X9XeXrXeXrX9X*., i.3Xp.p.p.s.s.p.i.p.p.p.p.p.p.p.p.p.p.p.p.p.t.t.t.s.~ @ 8 T T W ^ w * 8 kXNXMXNXBXNXGXHXPXPXPXPXPXPXPXPXPXPXPXPXPXPXPXPXPXPXPXPXPXPXPXPXPXPXPXPXPXPXPXPXPXPXPXPXPXPXPXPXPXPXPXPXPXPXPXPXPXPXPXPXPXPX",
"PXPXPXPXPXPXPXPXPXPXPXPXPXPXPXPXPXPXPXPXPXPXPXPXPXPXPXPXPXPXPXPXPXPXPXPXPXPXPXPXPXPXPXPXPXPXPXPXPXPXPXPXPXPXPXPXKXJXDXh.* 6.gX9XrXrX8X0 , g.5X2X:X|.p.f.f.].].'.].].].].].].].].'.p.p.'.].s.i.*.& 8 I I L L U Y 0   : H ) J / / V C C V C D D.Y.R.E.W.R.V.Z.H.G.G.C.C.C.H.J @ > 3XzX>X`.^.'.`.'.4.#.#.+.^ W 8 . @ J _ _ _ _ D ` ` ` ` S 6 + 0 $XXXQ.!.W.W.W.E.H.G I.Y.L.L.c.G Y.Y.).Q.!.Q.E.G.l.M.M.' l.Y.Q.).Q.!.!.!.).Q.Q.Q.Q.Q.Q.K.Z.C.H.K.L.J.J.H.G.H.J.J.H.C.C.C.C.J.J.C.G.V.C.R._.} _ OXXXY.R.R.Q.E.E.E.E.W.E.R.R.R.E.E.R.R.R.R.L.' N c.v.B.B.B.H.U.E.E.R.R.L.Y.E.E.E.E.E.E.E.E.T.T.Y.L.K.H.V.v.z.z.v.p v.XXE.K.K.H.H.H.J.J.L.J.J.J.J.C.z.l.z.Z.^.h O < ) ` F F F ` ` _ _ ) 6   8 3X1X,X>Xe.>.>.>.:.U 6 o.{., O E F.H.G.G.K.K.K.K.K.J.H.G.Z.Z.H.J.H.G.G.K.K.H.K.C.K.P.) - 0 3X9XeXrXrXeX9Xd.4 T gX].s.p.p.p.p.i.p.p.p.p.p.p.].p.p.p.p.p.p.p.t.e.i.%.& 4 ~ +.Q ^ I * & kXNXBXNXBXBXFXHXPXPXPXPXPXPXPXPXPXPXPXPXPXPXPXPXPXPXPXPXPXPXPXPXPXPXPXPXPXPXPXPXPXPXPXPXPXPXPXPXPXPXPXPXPXPXPXPXPXPXPXPXPXPX",
"PXPXPXPXPXPXPXPXPXPXPXPXPXPXPXPXPXPXPXPXPXPXPXPXPXPXPXPXPXPXPXPXPXPXPXPXPXPXPXPXPXPXPXPXPXPXPXPXPXPXPXPXPXPXPXPXPXJXBX5.= |.gXrXeX9X3X8 8 @X5X3X-X[.p.f.s.].].'.].].].].].].].].].].'.].p.p.a.Y @ q Y U L L P Y 4   > R ) / / / C D C C C F U.Y.Q.E.E.R.K.B.G.H.G.Z.C.C.M.s @ P gXgX$X^.`.].'.'.>.Q W ^ ^ E * . 5 ) ` _ _ D D ` ` ` ` b : # 7.,X.XQ.!.!.!.W.Q.G.j.U.L.L.U.B.F U.Q.).).).Q.E.U.l.B.M.l.G U.Q.).Q.!.!.Q.).!.!.Q.Q.Q.Q.R.C.C.H.J.J.J.J.J.J.J.J.J.H.J.K.K.K.K.K.K.G.G.C.T._.U.V (.OXQ.E.R.E.E.E.R.R.E.E.R.E.R.R.E.E.I.R.R.R.B.N A M.N.B.B.N.K.Y.Y.R.R.E.E.E.E.E.E.E.E.E.E.L.T.E.K.K.K.Z.z.z.z.n.m ' XXQ.J.H.J.H.J.J.L.L.J.J.J.K.H.z.z.z.z.U.| - - J _ F F F ` ` _ D _ q # * {.,X1X3X{.>.3.,.>.T 0 l {.0 O H F.H.H.H.K.K.K.K.K.H.H.Z.Z.Z.H.H.H.H.G.H.H.H.H.C.Z.F.| - 5 +XrXeXeXrXeX9X#X8 8 5X{.p.s.s.p.p.i.p.p.p.p.p.p.p.p.p.p.p.p.p.p.p.e.i.*.: : ! T Q ^ Y 4 # hXmXNXNXBXBXDXKXKXPXPXPXPXPXPXPXPXPXPXPXPXPXPXPXPXPXPXPXPXPXPXPXPXPXPXPXPXPXPXPXPXPXPXPXPXPXPXPXPXPXPXPXPXPXPXPXPXPXPXPXPXPX",
"PXPXPXPXPXPXPXPXPXPXPXPXPXPXPXPXPXPXPXPXPXPXPXPXPXPXPXPXPXPXPXPXPXPXPXPXPXPXPXPXPXPXPXPXPXPXPXPXPXPXPXPXPXPXPXPXJXHXnXe 4 -X9XeX6X9X-X, w :X<X2X#Xf.p.f.f.].s.p.p.].].].].].].].].p.s.p.p.p.a.0 & w T U K L Y r &   6 E V V / _ C S C C N M.U.Q.E.E.E.E.I.B.V.G.H.C.C.Z.| > @ p.zX9X X'.'.'.'.e.:.Q W ..+.I + o a _ ` A F S S F F D _ h @ 4 }.OXY.U.W.W.W.E.E.M.' U.Y.K.K.D.F H.Y.).Q.!.Q.E.Y.l.B.z.c.Z U.Q.).Q.!.!.Q.).!.!.!.Q.!.!.W.H.Z.H.J.J.J.J.J.J.J.J.J.J.J.J.H.J.J.K.J.H.G.C.C.!.).' D ,X.XI.R.R.).E.R.R.R.R.E.E.E.E.E.E.R.I.E.R.J.G N c.B.Z.B.B.H.I.I.I.E.R.R.R.R.R.E.E.E.E.E.L.L.E.K.K.K.J.V.z.z.v.( N _._.K.Z.K.H.J.K.K.J.J.G.H.H.J.v.l.l.j.C.F.; o h ) _ ` F F ` _ _ _ J @ X &.6X1X,X X>.2.3.,.W h 1 i.*.O 5 <.D.Z.H.H.H.K.K.H.G.G.G.H.G.G.G.G.J.J.J.J.L.G.Z.Z.H.<.1 - 6.gXrXeXwXrX9X5XK , @X Xu.].p.p.p.p.p.p.p.p.p.p.p.p.t.t.p.p.p.p.p.p.i.8.4 * ! T Q +.T 8 + ;XmXMXNXBXNXAXKXHXPXPXPXPXPXPXPXPXPXPXPXPXPXPXPXPXPXPXPXPXPXPXPXPXPXPXPXPXPXPXPXPXPXPXPXPXPXPXPXPXPXPXPXPXPXPXPXPXPXPXPXPXPX",
"PXPXPXPXPXPXPXPXPXPXPXPXPXPXPXPXPXPXPXPXPXPXPXPXPXPXPXPXPXPXPXPXPXPXPXPXPXPXPXPXPXPXPXPXPXPXPXPXPXPXPXPXPXPXPXPXJXGXvX4 8 2X6X6X6X9X|.& T 5X2X2X+Xf.s.f.f.].].p.p.].].].].].].].s.p.p.p.f.s.9., * I T U K P Y e X + h J V V / C C C C V D H.Y.Q.Q.R.R.E.W.Z.v.G.Z.C.C.K.) - : >XzX8X`.'.'.'.'.4.=.o.W W +.8   @ l _ ` F D S _ F F D S < o U 4X_.Q.Y.W.W.!.E.Y.c.[ U.Y.K.K.D.F D.Y.).Q.W.Q.E.Y.B.z.B.z.N J.Q.).Q.!.Q.Q.Q.!.!.!.Q.!.!.Q.K.Z.H.J.J.J.J.J.J.J.J.J.J.H.H.H.H.J.J.J.H.G.C.C.R.).J.k }.OXQ.R.R.E.Y.R.E.E.E.E.E.E.E.R.R.R.E.R.R.I.c.N ' M.B.B.B.G.Y.Y.E.E.R.R.R.R.R.R.Y.E.E.E.L.L.Y.T.K.T.K.V.v.z.m.' m )._.K.Z.H.H.H.J.K.K.J.K.K.G.G.B.l.l.l.V.J.h O < / ` F F F ` _ _ _ ) -   Y 4XwX6X$X2.>.>.:.#.L 1 :.r.@ @ <.D.Z.K.H.H.K.K.H.H.H.Z.G.G.H.J.J.J.J.J.G.J.G.H.C.H.P.h O P 8X6XeXeXrX9X9X..@ a.-Xu.p.p.p.p.p.p.p.p.p.p.p.p.p.t.p.p.p.p.p.p.t.p.0.8 $ I W W +.^ 0 + a.mXMXNXNXBXAXKXPXPXPXPXPXPXPXPXPXPXPXPXPXPXPXPXPXPXPXPXPXPXPXPXPXPXPXPXPXPXPXPXPXPXPXPXPXPXPXPXPXPXPXPXPXPXPXPXPXPXPXPXPXPX",
"PXPXPXPXPXPXPXPXPXPXPXPXPXPXPXPXPXPXPXPXPXPXPXPXPXPXPXPXPXPXPXPXPXPXPXPXPXPXPXPXPXPXPXPXPXPXPXPXPXPXPXPXPXPXPXPXKXGXkX= w 3X9XeX9X9X0.: *.5X2X-X|.s.s.[.[.].].p.'.].].].].].].p.s.s.p.p.f.f.6.& 4 I T U I U Y 8   : R b V V / _ C C C V [ U.Y.Q.W.W.R.W.Q.I.v.V.Z.C.K.D.x - h 3XzX>X'.`.'.'.p.2.o.o.W W +.4   > E _ ` D D _ _ F A _ b > + 3.$X!.Q.Q.W.W.!.W.Y.l.M.U.Y.K.K.H.` c.).Q.W.W.Q.E.(.H.l.B.z.A A.Q.).Q.!.!.!.Q.!.!.!.Q.!.!.Q.E.C.H.H.J.J.J.J.J.J.J.J.J.H.H.H.G.J.J.C.H.G.C.C.K.).).C ;.,X.XW.R.E.R.R.E.E.E.E.E.E.R.I.I.R.E.I.R.R.H.A N c.B.B.B.Z.Y.Y.Y.E.R.R.R.R.R.R.Y.E.E.E.L.L.E.L.K.K.K.C.b.v.v.' m J._.K.Z.J.J.J.J.H.J.J.K.K.G.K.G.l.l.l.z.D.| - - v _ _ F A F ` _ ` _ <   0  X1X6X>X4.2.>.>.$.P 6 L d.> @ ) F.Z.Z.H.H.K.K.H.H.H.Z.Z.Z.J.J.J.J.J.J.G.J.H.H.K.G.P.v - 0 3X9XeXeXrX9X9X8.: *.2Xp.p.p.p.p.p.p.p.p.p.p.p.p.p.p.p.p.p.p.p.p.t.p.i.0 $ q W W ^ +.0 + 5.nXMXNXNXNXCXHXPXPXPXPXPXPXPXPXPXPXPXPXPXPXPXPXPXPXPXPXPXPXPXPXPXPXPXPXPXPXPXPXPXPXPXPXPXPXPXPXPXPXPXPXPXPXPXPXPXPXPXPXPXPX",
"PXPXPXPXPXPXPXPXPXPXPXPXPXPXPXPXPXPXPXPXPXPXPXPXPXPXPXPXPXPXPXPXPXPXPXPXPXPXPXPXPXPXPXPXPXPXPXPXPXPXPXPXPXPXPXPXJXDXsX& +.5X6X6X9XgX#.: 0.5X2X-X[.s.s.[.[.].].p.].].].].].].].i.p.p.p.p.p.f.! + 8 I U U Y U Y =   5 E b V V / V V V C C M.Y.Q.W.Q.W.W.W.E.E.V.v.Z.C.Z.A.1 - ,.9X9X#Xu.'.'.'.t.>.o.W W +.W *   6 ) C D _ D _ ` F ( _ h @ 6 |.XXQ.W.Q.Q.W.!.W.U.l.N.Y.E.K.I.K.[ [ ).Q.W.W.Q.Q.).U.l.B.z.G [ Q.).Q.W.Q.Q.Q.!.!.Q.Q.!.!.Q.E.K.Z.G.H.J.H.G.G.H.J.H.J.H.G.G.G.G.J.C.G.G.C.C.C.Q.).M.M .XOXQ.R.E.E.R.R.R.R.R.E.E.R.I.I.R.R.I.R.Y.U.c.m ' M.B.B.Z.K.Y.Y.Y.R.I.I.R.R.R.R.E.E.Y.L.L.Y.K.K.K.K.K.V.v.v.c.m A._.T.G.K.L.K.J.H.J.K.K.K.K.K.G.z.l.l.l.B.<.; O h _ _ ` F F ` ` ` _ h   * '.6X6X6X`.2.3.,.*.W 9 h s.0 @ H F.H.K.G.H.J.H.G.H.H.H.H.H.H.J.J.J.J.K.J.J.H.H.Z.G.H.] > 6 +XlXeXeXeX6X9X|.: I :X{.s.p.p.p.p.p.p.p.p.p.p.p.p.p.p.p.p.p.p.p.p.p.i.q $ q W W ^ +.w @ e nXMXNXNXNXAXGXPXPXPXPXPXPXPXPXPXPXPXPXPXPXPXPXPXPXPXPXPXPXPXPXPXPXPXPXPXPXPXPXPXPXPXPXPXPXPXPXPXPXPXPXPXPXPXPXPXPXPXPXPXPX",
"PXPXPXPXPXPXPXPXPXPXPXPXPXPXPXPXPXPXPXPXPXPXPXPXPXPXPXPXPXPXPXPXPXPXPXPXPXPXPXPXPXPXPXPXPXPXPXPXPXPXPXPXPXPXPXPXHXAXa.* 6.8X6X6X9XfXI 5 |.5X>X X[.p.s.].[.].].].].].].].].].].p.p.s.s.s.p.f.0 @ 0 U U U Y U r + o 0 J V V V _ C C V C F D.Q.Q.W.W.W.W.Q.Q.E.K.z.C.Z.H.<.> - ].zX9X{.t.'.'.p.e.:.o...W +.K # o h / C D _ C D F A ` ) 6 o h >X.XQ.!.W.W.!.!.W.U.' H.E.E.T.I.I.M.' Y.).Q.Q.Q.).).Y.z.v.z.l.F Y.Q.).!.!.!.).!.!.!.Q.!.!.Q.R.K.Z.H.H.J.G.G.G.G.J.J.J.G.G.G.G.G.C.C.G.G.G.C.V.K.).Y.V <.OX.XE.E.E.R.R.R.R.R.E.E.I.R.R.R.R.I.K.Y.Y.S.N Z l.B.B.B.H.E.Y.Y.R.R.R.R.R.R.R.E.E.Y.L.L.L.K.K.K.K.L.G.v.b.v.N ' _.E.G.J.K.J.H.J.J.J.K.K.H.H.G.B.l.l.j.N.M.g O 6 / _ _ F C ` ` D ` J o o 3.4X1X6X}.2.2.3.,...h 6 r.~ @ 6 4.D.H.H.J.J.H.H.H.H.H.H.H.J.J.J.J.H.H.J.J.G.H.G.G.H.;.< - r.gXrXrXrX9X9X>X< 0 #X|.p.p.p.p.p.p.p.p.'.p.p.p.p.p.p.p.p.p.p.p.p.u.i.Y $ 0 ..W W +.K @ 4 vXMXNXNXNXAXFXPXPXPXPXPXPXPXPXPXPXPXPXPXPXPXPXPXPXPXPXPXPXPXPXPXPXPXPXPXPXPXPXPXPXPXPXPXPXPXPXPXPXPXPXPXPXPXPXPXPXPXPXPXPX",
"PXPXPXPXPXPXPXPXPXPXPXPXPXPXPXPXPXPXPXPXPXPXPXPXPXPXPXPXPXPXPXPXPXPXPXPXPXPXPXPXPXPXPXPXPXPXPXPXPXPXPXPXPXPXPXPXHXAXO.: s.9X6XeX9X5Xw 0 #X3X>X{.'.s.].].].].].].].].].].].].].].].p.p.s.p.p.5 & w I U U Y T 0 + @ H ) V V V C C C C C ` H.Q.Q.W.W.W.W.Q.Q.E.E.B.V.C.D.J - 6 #XlX4X'.^.^.'.`.w.#.o.+.W +.0 X @ l _ C _ ) / D F A ] J < @ =.=XY.).Q.W.W.!.W.W.H.' H.Q.W.R.R.I.B.F U.Q.Q.!.Q.).).).v.v.v.l.Z Y.Q.Q.).).).).!.).).!.!.!.!.W.R.K.G.G.H.G.H.G.G.G.J.J.G.G.G.G.G.G.G.H.G.G.V.V.C.W.).} S oXOXQ.E.E.R.R.R.R.E.R.I.R.E.R.R.I.I.I.Y.Y.J.[ n ' v.B.B.G.Y.Y.Y.E.Y.Y.E.E.E.E.E.E.Y.L.L.L.K.K.K.K.K.J.V.b.B.F C (.).J.J.J.H.J.J.J.J.K.K.G.G.G.B.l.c.j.j.M./ O - J _ _ F C ` F F ` ) @   +.>X1X6XoX4.>.3.,.#.h 1 6.#.O - e.D.H.J.L.L.J.J.J.J.J.J.J.J.J.J.G.G.G.H.C.H.H.H.G.H.A.a O ,.gXrXrXrXrX9X8X0 6 d.#Xp.p.p.p.p.p.p.p.p.p.t.p.p.p.p.p.'.p.p.p.p.u.i.@.$ 8 W W W ^ K * & kXMXVXNXNXNXFXPXPXPXPXPXPXPXPXPXPXPXPXPXPXPXPXPXPXPXPXPXPXPXPXPXPXPXPXPXPXPXPXPXPXPXPXPXPXPXPXPXPXPXPXPXPXPXPXPXPXPXPXPXPX",
"PXPXPXPXPXPXPXPXPXPXPXPXPXPXPXPXPXPXPXPXPXPXPXPXPXPXPXPXPXPXPXPXPXPXPXPXPXPXPXPXPXPXPXPXPXPXPXPXPXPXPXPXPXPXPXHXHXCX8 4 |.9X1XeXgX-X0 q :X3X>X[.p.].].].].].].].].].].].].].].p.p.p.i.s.s.3.: , Y U U U Y @.8   : R V V V V V V V V C } U.Y.Q.W.W.W.W.Q.Q.Q.E.G.j.C.D.a - U 3X9X>X^.^.^.'.`.q.o.#.+.W +.,   * E _ A _ ) / D F A ` J - 2 `.XXY.(.).Q.Q.W.W.W.H.G H.E.W.R.R.K.B.A U.).!.!.Q.).).).V.z.v.z.Z H.).).!.W.!.).!.).).!.!.!.!.W.W.K.Z.Z.H.G.J.H.J.J.H.H.H.G.H.H.C.J.J.H.G.G.G.V.C.R._.(.z P.OX.XR.E.R.R.E.E.R.R.I.R.E.R.I.K.I.I.Y.Y.L.S.N A z.B.B.N.U.Y.Y.E.Y.Y.).).E.E.E.E.Y.L.L.L.L.K.T.T.K.K.V.b.v.] N J.).K.H.J.J.H.J.J.J.K.K.H.G.G.N.z.c.j.j.l.) - + x ) _ ` A F F F F ) 4   0 #X,X6X>Xe.>.>.,.$.L 1 #.6.$ @ 4.D.H.J.L.L.L.L.L.L.L.L.L.J.J.J.H.J.J.H.K.G.H.G.Z.Z.D.H - W 8XlXrXrXeX6X9XW : r.-Xs.p.p.p.p.p.p.p.p.p.t.p.p.p.p.p.'.'.p.'.p.u.i.O.$ 5 T W W +.Y : + hXMXVXNXNXNXDXPXPXPXPXPXPXPXPXPXPXPXPXPXPXPXPXPXPXPXPXPXPXPXPXPXPXPXPXPXPXPXPXPXPXPXPXPXPXPXPXPXPXPXPXPXPXPXPXPXPXPXPXPXPX",
"PXPXPXPXPXPXPXPXPXPXPXPXPXPXPXPXPXPXPXPXPXPXPXPXPXPXPXPXPXPXPXPXPXPXPXPXPXPXPXPXPXPXPXPXPXPXPXPXPXPXPXPXPXPXPXPXGXmX8 8 #X9X1XrXgX+X8 K 5X3X#X[.s.p.p.].].].].].].].].].].].].s.s.'.'.].f.#.+ 4 T U U U T Y =   < ) V V V V / / C C D N.Q.W.W.W.W.W.W.Q.Q.Q.Q.I.l.N.A.< + *.6X9X X^.^.^.'.t.3.X.X...W @.=   > S S S S S C S F ` | H O < oX.XE.Q.).!.!.Q.Q.Q.B.G Y.W.W.R.I.I.H.G H.).Q.!.!.!.W.!.H.l.z.v.A M.).).!.W.!.).Q.Q.!.Q.Q.Q.Q.W.Q.E.Z.Z.H.G.H.H.J.H.G.G.H.G.H.J.J.H.H.G.G.G.G.V.V.K.W.Q.` ) $XXXW.R.E.R.E.E.R.R.R.E.E.R.I.R.I.T.R.R.R.G.G m k.B.B.v.L.E.Y.Y.Y.Y.Y.Y.Y.Y.E.E.E.K.L.E.K.K.I.I.K.K.Z.z.z.c.N A.(.L.J.J.K.J.J.J.K.K.Z.H.G.G.H.z.l.j.l.l.] 1 + a ) D A ` F D A F ) 0   4  X,X6X,X`.2.2.,.$.L 6 L 6.: + Q D.H.J.L.L.L.J.J.J.L.J.J.H.H.H.G.H.H.H.G.K.H.H.Z.Z.D.) - 0 #XrXeXeXeXeX9X6.* 6.-X].i.p.'.p.p.p.p.'.p.t.p.p.p.p.p.p.p.p.p.t.p.i.*.* 4 ! W W W T : + sXVXNXBXBXNXDXPXPXPXPXPXPXPXPXPXPXPXPXPXPXPXPXPXPXPXPXPXPXPXPXPXPXPXPXPXPXPXPXPXPXPXPXPXPXPXPXPXPXPXPXPXPXPXPXPXPXPXPXPXPX",
"PXPXPXPXPXPXPXPXPXPXPXPXPXPXPXPXPXPXPXPXPXPXPXPXPXPXPXPXPXPXPXPXPXPXPXPXPXPXPXPXPXPXPXPXPXPXPXPXPXPXPXPXPXPXPXPXJXkX4 w -X9X1XrXgXd., @.5X>X#X'.s.p.p.].].].].].].].].].].].].s.s.'.'.p.f.U + 8 Y U U U T r * o 0 b V V V / / / C C F D.Q.W.W.W.Q.Q.Q.Q.Q.Q.Q.W.B.B.{ - * r.rX9X`.`.`.'.t.e.:.X.X...W Y & X 6 S S S S S S S D ` | h O H oXQ.Q.).!.Q.W.W.Q.E.z.' Y.W.W.R.R.Y.H.G N.Q.Q.!.!.!.Q.Q.I.l.z.M.G ' ).).!.!.).).!.!.!.Q.Q.Q.W.W.W.Q.H.Z.G.G.G.G.H.H.G.G.H.G.H.J.H.G.G.V.G.G.G.G.Z.H.W.).F.V (.OX.XR.R.R.E.E.E.R.R.E.E.R.I.R.I.R.R.R.R.K.M.n G z.v.z.J.E.E.Y.Y.Y.Y.Y.Y.Y.E.E.E.L.L.E.K.K.K.K.K.K.G.z.z.M.C [ (.L.H.H.K.H.H.H.K.K.H.K.H.G.G.z.z.j.j.l.} a O < ) D A ` F D F F ) h   * {.4X6X6X}.2.>.,.$.P 6 h 0.8 o v D.G.H.L.L.L.J.J.J.J.J.J.K.G.G.K.G.G.H.G.G.G.H.Z.Z.H.<.> : {.lXrXeXeXeX9Xd.& &.:X[.i.p.'.'.'.p.'.p.p.p.p.p.p.p.p.p.p.p.p.].p.i.6.* 4 Y W W ..T , + g.VXNXNXBXNXDXPXPXPXPXPXPXPXPXPXPXPXPXPXPXPXPXPXPXPXPXPXPXPXPXPXPXPXPXPXPXPXPXPXPXPXPXPXPXPXPXPXPXPXPXPXPXPXPXPXPXPXPXPXPX",
"PXPXPXPXPXPXPXPXPXPXPXPXPXPXPXPXPXPXPXPXPXPXPXPXPXPXPXPXPXPXPXPXPXPXPXPXPXPXPXPXPXPXPXPXPXPXPXPXPXPXPXPXPXPXPXPXJXhX4 I 3X9X1XrXgXr., ,.5X>X|.'.s.p.p.].].].].].'.].].].].].].s.s.'.'.s.d.0 + w Y U U T T 0 + @ H b V V V V / / C C G U.Q.W.W.W.Q.Q.Q.Q.W.Q.Q.Q.Z.M.S - 5 |.rX4X`.'.'.'.t.w.o.......W w X o h S S S S C S D D ` ) < @ :.oXQ.Q.).Q.W.W.W.Q.Y.l.l.Y.E.W.W.E.E.U.[ l.).Q.!.!.!.Q.Q.E.z.z.B.k.Z ).Q.!.!.!.).!.!.Q.W.Q.!.Q.W.W.Q.I.Z.G.H.G.G.G.H.G.G.H.G.H.J.G.G.G.G.G.G.G.G.Z.Z.T.).(.S { OXXXE.R.E.R.R.R.R.R.E.E.R.R.R.I.R.R.R.R.L.H.A N l.z.v.G.Y.E.Y.Y.Y.U.U.Y.Y.E.E.E.L.Y.R.K.K.K.K.K.K.J.Z.z.B.F A (.Y.H.H.K.H.C.K.K.K.H.K.H.G.G.B.z.l.j.l.} g O > b S A ` ` D F F _ H o @ p.6X9X9X X2.>.,.$.Q 9 h 9.0 o h F.G.H.L.L.L.J.J.J.H.J.J.H.G.H.K.H.Z.Z.G.G.G.Z.H.Z.Z.<.< @ r.lXrXeXrXeX9X#X: ! -X{.p.p.p.p.'.p.p.'.p.p.p.p.p.p.p.p.p.p.p.].p.i.6.: : Y W W ..^ 5 + y.MXNXMXBXNXAXKXPXPXPXPXPXPXPXPXPXPXPXPXPXPXPXPXPXPXPXPXPXPXPXPXPXPXPXPXPXPXPXPXPXPXPXPXPXPXPXPXPXPXPXPXPXPXPXPXPXPXPXPXPX",
"PXPXPXPXPXPXPXPXPXPXPXPXPXPXPXPXPXPXPXPXPXPXPXPXPXPXPXPXPXPXPXPXPXPXPXPXPXPXPXPXPXPXPXPXPXPXPXPXPXPXPXPXPXPXPXPXGXh.4 +.8X9X1XrXgX6., 0.5X>X{.p.s.p.p.].'.'.'.].'.p.].].].].].i.p.'.'.s.i.8 + I Y U U T T 8   : J V V V V V / / C C [ U.Q.W.W.W.W.Q.Q.Q.Q.W.Q.Q.I.D.g - 0 3XeX>X`.`.'.p.p.q.o.....W ^ q X o l S S ) _ S D D D ` / - : ^.XXQ.Q.Q.Q.!.!.Q.Q.Y.G B.E.E.W.W.E.E.U.[ [ ).Q.!.!.W.Q.Q.E.z.l.B.c.N Y.).!.!.!.).!.Q.W.Q.Q.).!.Q.Q.Q.Q.H.Z.G.H.G.G.G.G.G.H.G.G.H.G.G.G.G.G.H.G.G.Z.C.C.W.).A.M .XOXQ.I.R.R.R.I.R.R.E.E.R.R.R.I.Y.R.R.R.Y.L.c.N ' z.v.B.L.Y.Y.Y.Y.Y.Y.Y.Y.R.R.R.K.L.L.K.K.I.K.K.K.K.Z.z.M.[ N J.Y.K.H.K.K.C.K.K.K.K.K.H.H.G.B.l.l.j.l.} x - - v S A ( ` D F F _ R o + 7.4X6X6X$X4.>.,.$.#.h 9 8.K o < F.G.H.L.J.J.J.J.J.J.J.L.G.H.K.K.H.G.Z.H.G.G.H.H.Z.Z.A.0 + ,.9XeX6XrXeXrX2X8 q #X|.i.p.p.p.p.p.].].p.p.p.p.p.p.p.p.p.p.p.].p.i.8.4 * I W W ..+.5 + 5.MXMXMXNXBXAXHXPXPXPXPXPXPXPXPXPXPXPXPXPXPXPXPXPXPXPXPXPXPXPXPXPXPXPXPXPXPXPXPXPXPXPXPXPXPXPXPXPXPXPXPXPXPXPXPXPXPXPXPXPX",
"PXPXPXPXPXPXPXPXPXPXPXPXPXPXPXPXPXPXPXPXPXPXPXPXPXPXPXPXPXPXPXPXPXPXPXPXPXPXPXPXPXPXPXPXPXPXPXPXPXPXPXPXPXPXPXPXFX5.3 *.9X6X1XrX8X&., d.5X-X[.p.s.p.p.].'.p.p.'.'.p.].].].].].p.p.'.p.s.6.* & Y Y U U P U 5 o , J V V V V V _ C V C [ U.Q.W.W.W.Q.W.W.Q.Q.Q.Q.!.E.P.6 O L 9XeX X`.'.'.'.p.4.Q ....W ^ 0   - R _ _ / _ D _ D D ` J - , }..XQ.Q.).Q.!.!.Q.Q.Y.A S.E.W.W.W.E.E.U.l.G Q.Q.!.!.W.W.!.Q.Z.l.B.z.N H.Q.Q.!.).).).!.!.!.Q.).Q.W.Q.Q.Q.H.Z.G.J.H.G.G.G.H.J.H.G.G.G.G.G.G.G.G.G.G.Z.V.C.W.).U.C A.$X.XE.R.R.R.R.R.R.E.E.E.R.R.R.Y.E.R.R.R.L.S.N Z c.z.B.K.Y.Y.Y.I.I.I.I.Y.Y.Y.Y.K.K.K.K.I.I.K.K.K.K.G.B.B.c.N v.Y.K.H.K.H.Z.K.K.K.K.K.H.H.H.H.l.l.j.l.c.b - - h S A ( ` F A F D R @ o #.,X6X6X>X4.,.,.$.#.h 6 9.T o - F.H.H.L.J.J.J.J.J.J.L.L.H.H.H.H.G.G.V.Z.G.G.H.G.Z.Z.D.l + P 4XrX6XeXwXeX3Xw 8 +X Xp.s.p.p.p.p.p.p.p.p.p.p.p.p.p.p.p.p.p.t.p.p.0.5 * r W W W +.8 + ! MXMXMXMXNXAXGXPXPXPXPXPXPXPXPXPXPXPXPXPXPXPXPXPXPXPXPXPXPXPXPXPXPXPXPXPXPXPXPXPXPXPXPXPXPXPXPXPXPXPXPXPXPXPXPXPXPXPXPXPX",
"PXPXPXPXPXPXPXPXPXPXPXPXPXPXPXPXPXPXPXPXPXPXPXPXPXPXPXPXPXPXPXPXPXPXPXPXPXPXPXPXPXPXPXPXPXPXPXPXPXPXPXPXPXPXPXJXDXO.= 6.gX6X6XeX5X@., +X2X#X'.p.s.p.p.].'.p.p.'.].'.].].].].].p.'.'.p.d.&.* 4 Y Y U U T K * o 6 J M V V S S S C V C M.U.Q.W.!.!.W.Q.W.Q.!.Q.Q.!.Q.F.6 O o.9X9X Xu.'.'.'.p.3.Q ......~ 8   > J _ _ / _ D _ D D ` x O 0 }..XW.Q.).!.!.Q.Q.Q.Y.Z H.E.Q.W.W.W.E.U.M.G Y.Q.!.!.W.Q.!.Q.G.l.M.v.A M.).Q.!.).).).!.!.!.Q.!.Q.W.W.Q.Q.K.Z.G.H.H.G.H.J.H.G.H.G.G.G.G.G.G.G.G.G.G.V.V.C.T.).).[ D oX%XQ.I.R.R.R.E.R.R.R.R.R.I.I.Y.E.R.R.R.Y.J.' N ' B.z.G.Y.I.I.I.I.I.I.Y.Y.Y.K.K.K.K.I.I.R.K.K.K.K.K.N.z.c.A A Y.K.H.K.H.H.H.K.K.K.H.H.H.G.G.z.l.G l.c.V ; O y S C ( ` D A F D E :   L <X6X6X4Xe.,.,.:.:.h 1 6.^ + - ;.H.H.J.J.J.L.J.J.J.L.L.H.H.H.G.G.G.z.B.G.G.G.Z.Z.C.H.Q @ 0 >XrXrXeXwXeX8X+., |.+Xp.s.p.p.p.p.p.p.'.p.p.'.'.p.p.p.p.p.p.t.p.p.0.8 $ w T W W +.0 + e mXMXMXMXMXAXGXPXPXPXPXPXPXPXPXPXPXPXPXPXPXPXPXPXPXPXPXPXPXPXPXPXPXPXPXPXPXPXPXPXPXPXPXPXPXPXPXPXPXPXPXPXPXPXPXPXPXPXPXPX",
"PXPXPXPXPXPXPXPXPXPXPXPXPXPXPXPXPXPXPXPXPXPXPXPXPXPXPXPXPXPXPXPXPXPXPXPXPXPXPXPXPXPXPXPXPXPXPXPXPXPXPXPXPXPXPXPXFXr * 0.gX6X1XrX2XI 4 +X2X X'.'.].u.p.'.'.'.'.].].].].[.].].].u.u.'.p.f.O.+ 8 Y Y U U T K @ + h b M C V V V V C C C N.Y.Q.W.!.!.Q.E.W.Q.).!.).!.Q.<.> @ q.9X9X`.u.'.'.p.p.>.#.....W T 8   < J _ ( _ _ D _ D D _ j O H XX).W.).).!.!.Q.Q.Q.H.Z L.E.Q.W.W.W.E.Y.N.F K.Q.!.!.W.Q.Q.Q.K.l.v.M.F l.).Q.!.).).).!.!.W.W.).!.!.Q.!.Q.Q.H.Z.G.H.G.G.J.G.G.G.G.G.G.G.G.G.G.G.G.G.Z.V.V.K.Q.).J.M (.&X_.R.R.E.E.R.R.Y.R.E.R.R.R.I.I.I.K.K.Y.L.c.N G c.B.Z.U.I.I.I.R.I.R.R.I.I.K.K.K.K.I.I.I.K.K.K.K.K.H.z.c.' Z J.K.G.J.K.K.H.H.Z.H.H.H.G.G.G.z.l.G j.l._ ; O 1 S C ( ( _ ( G F E 5   9 >X6XeX6X'.1.,.:.:.l 1 *.#.# O ] J.H.H.G.H.J.L.J.J.L.L.K.H.G.G.G.H.l.l.G.G.G.Z.Z.C.N.=.@ : #XrXrXeXwXeX9X6.: i.+Xp.p.p.p.p.p.p.p.'.'.'.].p.p.p.p.p.p.p.t.p.p.0.q $ w T W W +.0 + e nXMXMXMXMXAXGXPXPXPXPXPXPXPXPXPXPXPXPXPXPXPXPXPXPXPXPXPXPXPXPXPXPXPXPXPXPXPXPXPXPXPXPXPXPXPXPXPXPXPXPXPXPXPXPXPXPXPXPXPX",
"PXPXPXPXPXPXPXPXPXPXPXPXPXPXPXPXPXPXPXPXPXPXPXPXPXPXPXPXPXPXPXPXPXPXPXPXPXPXPXPXPXPXPXPXPXPXPXPXPXPXPXPXPXPXPXPXDXe : s.rX6XwXrX-X0 8 -X2X{.p.p.s.p.'.'.p.'.].].].].].[.[.[.f.p.p.u.p.d.Y X 0 T P L U ! q X + h J V / V V V V / C C N.Q.Q.W.!.!.Q.Q.Q.!.Q.Q.Q.Q.).| - : {.rX4X'.'.p.p.p.p.o.#...Q W U 4   y ) _ S S D _ _ D D J < O Q XX(.).).!.!.!.!.Q.).N.N Y.Q.Q.Q.W.W.E.E.Z.F H.).).!.!.Q.Q.Q.K.z.z.v.` ' ).).).!.Q.).).).!.Q.!.!.).W.W.!.Q.R.C.G.H.J.G.G.G.H.G.G.G.G.G.G.G.V.V.V.V.V.G.V.C.R.!.E.` =.OXOXQ.I.E.R.R.I.R.R.R.R.R.R.I.I.I.I.I.R.I.N.A N c.M.S.Y.R.R.R.I.R.R.I.K.K.K.K.K.I.K.L.L.L.L.L.K.K.G.v.v.l.Z M.U.H.H.K.K.K.K.K.H.G.G.G.Z.G.B.l.l.k.c.] 1 - < J C A C _ ` ` F _ a   8 >X6XwXeX}.>.>.:.:.L 6 o.,.& + J P.J.H.J.G.G.H.H.G.H.J.H.H.G.G.G.H.l.' H.H.Z.Z.C.C.B.;.- O @XeXeXeXeXeX9Xp.& 0.#Xp.p.p.p.s.s.p.p.p.p.p.'.p.p.p.t.p.p.p.t.p.u.w.q @ r ^ W W W 0 + 8 vXMXMXMXNXNXFXKXKXPXPXPXPXPXPXPXPXPXPXPXPXPXPXPXPXPXPXPXPXPXPXPXPXPXPXPXPXPXPXPXPXPXPXPXPXPXPXPXPXPXPXPXPXPXPXPXPXPXPXPX",
"PXPXPXPXPXPXPXPXPXPXPXPXPXPXPXPXPXPXPXPXPXPXPXPXPXPXPXPXPXPXPXPXPXPXPXPXPXPXPXPXPXPXPXPXPXPXPXPXPXPXPXPXPXPXPXPXBXe , {.rX6XwXrX-X9 0 :X:X[.p.'.p.p.'.'.'.'.].].].].].s.s.f.f.p.p.u.p.i.q X q T U L U ! 8 X & h J V / V V V V / C S A.Q.Q.W.W.Q.Q.Q.Q.Q.Q.Q.Q.Q.).) @ , >XrX>X'.'.'.u.p.t.o.#...W W I 4   h ) _ S S _ ` _ F D E - - >..X).).!.!.Q.!.!.Q.).l.Z Y.Q.W.Q.W.Q.W.E.H.G N.).).Q.!.Q.Q.Q.R.z.z.B.[ ' Y.).).!.!.).).).!.!.!.!.Q.Q.W.Q.Q.R.C.C.C.H.G.G.G.H.H.G.G.G.G.G.G.G.G.V.V.V.V.V.V.K.!.).A.b .XOX.XE.E.R.R.R.R.E.R.R.E.R.I.I.I.I.I.R.I.H.l.N ' A.B.K.R.R.R.K.Y.I.R.Y.Y.Y.K.K.K.K.L.L.T.L.L.K.K.L.Z.z.z.G G K.H.G.H.K.K.K.H.H.G.G.G.H.H.N.l.l.k.c.] y - < b C A C _ ` F F ` a   5 >X6XwXeX X2.>.:.:.R 0 W 1.* o h /.J.J.J.G.G.H.H.H.H.J.H.H.G.G.G.H.l.G H.Z.G.G.C.C.B.;.< o s.9XeXeXeXeX9X|.& &.-Xf.u.p.p.s.p.p.p.p.p.p.p.p.p.p.p.p.p.t.t.p.u.r.I @ w +.W W W q + 8 vXMXmXMXNXNXFXKXPXPXPXPXPXPXPXPXPXPXPXPXPXPXPXPXPXPXPXPXPXPXPXPXPXPXPXPXPXPXPXPXPXPXPXPXPXPXPXPXPXPXPXPXPXPXPXPXPXPXPXPX",
"PXPXPXPXPXPXPXPXPXPXPXPXPXPXPXPXPXPXPXPXPXPXPXPXPXPXPXPXPXPXPXPXPXPXPXPXPXPXPXPXPXPXPXPXPXPXPXPXPXPXPXPXPXPXJXPXnX8 4 +X9X6XwXrX+X8 K :X-X].u.'.p.u.'.'.'.].].].].].].p.p.s.f.p.p.u.p.0.8 % r T U P T ! 4   : h J V / V V V / / C D N.Q.Q.W.W.W.E.E.Q.Q.Q.Q.Q.Q.(.J O 8 8XeX>X'.'.'.'.u.e.o.#...W W K *   h ) _ S S _ ( S F _ E - - 4..XQ.).!.!.W.!.!.Q.E.G k.).Q.W.Q.W.W.W.W.I.G z.).).!.!.!.Q.Q.Q.V.l.B.c.A H.).).!.!.).).).!.!.Q.Q.Q.W.!.Q.Q.R.H.H.H.G.G.G.G.H.G.G.G.G.G.G.G.G.G.G.V.V.V.V.V.C.W._.J.b A.,XXXQ.E.E.R.R.I.I.R.E.E.R.Y.I.I.I.I.R.R.K.B.N A M.M.G.R.R.R.K.K.Y.Y.Y.Y.Y.K.Y.R.Y.Y.L.L.L.L.K.K.K.H.v.z.G Z G.G.H.G.G.K.K.H.H.G.H.H.H.H.G.M.l.l.c.{ u - ; v C A C C C F [ A.v o , -X6XwXwXoX2.,.:.:.W 9 L 1.* o a /.J.K.K.G.G.G.H.H.H.J.H.H.G.G.H.H.l.' G.Z.G.Z.Z.Z.N.<.0 O 7.9XeXeXeXeX9X#X, Y -Xf.u.p.p.p.s.p.p.p.'.p.p.p.p.p.p.p.p.t.t.p.u.r.I @ w +.W W W I + 4 kXMXMXNXNXNXFXPXPXPXPXPXPXPXPXPXPXPXPXPXPXPXPXPXPXPXPXPXPXPXPXPXPXPXPXPXPXPXPXPXPXPXPXPXPXPXPXPXPXPXPXPXPXPXPXPXPXPXPXPX",
"PXPXPXPXPXPXPXPXPXPXPXPXPXPXPXPXPXPXPXPXPXPXPXPXPXPXPXPXPXPXPXPXPXPXPXPXPXPXPXPXPXPXPXPXPXPXPXPXPXPXPXPXPXPXPXJXkX8 5 -XgX6XeXrX{.5 @.:X#Xu.u.'.p.u.'.'.'.].].].].].].p.p.s.f.p.p.u.f.8.8 # r Y L P U Y *   5 h b V V V V V C C V C D.Q.W.W.W.W.Q.Q.Q.Q.Q.Q.Q.Q.U.v O 0 9XrX>X'.p.'.'.u.w.o.o...Q W K +   h ) C S S D _ D D _ E - - e..XQ.!.!.!.!.!.!.E.Y.A z.).Q.Q.Q.Q.W.W.W.U.G l.).).).).!.Q.Q.Q.Z.l.B.c.G S.).Q.!.!.).).).).!.!.Q.Q.!.!.W.Q.Q.K.G.G.G.G.G.G.G.G.G.G.G.G.G.G.G.G.G.V.V.G.V.Z.V.K.!.).] z OXOXQ.I.E.R.I.I.R.R.E.E.E.I.I.I.I.I.R.R.L.H.A N [ M.G.I.R.I.I.I.I.Y.Y.Y.Y.K.L.R.Y.Y.Y.L.L.L.L.K.G.K.B.z.' N B.H.K.G.H.K.K.H.K.K.K.H.H.G.H.M.l.l.c.{ u - ; v C A C C C F c.D.J o : #X6XwXwX$X4.>.,.:.W 9 L 1.= o 1 P.H.H.J.G.H.H.H.H.H.J.H.H.G.H.H.H.l.G G.G.J.H.Z.C.N.;.h O T 9XrXeXeXeX9X-X8 q -Xf.p.'.p.p.p.p.p.p.'.'.p.p.p.p.p.p.p.p.t.u.u.r.Y + q +.W W W I # = kXNXMXNXNXBXFXPXPXPXPXPXPXPXPXPXPXPXPXPXPXPXPXPXPXPXPXPXPXPXPXPXPXPXPXPXPXPXPXPXPXPXPXPXPXPXPXPXPXPXPXPXPXPXPXPXPXPXPXPX",
"PXPXPXPXPXPXPXPXPXPXPXPXPXPXPXPXPXPXPXPXPXPXPXPXPXPXPXPXPXPXPXPXPXPXPXPXPXPXPXPXPXPXPXPXPXPXPXPXPXPXPXPXPXKXPXJXhX= 8 2XgX6XeXrX{., +.:X+Xu.u.'.u.u.'.'.].].].].].].].s.p.s.f.p.p.u.p.1., = r Y L P P Y +   6 v j V V V V M C C C D D.Q.E.W.!.Q.Q.Q.Q.Q.Q.Q.Q.).P.h O T 9XeX#X`.'.'.'.p.3.o.....Q W K + . h ) / C S S ` D F _ J - > ^..XQ.!.!.!.!.W.!.Q.Y.N M.).Q.Q.Q.!.W.W.W.U.G l.).).).).!.Q.Q.Q.H.k.v.v.F M.).Q.!.!.).).).).!.!.!.!.).).Q.Q.Q.R.C.G.G.G.G.G.G.G.G.H.G.G.G.G.G.G.G.V.G.G.V.Z.N.C.W._.D.u }.,X.XE.I.I.Y.R.R.E.E.E.E.I.I.I.Y.Y.T.T.K.H.c.m ' c.N.K.Y.Y.I.I.I.Y.E.Y.Y.L.L.R.Y.Y.L.L.K.Y.L.K.G.K.V.z.l.N l.L.L.H.J.K.J.K.K.K.H.H.H.G.H.B.l.l.c.{ s - ; j C A C V V D M.D./ + : #X6XwXwX>X4.>.,.:.Q 0 h 1.4 o < F.D.G.G.G.H.H.K.K.H.J.H.H.G.H.H.D.[ G G.G.J.G.Z.Z.N.;.v O 0 8XrXrXeXeXeX-X0 0 -Xf.p.'.p.p.p.p.p.p.'.'.p.p.p.p.p.p.p.i.t.u.u.i.! + q ^ W W W Y & = hXNXNXNXBXBXDXPXPXPXPXPXPXPXPXPXPXPXPXPXPXPXPXPXPXPXPXPXPXPXPXPXPXPXPXPXPXPXPXPXPXPXPXPXPXPXPXPXPXPXPXPXPXPXPXPXPXPXPXPX",
"PXPXPXPXPXPXPXPXPXPXPXPXPXPXPXPXPXPXPXPXPXPXPXPXPXPXPXPXPXPXPXPXPXPXPXPXPXPXPXPXPXPXPXPXPXPXPXPXPXPXPXPXPXPXPXJXdX* 0 5X9X9XrXrXs.* &.:X|.u.'.'.u.u.'.'.].].].s.'.'.].s.p.s.s.p.p.p.u.*.& 8 Y Y U P P Y     0 J j k V V C C C C C F D.Y.E.W.!.Q.Q.Q.Q.Q.Q.Q.Q.).P.1 O $.9X6X Xu.'.'.u.p.2.......o.W H o X l ) _ C S S ` F F _ J O < ^..XQ.!.!.!.!.W.!.Q.L.N G.).).Q.Q.Q.W.W.W.Y.l.' Y.).).).!.Q.Q.).Y.k.v.v.G l.(.Q.!.!.!.!.!.!.!.!.!.!.).!.Q.Q.Q.R.J.G.G.G.G.G.G.G.G.G.G.H.G.G.G.G.Z.Z.V.G.G.G.N.Z.R.).Y.z _ ,XOXY.I.E.R.E.E.E.E.E.E.I.I.I.Y.Y.Y.Y.R.L.A.N N c.M.H.I.I.I.I.Y.Y.E.Y.L.J.L.L.Y.Y.L.T.L.L.L.K.K.K.G.z.c.A A H.K.H.H.K.J.K.K.H.G.H.H.G.H.B.[ l.c.} i - - g V C C C M D B.G.) + :  X6XwXwX4Xe.>.:.:.Q h h ,.4 o ; <.D.H.G.G.G.H.K.K.K.J.J.H.G.H.D.D.[ G G.G.H.G.Z.Z.N.;.E - > 3XzXrXeXeXeX3XI 5 #X{.p.u.u.p.p.'.'.'.'.'.'.p.p.p.p.p.p.p.t.u.u.i.~ + 0 ^ W W W Y * = hXVXNXNXNXBXDXPXPXPXPXPXPXPXPXPXPXPXPXPXPXPXPXPXPXPXPXPXPXPXPXPXPXPXPXPXPXPXPXPXPXPXPXPXPXPXPXPXPXPXPXPXPXPXPXPXPXPXPXPX",
"PXPXPXPXPXPXPXPXPXPXPXPXPXPXPXPXPXPXPXPXPXPXPXPXPXPXPXPXPXPXPXPXPXPXPXPXPXPXPXPXPXPXPXPXPXPXPXPXPXPXPXPXPXPXKXJXsX= 0 fX9XeXrX9Xs.* 6.:X{.u.'.'.u.u.'.'.].].p.p.p.p.].s.p.s.s.i.p.p.p.#.+ 8 Y Y U P T I + + 0 v b i V V V C C V V C D.Q.Q.W.!.Q.Q.).).Q.E.Q.Q.).F.; + 6.9X9X|.u.'.'.p.p.>.......o.+.w o # l ) _ S S S _ F F _ H O 6 `.).Q.!.!.!.!.!.!.E.H.N H.).).Q.Q.Q.W.W.W.Y.c.G L.).).).!.Q.).).E.k.z.c.' [ Y.Q.!.!.!.!.!.!.Q.Q.Q.!.).!.W.Q.Q.Q.K.G.Z.G.G.G.G.G.G.V.G.J.G.V.G.G.G.G.G.G.G.B.N.C.T.Q.).] i XXOX.XY.E.E.E.E.E.E.E.E.I.I.I.Y.Y.Y.Y.R.L.H.' n [ M.Z.I.I.K.K.I.Y.E.Y.L.J.L.L.Y.Y.L.L.L.L.L.K.K.K.H.v.l.G Z M.H.H.H.J.J.K.J.H.G.H.H.H.H.B.l.l.l.} j - - s M C C C M N B.G./ + * {.6XwXwX4X^.>.:.:.o.h 9 ,.8 o ; <.D.H.G.G.G.H.K.K.K.J.J.H.G.H.D.D.[ ' G.G.G.G.Z.Z.N.A.) - - 3X9XrXeXeXeX5X~ , @X{.p.u.p.p.p.'.'.'.'.'.p.p.p.p.p.p.p.p.t.u.u.i.O.+ 0 ^ W W W Y * = dXVXNXNXNXBXDXPXPXPXPXPXPXPXPXPXPXPXPXPXPXPXPXPXPXPXPXPXPXPXPXPXPXPXPXPXPXPXPXPXPXPXPXPXPXPXPXPXPXPXPXPXPXPXPXPXPXPXPXPX",
"PXPXPXPXPXPXPXPXPXPXPXPXPXPXPXPXPXPXPXPXPXPXPXPXPXPXPXPXPXPXPXPXPXPXPXPXPXPXPXPXPXPXPXPXPXPXPXPXPXPXPXPXPXKXKXJXh.* H gX9XeX6XgXr.* 0.-X{.p.'.'.'.'.'.].].p.p.'.].].].].p.p.p.].u.u.i.O.+ 8 Y T U U U w   + h b V g j b M V C C V C D.Q.Q.!.W.!.).).Q.!.Q.Q.Y..X<.; O d.9X6X}.`.'.'.u.p.,.#.o.Q W +.w   # v b C C C D _ D ` _ h O 1 }.).Q.!.Q.!.).!.W.).M.N U.E.!.Q.Q.Q.Q.W.W.E.N.Z J.).).).!.Q.Q.Q.Q.z.z.l.l.G Y.).Q.!.W.Q.!.!.!.!.).!.).Q.Q.W.Q.Q.Y.J.G.G.G.G.G.G.G.G.G.G.G.G.G.V.G.G.G.G.G.V.Z.Z.C.E.!.P.d /.,XXXY.E.R.R.R.R.E.R.Y.I.R.R.R.R.R.I.R.R.J.z.n F M.Z.I.I.I.Y.Y.Y.Y.Y.L.H.U.Y.Y.Y.L.L.J.J.J.K.K.K.H.V.z.j.N l.H.H.H.J.J.G.G.K.G.G.H.G.J.Z.l.l.l.{ c - - s C A C C C D l.S./ O : {.6XwXwX1X`.:.:.:.Q h 9 $.0   * =.D.Z.H.H.H.G.G.H.J.L.J.J.K.H.H.D.' F H.H.G.Z.Z.Z.D.D.| : + #XrXrXeXeXeX4X%.* @X|.p.u.p.p.p.'.p.p.p.s.p.p.p.t.p.p.p.p.p.p.p.i.+.+ 8 T W W W T & & sXNXBXNXBXMXAXKXPXPXPXPXPXPXPXPXPXPXPXPXPXPXPXPXPXPXPXPXPXPXPXPXPXPXPXPXPXPXPXPXPXPXPXPXPXPXPXPXPXPXPXPXPXPXPXPXPXPXPXPX",
"PXPXPXPXPXPXPXPXPXPXPXPXPXPXPXPXPXPXPXPXPXPXPXPXPXPXPXPXPXPXPXPXPXPXPXPXPXPXPXPXPXPXPXPXPXPXPXPXPXPXPXPXPXKXKXJXg.& K gX9XrXeX9X0.* a.-X[.p.'.'.'.p.p.'.].p.p.'.p.p.p.p.p.p.p.].u.u.i.! + e Y T U U Y 0   @ h b V z g b V V C C V D D.Q.Q.!.W.Q.).).Q.Q.Q.Q.Y..X<.- O |.9X4X{.`.'.'.p.p.>.#.o.Q W +.q   # v ) S C C _ _ D ` _ h O h }.!.W.!.!.!.!.!.!.).l.Z Y.Q.!.Q.Q.Q.Q.W.W.Q.G.G H.).).).!.Q.Q.Q.Q.Z.k.l.l.G J.).).!.Q.Q.!.!.!.!.).).).Q.Q.W.Q.Q.E.K.G.G.G.G.G.G.G.G.G.G.G.G.G.G.G.G.G.G.G.V.V.Z.Z.K.W.(._ _ OXOXQ.E.R.R.R.R.E.R.I.I.R.R.R.R.R.I.I.R.K.G.Z m [ N.I.I.R.Y.Y.Y.Y.Y.Y.J.L.Y.Y.Y.L.L.J.J.K.K.K.K.H.G.v.z.Z G H.H.J.J.J.G.G.H.G.G.H.G.G.D.M.l.l.{ c - - a V A C C V N l.S./ O : {.6XwXwX4X`.:.:.:.o.h 0 #.0   @ =.D.Z.H.H.H.G.H.J.J.L.J.J.K.H.H.D.' F H.H.G.Z.Z.Z.B.D.;.> + {.rXrXeXeXeX8X,.* g.+Xu.u.p.p.p.'.p.p.p.p.p.p.p.p.p.p.p.p.p.p.p.i.+.+ 8 T W W W Y * # sXNXBXNXBXMXAXKXPXPXPXPXPXPXPXPXPXPXPXPXPXPXPXPXPXPXPXPXPXPXPXPXPXPXPXPXPXPXPXPXPXPXPXPXPXPXPXPXPXPXPXPXPXPXPXPXPXPXPXPX",
"PXPXPXPXPXPXPXPXPXPXPXPXPXPXPXPXPXPXPXPXPXPXPXPXPXPXPXPXPXPXPXPXPXPXPXPXPXPXPXPXPXPXPXPXPXPXPXPXPXPXPXPXPXKXPXJXy.@ P jX9XrXrX8X6.* a.-X[.p.'.'.'.p.p.s.'.p.p.'.p.p.p.p.'.p.p.'.u.u.0.r + q Y T U U Y 8   : l b V b j j V V V V C D D.Q.Q.!.W.Q.Q.E.Q.Q.!.Q.).).=.- O #XrX,X{.'.'.'.p.p.>.o.o.Q W +.0   $ v ) S C C D _ D F _ a o h }.!.Q.Q.!.!.!.!.!.).G A Y.).!.!.).!.Q.W.W.Q.H.Z S.).)._.!.W.W.Q.Q.K.j.M.l.F H.).).!.Q.).).!.!.!.!.!.).Q.Q.W.Q.W.E.L.G.G.G.G.G.G.G.H.G.G.G.G.G.G.G.G.G.G.G.G.V.Z.V.K.W.(.;.k .XOX.XR.R.E.E.R.R.R.I.I.R.R.R.R.R.K.I.I.L.G.' n G B.K.R.R.R.Y.Y.Y.Y.Y.K.K.L.L.U.L.L.L.K.K.K.J.H.K.J.V.z.G A S.H.H.J.J.G.G.K.G.G.H.G.G.H.M.z.l.} b - - a M C C V V N l.S./ O : {.6XwXeX4X}.>.:.:.o.L 0 #.q   + Q H.Z.H.H.G.G.H.J.J.L.J.J.K.H.H.D.' F H.G.Z.Z.Z.N.B.N.<.6 o t.rXeXeXeXeX9X8., d.+Xu.u.u.p.p.'.p.p.p.s.p.p.'.p.p.p.p.t.p.u.p.i.+.+ 8 ~ W Q W T * # ;XNXBXNXBXMXAXKXKXPXPXPXPXPXPXPXPXPXPXPXPXPXPXPXPXPXPXPXPXPXPXPXPXPXPXPXPXPXPXPXPXPXPXPXPXPXPXPXPXPXPXPXPXPXPXPXPXPXPXPX",
"PXPXPXPXPXPXPXPXPXPXPXPXPXPXPXPXPXPXPXPXPXPXPXPXPXPXPXPXPXPXPXPXPXPXPXPXPXPXPXPXPXPXPXPXPXPXPXPXPXPXPXPXPXKXKXJXy.& W jX9XrXrX9X,.* d.-Xf.'.'.'.'.p.p.p.].].].].'.'.'.'.'.'.'.'.u.u.0.w + q T P P P Y 4   > J V M S b i z V V V V D D.Y.Q.!.!.Q.Q.Q.Q.Q.!.Q.Y.).| - - -XrX,X[.'.p.'.p.t.:.o.o.Q ..+.0 o * J ) S C C D _ D F _ 6 O h }.Q.Q.Q.!.!.!.!.!.).A ' Y.).!.W.!.!.!.W.W.Q.K.A B.).).W.W.Q.Q.W.Q.Y.j.l.l.A D.).).!.Q.Q.!.).!.!.!.).!.Q.Q.W.Q.Q.E.R.H.Z.V.G.G.G.G.H.G.G.G.G.G.G.G.G.G.G.H.G.G.G.V.C.W.E.Y.m ;.OXXXR.R.R.E.I.I.I.I.R.I.I.Y.R.R.I.I.I.Y.G.l.N N c.H.Y.R.R.R.Y.Y.Y.Y.Y.L.L.Y.L.L.Y.L.L.L.J.K.K.K.J.G.z.[ N c.H.H.J.J.H.K.K.H.G.G.H.H.H.N.z.c.} c - - a V C C C C N l.D./ O : {.6XwXeX4X X>.:.:.o.L 0 W K   + E D.Z.H.H.H.H.J.J.J.L.J.J.G.Z.H.S.` A S.G.G.Z.Z.N.B.N.;.6 o 3.rXeXeXeXeX9X0.: 9.#Xu.u.u.p.p.p.p.p.p.p.'.'.p.p.p.p.p.t.p.u.i.i.@.+ 8 T W Q W ~ * % ;XNXNXBXBXMXAXHXKXPXPXPXPXPXPXPXPXPXPXPXPXPXPXPXPXPXPXPXPXPXPXPXPXPXPXPXPXPXPXPXPXPXPXPXPXPXPXPXPXPXPXPXPXPXPXPXPXPXPXPX",
"PXPXPXPXPXPXPXPXPXPXPXPXPXPXPXPXPXPXPXPXPXPXPXPXPXPXPXPXPXPXPXPXPXPXPXPXPXPXPXPXPXPXPXPXPXPXPXPXPXPXPXPXPXPXPXJX5.@ #.jX9XrXrX9X*.* d.#Xp.].'.'.'.p.p.].].].].].'.'.'.'.'.'.'.'.u.p.0.q + w Y U P P Y =   > J V V z V j k V V V N C D.E.Q.W.!.Q.Q.Q.Q.Q.W.Q.Y.(.) - - >XuX,X{.'.p.p.p.t.:.o.o.Q ..+.0   * b ) S C D D _ D ` _ < O H oXQ.Q.Q.!.!.!.!.!.Y.Z l.E.).!.W.!.!.!.W.W.!.Y.Z c.Y.).W.!.!.Q.Q.Q.E.k.l.l.F M.(.).!.Q.Q.Q.!.!.!.!.!.!.!.Q.W.W.Q.W.R.H.V.Z.G.G.G.G.H.G.G.G.G.G.G.G.G.G.G.H.H.H.G.V.Z.R.W.).` S oXOXQ.R.R.W.R.I.R.Y.Y.L.Y.Y.Y.R.Y.I.I.I.K.M.N m } H.Y.R.R.R.Y.I.I.Y.Y.U.L.U.U.L.L.L.L.L.J.L.L.K.J.H.z.v.N ' H.H.H.G.H.K.K.H.G.H.H.J.H.B.z.c.} c - - y V C C C V N l.D./ O : `.6XwXeX4X X>.:.:.#.U 0 W K   o R D.Z.H.H.H.H.J.J.J.L.J.J.G.Z.H.S.` A S.Z.G.Z.Z.N.N.N.M.0 o $.rXeXeXeXeX9Xr.: 0.-Xu.u.u.p.p.p.p.p.p.p.p.'.p.p.p.p.p.p.u.p.i.i.@.+ 8 ^ W Q W ~ * # ;XNXNXMXBXMXAXHXKXKXPXPXPXPXPXPXPXPXPXPXPXPXPXPXPXPXPXPXPXPXPXPXPXPXPXPXPXPXPXPXPXPXPXPXPXPXPXPXPXPXPXPXPXPXPXPXPXPXPXPX",
"PXPXPXPXPXPXPXPXPXPXPXPXPXPXPXPXPXPXPXPXPXPXPXPXPXPXPXPXPXPXPXPXPXPXPXPXPXPXPXPXPXPXPXPXPXPXPXPXPXPXPXPXPXPXPXJX5.@ $.jX9XrXrX8X#.* d.+Xp.].'.].'.p.].].].].].].'.'.'.'.'.'.'.'.u.p.0.0 @ w T U W P I &   6 J V C z S z i z V V N C H.Q.Q.Q.!.Q.Q.Q.Q.Q.W.Q.Q.(.) - - 3XuX,X[.].p.p.p.t.:.o.o.o.....0   = b S S S S S _ D ` _ < O R oXQ.Q.!.Q.Q.Q.Q.Q.U.N v.)._.!.W.!.!.!.W.W.!.E.G ' Y.).W.!.!.!.Q.Q.E.z.G l.G c.Y.Q.!.Q.Q.!.!.!.!.!.Q.Q.Q.Q.W.E.W.W.Q.K.Z.Z.V.G.G.G.G.G.G.G.G.G.G.G.G.G.G.H.H.H.G.B.V.K.W.).A.k (.qX.XR.R.W.Y.R.R.Y.L.L.Y.R.R.R.K.I.I.I.K.Z.' m ` D.Y.R.R.R.R.I.I.I.Y.U.L.L.L.L.L.L.L.L.K.L.L.J.J.J.v.c.A A G.J.H.G.H.K.H.G.H.H.H.J.H.N.z.l.} b - - y V C C C C N G D./ O : [.eXwXeX4XoX>.:.:.#.W 0 U I o o v D.Z.H.G.G.G.H.H.J.L.J.J.G.Z.H.S.A F H.Z.Z.Z.Z.Z.N.Z.A.h o W rXeXeXeXeX9Xs.: 6.-Xu.u.u.p.p.p.p.p.'.'.p.p.p.p.s.p.p.p.p.p.p.i.+.+ 8 W W Q W ~ * # ;XNXMXMXNXMXAXHXKXPXPXPXPXPXPXPXPXPXPXPXPXPXPXPXPXPXPXPXPXPXPXPXPXPXPXPXPXPXPXPXPXPXPXPXPXPXPXPXPXPXPXPXPXPXPXPXPXPXPXPX",
"PXPXPXPXPXPXPXPXPXPXPXPXPXPXPXPXPXPXPXPXPXPXPXPXPXPXPXPXPXPXPXPXPXPXPXPXPXPXPXPXPXPXPXPXPXPXPXPXPXPXPXPXPXPXPXGX5.+ ,.gX9XrXrX8X+.* d.+Xp.].].].'.p.].].].].].].'.'.'.'.'.'.'.'.u.p.0.5 * w P L W T I % X 6 J V V z V V i z V V M C H.Q.Q.W.!.Q.Q.Q.Q.Q.W.Q.).(.E O > 3XuX,X[.].'.p.].w.#.o.#.o.o.+.8   4 b V S S S S _ C ' ] < O R oXQ.Q.).Q.Q.Q.Q.Q.U.n S.).).!.W.!.!.!.!.!.Q.E.l.' Y.).W.Q.!.).Q.Q.Q.V.F M.' l.Y.Q.W.Q.Q.!.!.!.!.!.Q.Q.Q.Q.W.E.E.W.Q.R.G.V.Z.G.G.G.G.G.G.G.G.G.G.G.G.G.G.H.H.G.G.V.V.H.W.E.J.k A.,XOXE.R.E.R.R.R.Y.Y.L.E.E.E.Y.L.I.I.I.I.Z.c.N C M.K.L.K.R.I.I.I.I.Y.L.L.L.Y.L.L.K.L.L.K.L.K.J.J.J.Z.c.' N B.H.J.H.H.K.H.H.H.H.H.J.H.D.z.l.} b - - y B C C C C N G D./ O : [.eXwXwX6X$X2.:.:.$.W 0 L K o o v D.Z.H.G.H.H.G.G.J.L.J.J.G.G.H.D.A F H.Z.G.Z.Z.Z.N.N.D.h o H 9XeXeXeXeX9Xs.: *.-Xp.u.u.p.p.p.p.p.p.p.p.p.p.p.p.p.p.p.p.p.p.i.+.+ 8 T W Q W @., # ;XNXMXMXMXMXAXHXKXKXPXPXPXPXPXPXPXPXPXPXPXPXPXPXPXPXPXPXPXPXPXPXPXPXPXPXPXPXPXPXPXPXPXPXPXPXPXPXPXPXPXPXPXPXPXPXPXPXPXPX",
"PXPXPXPXPXPXPXPXPXPXPXPXPXPXPXPXPXPXPXPXPXPXPXPXPXPXPXPXPXPXPXPXPXPXPXPXPXPXPXPXPXPXPXPXPXPXPXPXPXPXPXPXPXPXJXFX5.+ 3.lX9XrXrX5X^ * f.+Xs.].].].].].].].].].].].'.p.p.p.p.p.p.'.p.i.6.4 * K P L P T I +   1 J V S z V V k i b V C C D.Q.Q.W.W.W.Q.Q.W.W.W.W.).(.E O > 3XuX>X'.'.'.'.].w.=.Q #.Q o.+.8   : b S S S S S D F [ | < o E XXQ.!.Q.Q.Q.!.!.Q.D.N G.W.!.!.!.!.!.!.!.!.Q.).c.F Y.).Q.Q.W.!.Q.Q.E.G.Z c.' ' Y.E.Q.E.Q.Q.).).Q.Q.Q.Q.Q.Q.Q.Q.W.E.E.R.K.B.Z.Z.G.G.G.G.H.H.G.G.G.G.G.G.G.G.G.G.G.G.V.Z.T.R.R.C ] oX=X).K.R.R.R.Y.Y.R.R.E.E.Y.L.L.I.I.I.R.H.B.A m c.H.Y.Y.Y.Y.R.R.Y.Y.L.L.L.L.L.L.L.K.L.K.K.J.J.L.J.H.B.l.N l.H.J.H.H.K.K.H.H.G.G.H.H.H.z.v.[ z - - a B N V N N V ' H.) @ & '.rXwXwX6X$X3.=.:.$.W 0 L U o o H F.G.H.Z.Z.H.G.H.H.L.H.K.K.G.H.D.C ' H.G.G.Z.G.D.B.N.N.l o 0 gXrXeXeXeXgX[.: O.-Xu.u.p.'.'.'.p.p.p.p.p.'.p.p.p.p.p.p.p.p.p.i.+.+ 8 W W Q Q T , & ;XNXMXMXMXMXAXHXKXPXPXPXPXPXPXPXPXPXPXPXPXPXPXPXPXPXPXPXPXPXPXPXPXPXPXPXPXPXPXPXPXPXPXPXPXPXPXPXPXPXPXPXPXPXPXPXPXPXPXPX",
"PXPXPXPXPXPXPXPXPXPXPXPXPXPXPXPXPXPXPXPXPXPXPXPXPXPXPXPXPXPXPXPXPXPXPXPXPXPXPXPXPXPXPXPXPXPXPXPXPXPXPXPXPXPXKXDX5.# 8.zX9XrXrX5X^ : +X|.].].].'.].p.p.p.p.p.p.].'.p.p.p.p.p.p.p.p.i.6.4 : Y P L P Y r X X 6 b V V z V V z i z V M D H.Q.Q.W.W.W.Q.Q.Q.W.W.W.).(.R O < 3XrX>X'.'.'.'.'.q.=.Q #.Q o.^ 8   : b S S S S C S F M.<.> o Q XXW.Q.Q.Q.Q.!.Q.).D.N L.).!.!.!.!.!.!.!.W.W.Q.B.A U.).Q.Q.W.!.Q.Q.Q.Y.A c.[ F Y.Y.Q.Q.).Q.).Q.Q.Q.Q.Q.Q.Q.W.W.Q.W.E.E.Y.Z.Z.Z.V.G.G.G.G.G.G.G.G.G.G.G.G.G.G.G.G.V.V.Z.C.R.R.c.c }.=XXXI.R.R.R.Y.Y.R.R.E.Y.L.L.L.K.K.K.Y.K.V.' m ' G.K.Y.Y.Y.R.R.Y.Y.L.L.L.L.L.L.L.K.L.K.K.J.J.J.K.K.B.l.A G G.J.J.G.K.K.K.G.G.G.G.H.H.v.v.} z - - y B N C N N N ' D._ O & '.rXwXwX6X>Xq.=.=.#.W 0 H T o   l F.H.H.Z.H.H.G.H.H.J.H.K.K.G.H.B.C ' H.G.G.Z.Z.Z.N.N.N.J o 0 8XrXeXeXeXlX{., ! ;Xi.p.p.'.p.p.p.p.p.p.p.'.p.p.p.p.p.p.p.p.p.i.+.+ 8 W W Q Q T , & ;XBXMXMXMXMXAXHXKXPXPXPXPXPXPXPXPXPXPXPXPXPXPXPXPXPXPXPXPXPXPXPXPXPXPXPXPXPXPXPXPXPXPXPXPXPXPXPXPXPXPXPXPXPXPXPXPXPXPXPX",
"PXPXPXPXPXPXPXPXPXPXPXPXPXPXPXPXPXPXPXPXPXPXPXPXPXPXPXPXPXPXPXPXPXPXPXPXPXPXPXPXPXPXPXPXPXPXPXPXPXPXPXPXPXPXKXAX5.# r.lXeXeX9X5X~ , +X|.[.].].].s.p.p.p.t.p.p.p.'.p.p.p.p.p.p.t.p.i.6.4 4 Y P L P Y w X X h b V V S V M V k j V M C H.Q.Q.W.W.W.Q.Q.Q.Q.!.W.).(.R O < 3XuX>X'.'.'.].'.q.=.Q #.Q o.^ 8   : b S S S S C C G D.F.> o Q oXW.Q.Q.Q.Q.Q.Q.).M.C Y.).!.!.!.!.!.!.W.W.Q.Q.S.N H.).Q.Q.W.!.Q.).).R.Z l.[ A Y.E.Q.Q.).Q.Q.Q.Q.Q.Q.Q.Q.Q.W.W.W.W.W.E.R.G.Z.Z.V.G.G.G.G.G.G.G.G.G.G.G.G.G.G.G.G.V.V.C.V.T.Q.D.c P.=XOXY.I.R.R.Y.Y.R.R.E.E.L.L.L.K.K.K.K.K.Z.l.N Z S.K.Y.Y.Y.R.R.Y.Y.L.L.L.L.Y.L.L.K.L.K.K.K.J.J.K.H.Z.l.G Z S.H.J.G.K.K.H.G.G.G.H.D.H.V.z.} z - - a B N C N N N ' D._ O & '.rXwXwX6X>Xq.=.#.#.^ L U U +   h F.H.H.Z.H.G.G.G.H.H.H.K.K.G.H.M.V ' H.G.G.Z.Z.N.Z.N.D.J O 6 8XrXeXeXeXrX{., I ;Xp.p.p.s.p.p.p.p.'.'.p.p.p.p.p.p.p.p.p.p.p.i.+.+ 8 T #.Q Q T , * ;XMXMXMXMXMXAXHXKXPXPXPXPXPXPXPXPXPXPXPXPXPXPXPXPXPXPXPXPXPXPXPXPXPXPXPXPXPXPXPXPXPXPXPXPXPXPXPXPXPXPXPXPXPXPXPXPXPXPXPX",
"PXPXPXPXPXPXPXPXPXPXPXPXPXPXPXPXPXPXPXPXPXPXPXPXPXPXPXPXPXPXPXPXPXPXPXPXPXPXPXPXPXPXPXPXPXPXPXPXPXPXPXPXPXPXHXAX .+ r.zXeXrXuX5X~ , +X|.].'.'.'.].s.].'.p.p.p.p.p.p.p.p.p.p.p.t.p.i.6.: 4 Y P P P T w   + h J V V V V V V z p z V N U.Q.Q.!.!.W.Q.!.!.Q.!.!.).(.J O 6 3XuX>X`.'.'.'.'.q.=.Q #.o.o.^ 4   : b S S S S V C ' H.F.> o Q oXQ.!.).Q.W.Q.Q.).[ A Y.).!.!.!.!.!.W.Q.Q.!.Q.H.N H.).).Q.W.Q.Q.).).R.G l.c.A H.Q.!.Q.Q.Q.E.E.Q.Q.Q.Q.Q.Q.Q.Q.E.Q.Q.Q.E.J.Z.V.G.G.G.V.V.v.G.V.G.V.G.G.G.G.G.G.V.V.V.V.V.T.W.Y.S _ OX&X).Y.R.I.Y.I.K.Y.R.R.Y.Y.E.L.L.L.R.L.H.z.Z n M.H.Y.I.I.R.E.E.L.L.L.L.L.L.L.L.L.L.K.K.J.L.L.J.K.H.z.' Z v.G.J.G.H.G.G.G.H.G.G.Z.H.G.z.[ z - - a B C C C C C G S._ @ & p.rXwXwX6X>Xq.Q #.#.#.#.#.W +   h F.G.G.Z.Z.Z.Z.G.H.K.H.K.K.G.N.A.N [ H.G.Z.Z.Z.Z.Z.C.D.J o 5 8XrXrXeXeX9X{., I ;Xp.p.p.p.p.p.p.p.p.p.p.p.p.p.p.p.p.t.t.e.p.i.+.+ 8 W W Q Q T 4 * ;XMXmXmXMXBXAXHXKXPXKXPXPXPXPXPXPXPXPXPXPXPXPXPXPXPXPXPXPXPXPXPXPXPXPXPXPXPXPXPXPXPXPXPXPXPXPXPXPXPXPXPXPXPXPXPXPXPXPXPX",
"PXPXPXPXPXPXPXPXPXPXPXPXPXPXPXPXPXPXPXPXPXPXPXPXPXPXPXPXPXPXPXPXPXPXPXPXPXPXPXPXPXPXPXPXPXPXPXPXPXPXPXPXPXPXHXNX .X i.zXeXrXuX5X~ , g.|.s.'.'.'.].].].p.p.p.p.p.p.p.p.p.p.p.p.t.p.i.6.: 4 Y P P P Y 0   + h b V V V V M S V p k M N U.Q.Q.W.!.Q.Q.!.!.Q.!.!.).U.J O 6 3XuX>X`.`.'.'.'.q.=.o.#.o.o.^ 4   , b S S S S V C [ U.F.> o Q oXQ.!.!.Q.W.Q.Q.Q.[ F ).).!.!.!.!.W.W.R.R.!.Q.U.N S.).).!.!.!.Q.).).W.k.' c.A S.E.Q.Q.Q.Q.Q.Q.Q.Q.Q.Q.Q.W.Q.Q.W.Q.Q.Q.Q.L.Z.V.V.V.G.V.G.v.v.G.G.G.G.G.G.G.G.G.G.V.V.V.V.K.W.E.{ j oXOXXXY.R.R.E.I.R.R.Y.Y.Y.Y.E.L.L.L.Y.R.K.B.' m [ J.Y.K.K.Y.R.E.L.L.L.L.L.L.L.L.L.L.K.K.J.L.L.L.J.K.N.' Z [ G.G.H.K.G.G.G.H.G.G.H.H.G.v.[ z - - y B C C N N C G S.) @ @ p.rXwXwXwX>Xq.=.#.#.#.$.#.W +   h F.G.G.Z.Z.Z.Z.Z.H.H.Z.G.G.G.S.A.N l.H.Z.Z.Z.Z.Z.Z.C.D.R O 5 8XrXrXeXeX9X{.5 r ;Xp.p.p.s.p.p.p.p.p.p.].p.p.p.p.t.t.t.t.t.p.i.+.+ 8 ^ ^ Q Q T 4 * ;XMXmXmXMXBXAXGXKXPXKXPXPXPXPXPXPXPXPXPXPXPXPXPXPXPXPXPXPXPXPXPXPXPXPXPXPXPXPXPXPXPXPXPXPXPXPXPXPXPXPXPXPXPXPXPXPXPXPXPX",
"PXPXPXPXPXPXPXPXPXPXPXPXPXPXPXPXPXPXPXPXPXPXPXPXPXPXPXPXPXPXPXPXPXPXPXPXPXPXPXPXPXPXPXPXPXPXPXPXPXPXPXPXPXKXHXBX .X d.zX9XrXrX5X~ , f.|.s.'.'.'.].].].p.p.p.p.p.p.p.p.p.p.p.p.t.p.i.6.: 4 Y P P P T 0   + h b V M V V V V S k p M N H.Q.Q.W.W.Q.Q.Q.Q.Q.!.!.).U.J O 6 3XzX>X`.`.'.'.'.q.=.#.#.o.o.^ 4   , b S V V S V C [ U.F.> o Q oXQ.Q.!.Q.Q.Q.!.E.F ' )._.!.!.W.!.W.W.R.Q.Q.Q.Y.A M.Q.Q.Q.!.!.!.Q.).Q.c.G c.G B.).Q.Q.Q.Q.Q.Q.Q.Q.Q.Q.Q.W.Q.Q.Q.Q.W.Q.Q.E.G.V.V.V.G.G.G.v.v.V.V.G.G.G.V.V.G.G.G.G.V.V.B.C.W.Q.F.j ^.=XOXQ.I.I.Y.I.R.R.Y.Y.Y.Y.Y.L.L.L.L.L.K.Z.l.N C D.U.I.K.K.R.E.K.L.L.L.L.L.L.K.K.K.K.H.J.J.L.L.H.C.Z.l.A A G.H.G.K.G.G.G.Z.G.Z.Z.H.G.B.[ z - - y B C C N N V G S.) @ @ p.rXwXwXeX>Xq.=.#.#.#.$.:.W +   h F.G.G.Z.Z.Z.Z.Z.Z.Z.Z.Z.Z.G.D.M.B l.H.Z.Z.Z.Z.Z.Z.C.H.E O , 5XrXrXeXeXrX|.5 r :Xi.p.p.s.p.p.p.p.t.p.p.p.p.p.p.p.p.p.t.t.p.i.+.+ 8 ^ +.Q Q T 4 * ;XBXmXmXMXBXAXJXKXPXPXPXPXPXPXPXPXPXPXPXPXPXPXPXPXPXPXPXPXPXPXPXPXPXPXPXPXPXPXPXPXPXPXPXPXPXPXPXPXPXPXPXPXPXPXPXPXPXPXPX",
"PXPXPXPXPXPXPXPXPXPXPXPXPXPXPXPXPXPXPXPXPXPXPXPXPXPXPXPXPXPXPXPXPXPXPXPXPXPXPXPXPXPXPXPXPXPXPXPXPXPXPXPXPXKXKXBX .# s.zX9XrXrX5X~ , f.|.s.p.p.p.].].].p.p.p.p.p.p.p.p.p.p.p.p.p.p.i.*.* 5 T P P W T 8   + l b M V V V V V V b i k V U.Q.Q.W.W.Q.Q.Q.Q.Q.!.!.Q.(.J O 6 3XzX>X'.'.'.].'.q.=.#.#.o.o.^ 4   5 b S V V C V V [ Y.P.> o Q XXW.Q.Q.!.Q.Q.Q.Y.F [ )._.!.!.Q.W.Q.W.Q.Q.W.E.Y.A c.).Q.!.!.!.Q.Q.).Q.N.G c.' l.E.Q.Q.Q.Q.Q.Q.Q.Q.Q.!.Q.W.Q.Q.Q.W.Q.Q.Q.E.K.V.V.G.G.G.G.G.v.v.V.G.G.G.V.V.G.G.V.V.V.V.B.C.R.E.U.M ) OXOX.XI.L.Y.I.Y.R.Y.R.R.R.Y.L.L.L.L.K.K.Z.l.C m M.L.R.K.K.Y.R.Y.Y.Y.L.L.L.L.K.K.K.K.K.K.L.K.J.J.C.Z.B.G Z D.J.G.H.G.G.G.H.G.G.Z.H.G.B.[ z - - y B N C C C C G D.) @ @ p.rXwXeXeX>X4.Q #.o.Q #.=.W +   h F.G.G.G.H.Z.H.K.K.K.H.G.Z.G.H.c.m c.H.H.Z.Z.Z.Z.Z.Z.H.E + , 3XrXeXeXeXrX X5 w ;Xp.p.p.p.p.p.p.p.p.p.p.p.i.i.p.p.p.p.t.p.p.i.@.+ 8 +.+.o.Q T 4 & ;XBXmXmXBXBXAXGXKXKXPXPXPXPXPXPXPXPXPXPXPXPXPXPXPXPXPXPXPXPXPXPXPXPXPXPXPXPXPXPXPXPXPXPXPXPXPXPXPXPXPXPXPXPXPXPXPXPXPXPX",
"PXPXPXPXPXPXPXPXPXPXPXPXPXPXPXPXPXPXPXPXPXPXPXPXPXPXPXPXPXPXPXPXPXPXPXPXPXPXPXPXPXPXPXPXPXPXPXPXPXPXPXPXPXPXPXBXr + f.zXeXrXrX5X~ , +X|.f.p.p.p.'.p.p.p.p.p.t.t.p.p.s.s.s.s.s.i.p.i.*.$ 5 P T W W T 8   # l b V V V S M M M V g i M J.Q.Q.W.W.Q.Q.Q.Q.).).!.Q.(.H O 6 5XzX>X'.'.].'.p.3.:.#.#.o.o...4   5 b S V C C S S [ Y.P.> # ) XXQ.).).!.!.Q.).U.D M.)._.!.!.!.W.Q.Q.Q.Q.W.W.E.F [ E.Q.!.!.!.W.W.!.!.G.G l.' ' Y.E.Q.Q.E.Q.Q.Q.Q.Q.Q.Q.Q.Q.W.W.W.Q.W.Q.R.K.Z.V.G.G.G.G.G.v.z.b.V.G.G.G.G.G.V.V.V.G.V.V.N.I.R.E.' j OXOX.XY.Y.Y.Y.E.E.E.R.R.R.Y.L.L.L.L.L.L.G.z.G m ` J.Y.I.I.I.I.I.I.I.L.L.L.L.L.K.K.K.K.Y.L.K.K.J.C.K.N.[ N v.J.H.H.G.H.H.G.G.Z.Z.H.H.G.[ c ; - y c N C C C C G D.) @ $ s.eXwXeX9X>X3.Q =.Q o.#.=.W + o h F.H.H.H.Z.Z.H.K.H.H.J.H.C.G.G.c.m v.H.G.Z.V.Z.Z.Z.Z.J.) + : 3XeXeXeXeXlX#X5 q -Xp.i.p.p.p.p.p.p.p.p.p.p.p.p.p.p.p.p.p.p.i.i.@.+ 8 +.+.o.Q T 5 & sXMXmXBXBXmXAXGXKXPXPXPXPXPXPXPXPXPXPXPXPXPXPXPXPXPXPXPXPXPXPXPXPXPXPXPXPXPXPXPXPXPXPXPXPXPXPXPXPXPXPXPXPXPXPXPXPXPXPXPX",
"PXPXPXPXPXPXPXPXPXPXPXPXPXPXPXPXPXPXPXPXPXPXPXPXPXPXPXPXPXPXPXPXPXPXPXPXPXPXPXPXPXPXPXPXPXPXPXPXPXPXPXPXPXPXKXmXr + f.zXeXeXrX8X^ 4 +X{.s.p.p.s.p.i.i.p.p.p.t.t.p.p.p.p.p.p.p.i.p.p.*.# 8 P T W W T 8   $ l b V V V V M V M V j u M J.Q.Q.W.W.Q.Q.Q.Q.).Q.W.Q.(.H O 6 5XzX>X'.'.].'.p.3.:.#.#.o.o...4   5 b S V C C S S [ Y.P.> # Q XXQ.).).Q.!.!.).J.N M.)._.!.!.!.Q.W.Q.Q.Q.!.W.E.[ ' Y.Q.!.!.!.!.!.!.Q.K.G l.[ F Y.E.Q.Q.E.Q.Q.Q.Q.Q.Q.Q.Q.Q.W.E.W.W.Q.Q.E.R.G.V.v.G.G.G.G.G.z.v.V.V.G.G.G.H.G.G.V.G.V.V.B.K.R.E.S.i (.qXXXQ.Y.Y.Y.E.E.E.R.R.Y.Y.L.L.L.L.L.L.J.N.[ m N H.K.Y.Y.I.K.K.K.K.L.L.L.L.L.L.K.K.K.Y.Y.K.L.J.C.H.H.l.N [ J.H.H.G.H.G.G.G.G.H.H.H.H.M.c ; - y c N C C C V A D.) - $ s.eXwXeX9X>X4.Q #.Q o.=.=.W + o h F.H.H.H.Z.Z.G.K.H.H.H.G.H.G.N.c.m M.H.G.Z.V.Z.Z.Z.Z.U.) + : 2XeXeXeXeXrX#X8 q -Xp.p.s.p.p.t.t.p.p.p.p.p.p.p.p.p.p.p.p.p.u.i.@.+ 8 ^ +.o...+.5 * ;XMXmXmXmXmXNXGXKXPXPXPXPXPXPXPXPXPXPXPXPXPXPXPXPXPXPXPXPXPXPXPXPXPXPXPXPXPXPXPXPXPXPXPXPXPXPXPXPXPXPXPXPXPXPXPXPXPXPXPX",
"PXPXPXPXPXPXPXPXPXPXPXPXPXPXPXPXPXPXPXPXPXPXPXPXPXPXPXPXPXPXPXPXPXPXPXPXPXPXPXPXPXPXPXPXPXPXPXPXPXPXPXPXPXPXHXnXr X f.zXrXeXrX8X+.4 +X{.p.s.s.s.p.p.p.p.p.p.p.p.p.p.p.p.p.p.p.p.p.i.%.# 8 T Y W W T 8   $ v b M M V S V V V V z u k J.Q.Q.W.Q.Q.E.Q.Q.).Q.W.Q.(.H O 6 5XzX>X'.'.].].p.3.:.#.#.o.o...4   5 b S V C C N S [ Y.P.< # Q XXQ.!.!.!.Q.Q.).H.N B.)._.!.!.!.Q.W.Q.Q.Q.W.W.Y.[ G Y.).!.!.W.!.!.Q.Q.K.G [ l.A Y.E.Q.Q.Q.Q.Q.!.Q.Q.Q.Q.Q.Q.Q.W.W.W.W.R.Q.E.J.V.V.H.G.G.G.G.v.k.V.V.V.G.G.G.G.G.V.G.V.V.V.Z.T.E.J.d _ qXOX).Y.Y.R.L.L.L.Y.Y.K.L.L.L.L.L.E.K.J.B.M.A p M.H.Y.U.U.L.Y.Y.Y.L.L.L.L.Y.K.K.K.K.K.K.K.K.H.C.K.H.M.A F D.H.H.G.H.G.G.G.G.H.D.G.H.M.c ; - y c N C C C C A D.) @ $ s.eXwXeX9X4Xq.Q o.Q Q o.o.W + o h F.H.H.H.H.H.H.H.H.H.H.H.Z.G.N.[ m A.H.G.Z.Z.Z.H.Z.C.H.) + : -XeXeXeXeXrX#X8 q -Xu.i.p.i.p.p.p.p.p.p.p.p.t.t.p.p.p.p.p.p.i.r.@.+ 8 ^ ..o...W 5 * ;XmXmXmXmXmXNXGXKXPXPXPXPXPXPXPXPXPXPXPXPXPXPXPXPXPXPXPXPXPXPXPXPXPXPXPXPXPXPXPXPXPXPXPXPXPXPXPXPXPXPXPXPXPXPXPXPXPXPXPX",
"PXPXPXPXPXPXPXPXPXPXPXPXPXPXPXPXPXPXPXPXPXPXPXPXPXPXPXPXPXPXPXPXPXPXPXPXPXPXPXPXPXPXPXKXKXKXPXPXPXPXKXKXKXKXHXnXe % d.zX6XeX6X8X$.4 +X{.s.f.f.s.p.p.p.p.p.p.i.p.p.p.p.p.p.p.p.i.p.r.#.& 8 T T W W T 4   $ v z V M S S V V C C V i p D.Y.Q.W.W.Q.Q.Q.Q.Y.E.W.Q.U.H O 6 5XuX>X'.'.[.].p.3.:.#.#.o.o.T 4   5 b S V M C N S [ Y.P.> o Q XXQ.).).).).Q.Q.D.N D.)._._.!.!.Q.Q.Q.Q.I.!.W.).c.F Y.).!.!.!.!.!.!.!.Y.l.[ l.A H.).Q.Q.).Q.Q.Q.Q.Q.Q.Q.Q.Q.Q.Q.W.Q.R.Q.Q.Q.R.V.G.G.G.G.G.G.V.k.v.G.G.G.G.G.G.G.G.G.V.G.V.V.K.R.(.N j ,XOX.XL.Q.R.K.L.L.L.R.Y.L.E.E.E.E.Y.L.K.V.M.] n ' J.U.L.Y.Y.Y.Y.Y.K.K.L.Y.K.K.I.K.K.K.K.K.H.H.Z.Z.I.N.F C D.H.H.H.H.H.G.H.Z.H.D.G.H.M.c ; - y c N C N C C G M.) O $ s.eXeXeX9X4X4.Q Q Q Q o.=.W + o h F.G.H.G.G.H.K.H.H.H.H.H.Z.G.B.' m D.H.G.Z.Z.Z.Z.Z.C.H.) @ , -XeXeXeXeXrX-X0 q -Xu.i.s.p.p.p.p.p.i.i.p.p.e.e.p.p.p.p.p.p.p.i.+.+ 8 ^ W Q ..W 8 * ;XmXmXmXmXmXNXGXKXPXPXPXPXPXPXPXPXPXPXPXPXPXPXPXPXPXPXPXPXPXPXPXPXPXPXPXPXPXPXPXPXPXPXPXPXPXPXPXPXPXPXPXPXPXPXPXPXPXPXPX",
"PXPXPXPXPXPXPXPXPXPXPXPXPXPXPXPXPXPXPXPXPXPXPXPXPXPXPXPXPXPXPXPXPXPXPXPXPXPXPXPXPXPXPXKXPXKXPXPXPXKXKXKXKXHXKXnXr # d.zXrXrX9X8X*.4 +X{.s.f.p.p.i.p.i.i.p.p.s.p.p.p.p.p.p.p.p.i.e.r.%.$ 8 T T W W Y =   $ v z V M S S V V C C S z p D.Y.Q.Q.!.Q.E.Q.).Q.Q.W.Q.U.J O 6 3XuX>X'.].].].'.3.:.#.#.Q o.W 4   5 S S V V S M M [ Y.P.> o Q XXQ.!.!.Q.Q.Q.E.B.N H.)._.!.Q.!.Q.Q.Q.Q.R.W.W.).M.A U.Q.!.!.W.!.!.!.!.Y.l.' [ A N.Q.Q.Q.).Q.Q.Q.Q.Q.Q.Q.Q.Q.Q.Q.W.W.W.Q.).Q.R.Z.V.G.G.G.V.V.V.v.k.v.V.V.G.G.G.G.G.G.V.G.V.N.H.T.E.} i }.,XXXY.E.R.K.L.L.L.Y.E.Y.E.E.E.E.E.E.K.C.z.[ m C H.L.Y.U.L.L.L.L.K.J.K.K.I.K.K.K.K.K.K.K.K.K.K.Z.K.G.l.m A.H.H.G.G.H.Z.G.Z.D.D.H.H.M.z ; - y c N C N C C A M.) O $ s.eXeXeX9X,Xq.Q Q Q Q o.#.W + o h F.G.H.H.G.H.H.J.J.J.H.H.Z.Z.c.' f D.H.G.Z.V.Z.H.Z.Z.H.) @ : #XeXeXeXeXrX#X0 q -Xu.s.s.i.p.p.p.p.p.p.i.i.t.p.i.p.i.i.p.p.p.i.@.+ 8 ^ W W Q T 8 & ;XmXnXmXmXmXBXFXKXPXPXKXPXPXPXPXPXPXPXPXPXPXPXPXPXPXPXPXPXPXPXPXPXPXPXPXPXPXPXPXPXPXPXPXPXPXPXPXPXPXPXPXPXPXPXPXPXPXPXPX",
"PXPXPXPXPXPXPXPXPXPXPXPXPXPXPXPXPXPXPXPXPXPXPXPXPXPXPXPXPXPXPXPXPXPXPXPXPXPXPXPXPXPXKXJXJXGXGXGXGXGXGXGXGXFXFXnXr X i.zX9X6X6X5X6.* f.{.i.p.i.i.i.i.i.i.i.i.i.i.i.i.i.i.r.r.r.i.e.w.+.* 8 T T W W Y =   $ v z M M S V V V C C V z p } Y.Q.W.!.Q.Q.Q.Q.Q.Q.W.Q.U.J O 6 3XuX>X'.[.].].].3.:.#.#.o.o.T 4   5 S S V V S C S [ Y.P.> o Q XXQ.Q.!.Q.Q.Q.Q.M.N J.)._.!.Q.!.Q.Q.Q.Q.Q.W.W.).D.A H.Q.!.!.!.!.!.!.).E.l.' l.F l.).Q.Q.Q.Q.Q.Q.Q.Q.Q.Q.Q.Q.Q.Q.W.W.W.Q.Q.Q.R.H.V.V.G.G.V.V.V.v.k.k.V.V.G.G.G.G.G.G.G.G.Z.B.Z.T.E.S.s A.qXOX).Y.R.R.R.K.L.Y.).).E.E.E.E.E.Y.K.C.z.c.C m M.J.U.L.K.K.L.U.K.K.K.K.K.K.K.K.K.K.K.K.K.K.Z.Z.K.H.v.N } H.H.G.G.H.G.Z.G.H.H.G.H.D.M ; - y c N C N N C A M.) O * [.rXeXeX9X4Xq.Q Q Q Q o.#.W + o h F.G.H.G.G.H.H.J.J.J.H.H.Z.Z.l.G m D.H.G.Z.V.Z.H.G.Z.H.=.@ * #XeXeXeXwX9X#X0 8 +Xi.i.i.i.i.i.i.i.i.i.i.r.r.r.r.r.r.r.t.r.i.r.T + 8 T W Q Q T 5 * ;XnXnXnXnXnXmXAXFXFXJXJXPXPXPXPXPXPXPXPXPXPXPXPXPXPXPXPXPXPXPXPXPXPXPXPXPXPXPXPXPXPXPXPXPXPXPXPXPXPXPXPXPXPXPXPXPXPXPXPX",
"PXPXPXPXPXPXPXPXPXPXPXPXPXPXPXPXPXPXPXPXPXPXPXPXPXPXPXPXPXPXPXPXPXPXPXPXPXPXPXPXPXPXFXBXnXkXkXkXkXkXkXkXkXhXhXsXe   ! d.i.p.i.9.r % ! ! ~ @.! ! ! Y Y ! Y Y Y Y Y Y ! ! Y Y Y ! Y Y q # = q I Y ~ Y =   @ v b M V S V M V V C V S k F U.Q.E.!.Q.Q.Q.Q.Q.W.W.Q.U.H O < 3XzX>X[.].].].].3.:.o.#.=.o.T 4   5 b S M V S S S [ Q.(.> o Q XXQ.Q.!.Q.Q.Q.).M.C U.)._.!.W.!.!.Q.Q.Q.Q.R.W.Q.H.A H.Q.!.!.!.!.Q.!.).Q.B.G c.G l.).Q.Q.Q.Q.Q.Q.Q.W.W.W.Q.Q.Q.Q.W.E.Q.Q.Q.Q.R.K.V.b.V.V.Z.V.V.V.v.k.B.Z.G.G.G.G.G.G.G.V.V.B.Z.K.R.J.c S ,XOX).T.L.R.E.L.L.L.E.).E.E.E.E.E.L.L.H.v.v.' p } J.L.L.L.L.U.U.L.L.K.K.K.K.K.K.K.K.Z.K.K.K.K.C.H.H.S.C D H.H.G.Z.G.G.H.H.H.H.G.H.D.V ; - y c N Z C A A F A.) O * [.eXeXeX9X4Xq.Q Q Q Q o.o.W + o h F.H.H.H.G.G.H.H.H.J.H.H.H.D.c.F N H.G.G.Z.Z.G.H.Z.C.H.| - & +XeX6X9X3X#X6.* & O.T T T Y Y Y Y Y Y Y Y ! ! ~ ! ~ ~ ~ @.@.O.! 0 + 4 q q w q 0 4 * y.;Xh.*X;X;X;XdXdXhXnXBXJXKXPXPXPXPXPXPXPXPXPXPXPXPXPXPXPXPXPXPXPXPXPXPXPXPXPXPXPXPXPXPXPXPXPXPXPXPXPXPXPXPXPXPXPXPXPXPX",
"PXPXPXPXPXPXPXPXPXPXPXPXPXPXPXPXPXPXPXPXPXPXPXPXPXPXPXPXPXPXPXPXPXPXPXPXPXPXPXKXPXFXkX5.8 8 8 8 8 4 4 4 4 4 4 = + + + * : : : * # # # + @ & & @ & & & & @ & @ & & & & & & & & & & * #     # * 4 q r ,   $ v b M V S V V C V V V V M C U.).W.W.Q.Q.Q.!.Q.W.W.).U.H O < 3XzX>X[.].].].].3.:.o.#.o.o.W 4   5 b z M C S S S [ Q.(.< o Q XXQ.Q.Q.Q.Q.Q.).c.C U.).!.!.Q.!.Q.).Q.Q.Q.Q.W.Q.H.N N.Q.!.!.!.!.Q.!.!.).N.G l.' ' ).Q.Q.).Q.Q.Q.Q.Q.W.Q.Q.Q.Q.Q.Q.Q.E.Q.Q.Q.Q.R.Z.V.V.V.V.G.V.V.z.k.l.S.G.G.G.G.G.G.G.G.Z.Z.Z.J.R.T.` M oX=X.XR.L.T.E.L.L.L.E.E.E.E.Y.L.L.L.L.L.B.z.l.m C F.U.L.J.J.L.U.L.L.L.K.K.K.K.K.K.K.Z.K.K.K.K.Z.H.H.H.` m U.H.Z.Z.G.G.H.J.H.H.G.H.D.V ; - u B N Z Z A Z F A.| O $ [.eXeXeX9X4Xq.Q Q Q Q o.o.W + o h F.H.H.Z.G.G.H.H.H.J.H.H.H.S.c.A N H.G.Z.G.H.G.G.Z.C.H.| - * +X8X-Xi.K , * . . + @ @ @ & @ @ @ @ @ @ @ & & * * * $ $ * * & & & + + + + & & & + + * = = * = = = 4 8 8 8 5.nXJXPXPXPXPXPXPXPXPXPXPXPXPXPXPXPXPXPXPXPXPXPXPXPXPXPXPXPXPXPXPXPXPXPXPXPXPXPXPXPXPXPXPXPXPXPXPX",
"PXPXPXPXPXPXPXPXPXPXPXPXPXPXPXPXPXPXPXPXPXPXPXPXPXPXPXPXPXPXPXPXPXPXPXPXPXPXPXKXJXnX5.& q r w q q 0 q q q w w w w K K w w K U K I I I K I I I K I I I I K K K I I I Y Y Y Y Y U Y ! r # # : & + + = &   # v b V V S S V V V V V M D N D.).Q.Q.Q.Q.Q.Q.Q.W.W.).U.H O < 3XlX>X].`.`.].].3.#.o.#.o.o.W 4   5 b b M S S S S l.Q.(.< o Q XXQ.Q.Q.W.Q.Q.Y.[ F Y.).!.!.!.).Q.).Q.Q.Y.E.W.Q.H.F M.Q.!.!.!.!.!.!.!.).H.G l.' ( ).Q.Q.Q.Q.Q.Q.Q.Q.W.Q.Q.Q.Q.Q.Q.Q.E.Q.Q.Q.W.R.C.V.V.V.V.V.V.B.B.k.k.B.G.G.G.G.G.G.G.G.G.Z.Z.H.R.R.n.p U.qXOXR.E.E.Y.L.L.E.E.Y.E.E.E.L.L.J.L.L.G.v.v.A m A.U.L.K.K.L.J.L.L.L.K.K.K.K.K.H.K.Z.K.K.K.K.H.H.J.J.c.p D.H.Z.Z.Z.H.H.J.H.H.G.J.D.V ; - u B N Z C A Z A A.) O $ [.eXwXrX9X4Xq.Q Q Q Q Q o.W + o h F.H.H.Z.G.G.H.H.H.J.H.H.H.N.c.A Z H.H.G.G.G.G.Z.C.C.H.=.@ & 5.%.5 & @ 4 8 % 8 I H H K K K K U I I U T Y Y Y Y T T T Y Y Y Y Y Y I Y I I Y Y Y Y I I I I I Y Y Y ! ! q # y.CXKXPXPXPXPXPXPXPXPXPXPXPXPXPXPXPXPXPXPXPXPXPXPXPXPXPXPXPXPXPXPXPXPXPXPXPXPXPXPXPXPXPXPXPXPXPX",
"PXPXPXPXPXPXPXPXPXPXPXPXPXPXPXPXPXPXPXPXPXPXPXPXPXPXPXPXPXPXPXPXPXPXPXPXPXPXPXKXFXhXe 8 g.d.8.r.r.s.s.s.i.s.s.s.i.s.i.i.i.s.s.s.r.i.i.i.s.i.i.i.i.i.i.i.i.i.i.i.i.i.i.i.i.i.i.s.i.a.6.: 4 ! r 8 4 +     # v b V V S V M M V S V V ` F M.).Q.Q.Q.E.E.W.Q.!.R.).U.H O < 3XzX>X].].].].p.2.#.o.#.o.o.W 4   5 b b M S S S S l.Q.(.< o Q XXQ.Q.Q.Q.Q.).Y.[ F Y._.!.!.).).).Q.Q.Q.Y.R.R.Q.H.F M.Q.!.!.!.!.!.!.!.Q.G.Z [ ' A ).Q.Q.Q.Q.Q.Q.Q.Q.Q.Q.Q.Q.Q.Q.Q.Q.Q.Q.Q.Q.Q.E.J.V.V.V.V.V.G.v.G.z.k.B.B.G.G.V.G.G.G.Z.Z.Z.V.Z.T.R.F.i A.,XOXQ.Y.E.T.T.L.E.Y.L.E.E.E.E.L.K.I.K.H.v.z.` m } J.U.L.L.Y.U.Y.L.K.K.K.K.K.K.K.K.H.H.Z.K.K.K.K.J.H.D.m } J.G.H.Z.G.H.L.H.H.G.J.D.V ; - u B Z Z C A Z A A.) O $ [.eXeXeX9X4Xq.Q Q Q Q Q o.W + o h F.H.H.Z.G.G.G.H.H.G.G.H.H.M.c.Z A J.H.G.Z.Z.G.Z.C.C.Z.=.$   & + 4 %.p.#Xg.8 O.@Xs.[.s.d.s.s.s.s.i.i.s.i.i.i.s.s.s.s.i.s.s.s.i.s.i.i.i.i.i.i.i.i.i.i.i.r.i.i.r.a.i.d.&.* e nXKXPXPXKXPXPXPXPXPXPXPXPXPXPXPXPXPXPXPXPXPXPXPXPXPXPXPXPXPXPXPXPXPXPXPXPXPXPXPXPXPXPXPXPXPXPX",
"PXPXPXPXPXPXPXPXPXPXPXPXPXPXPXPXPXPXPXPXPXPXPXPXPXPXPXPXPXPXPXPXPXPXPXPXPXPXPXHXGXdX8 I #Xs.>.q.w.r.t.t.r.r.t.r.r.p.p.i.r.r.r.r.e.e.t.p.p.p.i.p.r.r.p.r.e.r.r.e.r.t.t.t.e.e.r.t.i.i.6., , ! ! ! Y q +   # v b M V S S V M V V V M ] F l.Y.Q.W.Q.Q.Q.Q.W.!.W.).U.H O < 8XzX>X].].].].].3.o.o.#.o.o.W 4   5 b b M S / S S [ Q.(.< o Q XXE.Q.Q.Q.Q.Q.U.' F Y.).W.!.!.).).Q.Q.Q.E.R.W.E.H.G [ E.).!.!.Q.!.!.!.).H.G k.[ A (.Q.Q.Q.Q.Q.Q.Q.Q.Q.Q.W.Q.Q.Q.Q.Q.Q.Q.Q.Q.W.Q.R.Z.V.V.G.G.V.V.G.B.l.l.G.G.G.B.G.G.S.V.V.Z.Z.V.K.R.J.m ] OX&X.XY.E.L.T.L.L.L.L.Y.Y.E.Y.K.K.K.Y.K.B.c.[ m F H.U.L.L.Y.U.Y.L.L.K.K.K.K.L.U.L.K.K.K.K.K.K.H.J.H.H.Z m (.H.G.Z.G.G.J.H.H.G.J.D./ ; - u B Z Z C Z Z A n.) O $ [.eXeXeXrX4Xw.Q Q Q Q Q o.W + o h F.H.H.Z.G.G.H.H.H.G.Z.H.H.v.c.C ( U.H.G.G.Z.Z.Z.C.C.Z.=.@   8 r.#X8XlXzX#X8 Y {.t.t.'.p.p.p.t.p.p.p.p.r.r.t.t.t.t.t.t.t.t.t.t.t.t.t.p.p.r.r.e.w.e.e.e.w.w.w.w.w.w.r.%.& 8 nXHXHXKXPXKXPXPXPXPXPXPXPXPXPXPXPXPXPXPXPXPXPXPXPXPXPXPXPXPXPXPXPXPXPXPXPXPXPXPXPXPXPXPXPXPXPX",
"PXPXPXPXPXPXPXPXPXPXPXPXPXPXPXPXPXPXPXPXPXPXPXPXPXPXPXPXPXPXPXPXPXPXPXPXPXPXPXHXGXdX8 ~ :Xs.>.q.q.q.w.e.w.e.t.e.w.e.p.p.t.e.e.e.p.p.t.t.e.r.p.p.p.t.p.t.e.t.e.e.e.t.t.t.e.e.p.u.p.r.*.: 4 ! T T Y Y *   $ v b V V S S V M V V V M ` [ ' Y.Q.Q.Q.Q.Q.W.W.W.W.).(.L O < 5XzX>X].].].].'.3.o.o.#.o.o.W 4   5 b b M S / S S [ Q.(.< o Q XXE.Q.Q.Q.Q.Q.Y.` ` (.).!.!.!.).).Q.Q.Q.Q.R.W.Q.U.F G E.!.).!.!.!.).).Q.K.k.k.[ Z U.Q.Q.Q.Q.Q.Q.Q.Q.Q.Q.W.Q.Q.W.Q.Q.Q.Q.Q.E.Q.Q.R.G.V.V.G.G.V.B.V.B.c.G v.S.B.G.G.S.S.V.V.V.V.V.K.R.).` S XX&XXXI.E.E.E.T.Y.Y.Y.Y.E.Y.L.K.K.K.I.K.V.c.c.N N D.U.Y.L.L.Y.L.L.L.K.K.K.K.L.U.L.K.K.K.G.Z.Z.H.H.H.J.[ p U.J.G.G.G.H.J.H.H.H.J.D.V ; - u B Z Z C Z Z A n.) O $ [.eXeXeX9X4Xw.Q Q Q Q Q o.W + o h F.H.H.H.G.H.H.K.H.J.Z.Z.N.c.c.N ' H.H.G.Z.Z.Z.Z.C.C.H.=.@ + d.9XrXrXeXeX|.8 I {.t.t.'.p.p.p.p.p.p.p.p.p.p.p.t.t.t.t.t.t.t.t.t.t.t.e.t.t.e.e.e.w.t.e.w.e.e.e.w.w.w.r.$.: 8 vXAXDXGXJXHXKXPXPXPXPXPXPXPXPXPXPXPXPXPXPXPXPXPXPXPXPXPXPXPXPXPXPXPXPXPXPXPXPXPXPXPXPXPXPXPXPX",
"PXPXPXPXPXPXPXPXPXPXPXPXPXPXPXPXPXPXPXPXPXPXPXPXPXPXPXPXPXPXPXPXPXPXPXPXPXPXPXHXFXdX4 +.2X].:.7.q.q.w.e.w.e.e.e.w.e.t.e.e.w.e.r.i.i.r.e.e.e.e.p.p.t.p.t.e.e.e.e.e.t.r.e.r.r.p.e.t.r.*.: , ! W W T T :   $ v b V V S S V M V V V M ` } F H.Q.Q.Q.).Q.W.W.!.W.).(.R O , 5XzX>X].].].].].3.o.o.#.o.o.W 4   , b b M V / S S [ Q.(.< o Q XXE.Q.Q.Q.Q.Q.Y.F [ (.).!.!.Q.!.).!.Q.Q.Q.I.W.Q.U.G G Y.!.!.!.!.!.!.!.Q.R.l.[ [ C D.Q.Q.Q.Q.Q.Q.Q.Q.Q.Q.Q.Q.Q.W.Q.E.Q.Q.E.Q.Q.Q.Q.H.V.V.G.V.V.B.B.B.B.' l.S.S.G.G.S.S.V.B.V.V.V.J.T.).} k }.OXOXH.E.E.T.L.L.T.T.Y.E.Y.I.I.I.K.I.K.Z.l.c.F n M.H.Y.L.L.L.L.L.Y.L.K.K.K.L.L.L.K.K.K.H.Z.G.H.J.J.J.v.p D.Y.H.C.H.J.H.H.H.G.H.D./ ; - u N Z C V Z A A n.) O * [.eXeXeX9X4Xq.Q Q Q Q Q o.T + o h F.H.H.Z.H.G.H.H.H.J.Z.G.N.l.c.N } H.H.G.Z.Z.Z.Z.G.C.H.| - * #XeXrXwXwXrX|.8 r d.t.t.'.'.p.t.t.p.p.p.p.e.p.p.e.e.t.t.t.t.t.t.r.r.t.e.e.e.e.e.e.w.r.r.t.r.e.e.e.w.w.r.*., 8 vXAXVXAXAXFXPXPXPXPXPXPXPXPXPXPXPXPXPXPXPXPXPXPXPXPXPXPXPXPXPXPXPXPXPXPXPXPXPXPXPXPXPXPXPXPXPX",
"PXPXPXPXPXPXPXPXPXPXPXPXPXPXPXPXPXPXPXPXPXPXPXPXPXPXPXPXPXPXPXPXPXPXPXPXPXPXPXHXGXdX4 +.3X`.=.3.w.w.t.e.e.w.e.w.w.t.t.t.e.t.t.t.t.t.t.e.e.e.e.e.p.t.t.e.e.e.e.e.e.e.e.e.e.e.i.u.e.i.6.* : Y W P T Y :   $ v b V V V S V V V V M C F M.F D.).).).!.W.W.Q.!.W.Q.(.R O , 5XzX>X`.].].].'.3.o.o.#.o.o.+.4   5 b z M V V S S [ Q.(.< o Q XXE.Q.Q.Q.Q.Q.U.A [ Y.Q.!.!.!.!.!.!.Q.Q.Q.R.R.Q.U.l.G U.Q.Q.!.!.Q.!.!.Q.E.l.' [ C M.).).).W.Q.Q.Q.Q.Q.Q.Q.Q.Q.W.E.E.E.E.E.Q.Q.W.W.K.V.V.G.G.V.G.V.v.B.k.G B.S.G.G.G.G.G.V.V.V.V.C.K.E.S.k (.$XOXR.Y.L.L.Y.Y.E.E.Y.R.Y.I.I.I.K.I.I.G.l.c.[ m [ H.Y.K.K.L.L.K.K.K.K.K.K.L.L.L.K.H.K.H.G.H.H.J.G.J.G.m ' (.H.G.G.H.H.H.H.G.H.D._ ; - u N Z C C C N A n.| O * [.eXeXeX9X4Xq.Q Q Q Q ..o.W + o h F.H.H.Z.H.G.G.H.H.H.Z.Z.N.l.c.m n.H.G.G.G.G.H.H.Z.C.H.| - : #XrX6XeXeXrX|.5 r d.e.t.p.p.p.p.t.t.p.p.e.e.e.e.e.e.e.e.e.e.e.e.e.e.e.e.e.e.e.e.e.w.r.r.r.r.r.r.r.e.e.t.*.: = kXVXVXVXNXAXJXPXPXPXPXPXPXPXPXPXPXPXPXPXPXPXPXPXPXPXPXPXPXPXPXPXPXPXPXPXPXPXPXPXPXPXPXPXPXPXPX",
"PXPXPXPXPXPXPXPXPXPXPXPXPXPXPXPXPXPXPXPXPXPXPXPXPXPXPXPXPXPXPXPXPXPXPXPXPXPXPXHXGXdX4 +.2X`.=.3.w.w.t.e.e.w.e.e.e.t.t.t.r.r.r.r.t.p.p.t.r.t.e.p.p.u.r.e.e.e.e.e.e.e.p.p.e.e.e.i.w.u.*.* 3 U W T T Y *   $ J b V V V V V V V V M C F B.G N.(.(.).!.W.W.).!.W.W.(.R O > 3XzX>X[.].].].'.3.#.o.#.Q o.^ 4   5 b z z V V S S [ Q.(.< o Q XXQ.Q.Q.Q.Q.Q.J.A l.E.W.!.!.!.!.!.!.Q.Q.Q.R.R.E.L.l.F U.Q.Q.!.!.Q.Q.Q.Q.E.z.' [ C c.).).).W.!.Q.Q.E.Q.Q.E.W.Q.Q.Q.Q.Q.R.R.R.E.E.W.I.Z.V.V.G.V.G.V.V.G.v.A c.M.G.G.G.G.G.G.V.V.V.G.K.E.J.V F.$XOX!.Y.Y.Y.Y.Y.R.L.L.Y.Y.I.Y.I.K.K.I.G.l.M.l.m C H.L.R.K.K.L.K.K.K.K.K.K.K.L.L.K.H.K.H.J.H.J.K.G.H.G.C C (.K.Z.Z.G.J.H.H.G.G.D._ ; - u N N Z C C N A n.| O * [.eXeXeX9X,Xq.Q Q W Q ..o.W + o h A.H.H.Z.G.G.G.G.H.H.H.Z.B.l.c.m A.H.G.G.G.G.G.H.Z.C.L.) @ * #XrX6XeXwXrX|.5 q f.u.t.p.p.e.e.e.e.p.p.p.e.e.t.e.p.t.t.e.e.e.e.e.e.e.r.e.e.e.e.e.e.r.r.r.w.r.w.w.e.e.t.:., = kXVXVXVXBXAXJXPXPXPXPXPXPXPXPXPXPXPXPXPXPXPXPXPXPXPXPXPXPXPXPXPXPXPXPXPXPXPXPXPXPXPXPXPXPXPXPX",
"PXPXPXPXPXPXPXPXPXPXPXPXPXPXPXPXPXPXPXPXPXPXPXPXPXPXPXPXPXPXPXPXPXPXPXPXPXPXPXHXGXdX8 ^ 2X[.=.3.w.w.e.e.e.w.t.t.t.t.t.t.e.r.r.t.t.t.t.t.t.p.p.p.e.e.r.p.i.e.e.e.r.p.p.p.u.u.u.i.w.w.*.= 3 U W T T Y *   * J b V / V V V V V V V V F Z.l.G U.Y.Q.!.!.W.).!.W.Q.(.H O > 3XzX>X].].].].'.>.#.o.$.o.o.^ 4   5 b z z V V S D l.Q.(.< o Q XXQ.Q.).Q.Q.Q.H.A l.Y.!.!.!.!.!.!.!.Q.Q.Q.R.R.E.U.c.A H.Q.Q.!.!.Q.Q.Q.Q.Q.V.' [ A [ Y.E.).W.!.Q.Q.E.Q.Q.E.W.Q.Q.Q.Q.Q.Q.W.W.W.R.E.R.H.V.V.V.V.G.V.V.V.V.k.G S.G.G.G.G.G.G.V.V.V.V.K.R.L.( _ $XOX_.R.R.R.R.Y.K.K.L.L.Y.I.R.I.K.K.I.H.B.B.c.C m S.Y.I.K.K.K.K.L.L.K.K.K.H.L.U.L.K.H.H.J.H.H.J.H.G.H.{ m Y.K.G.Z.G.H.H.H.G.H.D._ ; - u m N Z C C N A n.| O * [.eXeXeX9X,Xq.Q Q W Q ..o.W + o h A.D.H.Z.G.G.G.G.H.H.Z.N.c.l.c.m D.H.G.G.G.G.G.H.Z.C.J.| @ : #XrX6XeX6XrX|.5 q f.w.t.p.p.u.p.p.p.p.p.t.t.t.t.e.t.t.t.e.e.t.t.e.e.e.t.e.e.e.e.e.r.r.r.r.r.r.r.r.e.e.t.,.5 = kXVXVXVXBXVXJXPXPXPXPXPXPXPXPXPXPXPXPXPXPXPXPXPXPXPXPXPXPXPXPXPXPXPXPXPXPXPXPXPXPXPXPXPXPXPXPX",
"PXPXPXPXPXPXPXPXPXPXPXPXPXPXPXPXPXPXPXPXPXPXPXPXPXPXPXPXPXPXPXPXPXPXPXPXPXPXPXJXGXhX8 +.2X[.:.3.w.q.e.e.e.e.e.t.t.t.t.t.p.p.t.e.e.e.e.e.e.i.p.i.i.i.p.p.p.p.i.i.p.i.i.e.e.e.e.i.w.w.&.= * I W T T I *   $ J J / V / C C V M V V N F N.N.Z U.Q.W.W.W.W.).!.W.W.(.H O > 3XzX>X].].].[.s.3.#.#.#.:.o.T 4   5 b z z V V S S [ Q.(.< o Q XXQ.Q.).Q.Q.Q.H.A c.E.!.W.!.!.!.!.!.Q.!.Q.R.I.E.I.l.Z H.Q.Q.!.!.Q.Q.Q.Q.Q.Z.' l.F ' Y.E.).W.W.Q.Q.Q.Q.Q.Q.Q.Q.Q.Q.Q.Q.Q.Q.Q.W.E.E.R.K.V.V.V.V.V.V.V.V.V.z.A c.G.G.G.G.G.V.V.V.V.V.H.T.L.] M $X&X.XR.R.R.R.I.K.K.L.L.R.R.R.I.I.K.K.K.B.z.c.' m c.H.K.Y.L.K.L.L.L.L.Y.L.H.K.L.L.K.H.H.G.K.J.G.J.J.G.A.m J.J.H.Z.Z.G.H.H.G.H.D._ ; - u m N Z C C N A n.| O * [.eXeXeX9X,Xq.Q Q W Q Q o.W + o h A.D.G.Z.G.G.G.G.G.H.Z.N.l.l.l.n D.H.G.G.G.G.G.H.Z.C.J.| @ : #XrX6X6XwX9X X8 w f.w.t.p.p.p.p.p.e.r.p.t.p.p.e.e.e.e.p.p.p.t.e.t.p.e.e.e.e.p.p.p.t.e.r.t.e.w.w.w.e.w.e.,.5 = kXVXNXVXNXNXGXPXPXPXPXPXPXPXPXPXPXPXPXPXPXPXPXPXPXPXPXPXPXPXPXPXPXPXPXPXPXPXPXPXPXPXPXPXPXPXPX",
"PXPXPXPXPXPXPXPXPXPXPXPXPXPXPXPXPXPXPXPXPXPXPXPXPXPXPXPXPXPXPXPXPXPXPXPXPXPXPXKXGXhX8 Y :X{.:.3.r.w.e.e.e.e.e.t.e.e.e.e.e.e.p.p.e.e.e.r.r.r.r.r.i.i.r.r.e.e.r.e.i.r.u.e.e.e.r.i.w.e.&.= * I W T T Y *   * J / / V / / C V M V V N F N.Z.Z H.Q.Q.W.W.Q.Q.!.W.W.(.J O > 3XlX>X].].[.[.s.3.:.#.#.:.o.^ 4   8 J b z V V S S [ Q.(.< o Q XXE.Q.).).Q.Q.H.A c.E.!.!.!.!.!.).Q.Q.Q.W.W.R.E.U.B.Z H.Q.Q.Q.!.Q.Q.Q.Q.Q.H.' l.F ` Y.E.Q.Q.Q.Q.E.W.Q.Q.Q.W.W.Q.Q.Q.W.W.Q.W.E.E.E.R.K.Z.V.V.V.V.V.V.Z.V.B.' G B.B.B.G.V.V.V.V.V.V.G.T.L.} k oXOXXXE.I.I.I.I.R.R.L.Y.R.R.I.I.I.K.K.K.Z.z.z.c.m F H.H.I.R.L.L.L.L.L.L.L.H.K.L.L.K.J.H.G.H.H.G.G.H.G.D.m A.Y.H.Z.Z.G.H.H.G.G.D._ ; - u m N Z C V N A n.| O * {.rXwXeXrX,Xw.Q Q Q Q Q o.W + o h A.N.H.G.H.Z.H.H.H.H.H.N.l.l.' n F.H.G.G.G.G.G.H.Z.C.K.| @ : #XeX6X6XeXrX#X8 w f.u.t.p.t.p.p.p.p.e.e.t.p.p.p.p.p.p.p.t.t.e.e.e.t.e.e.e.e.e.e.e.e.e.t.w.w.w.w.w.w.r.r.,.5 4 kXVXVXVXNXNXGXPXPXPXPXPXPXPXPXPXPXPXPXPXPXPXPXPXPXPXPXPXPXPXPXPXPXPXPXPXPXPXPXPXPXPXPXPXPXPXPX",
"PXPXPXPXPXPXPXPXPXPXPXPXPXPXPXPXPXPXPXPXPXPXPXPXPXPXPXPXPXPXPXPXPXPXPXPXPXPXPXJXJXhX8 0 2X|.:.>.w.r.t.e.e.e.e.e.e.e.e.e.e.u.u.e.u.u.u.i.i.i.i.i.i.i.r.r.e.u.u.u.r.i.e.e.e.e.r.i.w.e.&.= * K W W T Y *   * J / / / / / V V V V V N F Z.G.F B.Y.Q.W.W.E.Q.W.W.Q.(.J O > 3XrX>X].[.].[.p.3.:.#.#.:.o.^ 4   8 S S z S S S S [ Q.(.< o Q XXQ.).).Q.Q.Q.H.A B.E.!.!.!.!.!.).Q.Q.Q.W.R.R.E.U.N.Z Z.Q.Q.Q.Q.Q.Q.Q.Q.Q.G.' l.` ` U.Q.Q.Q.Q.Q.E.W.Q.Q.Q.W.W.Q.Q.Q.W.E.Q.Q.E.W.W.R.Y.H.G.V.V.V.V.V.V.V.G.c.A c.B.B.G.V.V.V.V.V.V.Z.T.T.A.c }.qXOXQ.K.I.I.I.I.R.R.R.R.R.I.I.I.I.I.K.Z.z.z.c.N N N.H.I.R.L.L.L.L.L.L.L.H.K.L.L.K.J.H.H.G.G.Z.Z.G.G.A.V ] (.H.Z.C.G.H.H.Z.Z.D._ ; - u m Z Z C C N A n.| O * {.rXwXeXrX4Xw.Q Q Q Q Q o.W + o h A.N.H.G.H.Z.H.G.H.H.H.B.l.l.F n D.H.G.Z.Z.G.G.H.Z.C.K.| @ : #XeX6X6XeXrX#X8 r i.u.t.p.t.p.p.p.p.p.p.p.p.i.i.i.i.i.i.p.p.t.e.p.p.p.p.e.r.t.r.t.t.e.e.w.w.w.w.w.r.r.r.*.: 4 kXVXVXVXNXNXGXPXPXPXPXPXPXPXPXPXPXPXPXPXPXPXPXPXPXPXPXPXPXPXPXPXPXPXPXPXPXPXPXPXPXPXPXPXPXPXPX",
"PXPXPXPXPXPXPXPXPXPXPXPXPXPXPXPXPXPXPXPXPXPXPXPXPXPXPXPXPXPXPXPXPXPXPXPXPXPXPXJXJXkX! 5 #X-X2.>.q.w.t.e.e.e.e.e.e.e.e.e.u.u.u.e.u.u.u.i.i.i.i.u.i.i.r.r.e.e.e.e.e.r.u.e.e.e.r.u.u.i.&.= * U W W T Y *   * J J / / / / V V S V V N F N.G.' ' Y.Q.Q.W.E.E.W.W.Q.(.R O > 3XrX>X].[.].].p.,.:.#.#.:.=.^ 4   8 b S S S ) S S [ Q.(.< o Q XXQ.).).Q.Q.Q.H.A B.E.!.!.!.).).).Q.Q.W.W.R.R.E.Y.S.Z B.Q.!.Q.Q.Q.Q.Q.Q.Q.K.' l.` F U.Q.E.Q.Q.Q.E.W.Q.Q.Q.W.W.Q.Q.Q.W.E.E.W.W.E.E.E.E.K.G.V.V.V.V.V.V.V.S.B.G G B.G.G.V.V.V.V.V.V.Z.T.L.F.c ^.OXOX).K.I.K.K.Y.Y.L.Y.R.R.I.K.K.K.I.I.G.v.v.v.A n M.H.I.Y.L.L.L.L.L.L.L.H.K.L.L.K.J.H.H.G.G.V.V.Z.G.D.` ` (.J.Z.C.G.H.Z.Z.Z.D.S ; - u B Z Z C C N A n.| O * {.rXwXeXrX,Xw.Q Q Q Q Q o.W + o h <.N.H.G.H.G.H.H.H.H.H.M.l.l.A N D.Z.Z.Z.Z.G.G.Z.Z.C.G.| @ : #XeX6X6X6X9X#X8 I f.u.t.p.t.p.p.p.p.e.t.t.i.i.i.p.p.i.i.p.p.p.t.p.p.p.e.e.e.e.t.p.p.p.t.e.e.e.e.e.t.t.r.U + e nXVXNXVXNXNXJXPXPXPXPXPXPXPXPXPXPXPXPXPXPXPXPXPXPXPXPXPXPXPXPXPXPXPXPXPXPXPXPXPXPXPXPXPXPXPXPX",
"PXPXPXPXPXPXPXPXPXPXPXPXPXPXPXPXPXPXPXPXPXPXPXPXPXPXPXPXPXPXPXPXPXPXPXPXPXPXPXPXKXDXy.= r ;X+X1.,.7.8.w.w.w.e.e.w.w.e.u.i.i.w.w.w.w.i.i.i.i.8.8.8.8.r.w.8.8.i.i.e.e.e.r.r.r.w.w.w.0.&.: * ! W W T Y *   $ J J / / / / C C C V V C F S.G.B.N Y.).Q.W.E.E.R.W.).(.R O > 3XzX>X].].].s.s.,.$.#.#.o.o.^ 4   8 b b b M S S S [ Q.(.< o Q oXQ.Q.W.Q.Q.Q.H.Z B.E.!.!.!.!.).).!.Q.Q.Q.Q.R.W.Y.H.A ;.Q.Q.Q.!.!.Q.Q.Q.Q.I.G l.' C H.E.Q.W.W.Q.Q.Q.Q.Q.Q.Q.Q.Q.E.E.E.R.R.W.W.R.E.E.E.L.V.V.V.V.V.V.V.V.V.G.l.Z l.B.G.S.B.B.V.Z.V.N.C.T.J.B <.OX%X.XI.R.T.L.K.I.Y.R.I.R.K.I.I.I.K.K.H.V.z.z.' p [ J.L.L.K.L.L.L.L.L.L.L.L.L.L.K.J.H.J.J.G.v.z.B.V.D.' C (.U.Z.C.C.Z.Z.Z.G.D._ ; - a M Z Z C C N A n.| O & {.rXeXeXeX4Xq.Q Q Q Q Q =.^ + o 0 <.D.G.Z.Z.Z.H.H.H.H.Z.B.l.l.N N D.H.G.Z.Z.Z.Z.Z.Z.C.H.=.@ : #XeXeX6X6X9X|.6 Y s.e.e.e.u.u.e.u.u.u.e.e.w.i.i.i.i.w.w.i.i.i.i.i.i.i.r.r.0.0.0.r.i.r.r.r.r.e.e.e.r.8.^ * + 5.nXVXMXVXNXNXGXPXPXPXPXPXPXPXPXPXPXPXPXPXPXPXPXPXPXPXPXPXPXPXPXPXPXPXPXPXPXPXPXPXPXPXPXPXPXPXPX",
"PXPXPXPXPXPXPXPXPXPXPXPXPXPXPXPXPXPXPXPXPXPXPXPXPXPXPXPXPXPXPXPXPXPXPXPXPXPXPXPXPXPXBX5.% r a.g.6.5.6.6.6.6.6.0.6.6.6.0.0.0.6.6.6.6.6.6.6.6.6.6.6.6.6.6.6.6.6.6.6.6.6.6.0.6.6.1.6.6.O.* & r T ~ ! Y *   $ J J / V / / C C C V M C F S.G.H.N U.).Q.Q.W.E.W.W.).U.R O > 3XzX>X].].].[.s.,.$.#.#.o.o.^ 3   5 b b b M S S S [ Q.(.< o Q oXQ.Q.W.W.Q.Q.H.C B.Q.!.!.!.!.).).!.!.Q.Q.Q.R.E.Y.H.C } Q.Q.Q.!.!.Q.Q.E.Q.R.l.l.' C D.E.Q.W.!.!.Q.Q.Q.Q.Q.Q.Q.Q.E.R.E.E.E.W.W.R.E.E.E.Y.Z.B.B.v.V.V.V.V.V.V.B.G G M.S.B.B.B.B.N.N.B.C.T.L.M _ OX%X.XI.Y.R.L.K.K.Y.Y.I.R.K.I.I.I.K.K.K.V.z.z.c.m C F.Y.T.K.K.K.L.L.L.L.L.L.L.L.K.H.H.J.J.G.v.z.v.V.D.} B (.U.G.C.C.G.Z.Z.G.D._ ; - a M Z Z C C N A n.| O & {.rXeXeXeX4Xq.Q Q Q Q Q o.W + o 6 <.D.H.Z.Z.Z.H.G.G.G.Z.z.l.l.N N D.H.G.Z.Z.Z.Z.Z.Z.C.G.=.@ : #XeXrX9X8X8X{.5 ! a.r.8.8.0.0.0.0.0.0.0.6.0.0.0.0.0.6.6.6.6.0.0.0.0.6.6.6.6.6.6.6.6.6.6.6.6.6.6.6.#.0 + & e kXVXVXMXNXNXNXGXPXPXPXPXPXPXPXPXPXPXPXPXPXPXPXPXPXPXPXPXPXPXPXPXPXPXPXPXPXPXPXPXPXPXPXPXPXPXPXPX",
"PXPXPXPXPXPXPXPXPXPXPXPXPXPXPXPXPXPXPXPXPXPXPXPXPXPXPXPXPXPXPXPXPXPXPXPXPXPXPXKXPXPXJXAXg.e = # # #     o     + X X X X + + # + + + + @ @ @ + + + @ + + + + + + + + + + + + + + @ & &     4 0 w I ! =   $ J J / V / / C M M V M M F N.G.G.N D.).Q.Q.W.Q.W.R.).U.H O > 3XzX>X].].[.[.s.,.:.#.#.o.o.~ 3   5 b z z M S S S [ Q.(.< o Q XXE.Q.Q.W.W.Q.H.C N.Q.!.!.!.!.).).!.!.Q.Q.W.I.E.Y.H.F [ E.Q.Q.).!.Q.Q.Q.Q.E.l.[ [ C S.E.Q.W.W.!.Q.Q.Q.Q.Q.Q.Q.E.E.E.E.W.W.W.W.R.E.W.R.R.G.V.V.V.G.V.V.V.V.V.V.l.A c.v.B.S.B.B.B.B.B.V.K.L.` V $X%XXXI.R.T.K.K.I.Y.R.I.I.K.K.I.K.K.K.K.Z.z.z.c.C m M.J.L.K.K.K.K.K.K.K.L.L.L.L.K.H.H.J.J.G.v.z.z.v.M.M.m P.(.G.C.C.G.G.Z.G.D._ ; - a M Z Z C C N A n.| O & [.rXeXeXeX4Xw.Q Q Q Q Q Q W + o 6 <.D.H.Z.Z.H.H.G.G.G.Z.l.l.c.N F H.H.H.G.Z.Z.Z.Z.N.C.H.| + * @X5X-X{..., @ % = = : : * & & & & & * & & $ $ $ $ $ $ $ $ $ $ $ $ $ $ @ @ + + + + + & & & * , & + + * e 5.kXMXMXNXNXMXNXAXJXPXPXPXPXPXPXPXPXPXPXPXPXPXPXPXPXPXPXPXPXPXPXPXPXPXPXPXPXPXPXPXPXPXPXPXPXPXPXPXPX",
"PXPXPXPXPXPXPXPXPXPXPXPXPXPXPXPXPXPXPXPXPXPXPXPXPXPXPXPXPXPXPXPXPXPXPXPXPXPXPXPXPXPXPXJXDXvXsXh.h.y.= X 8 q q q q # # 8 8 8 0 8 8 8 8 8 8 8 8 8 8 8 8 8 8 4 8 8 8 8 8 5 5 5 8 5 5 4 =   X X + + 4 8 $   @ J J / V C / / C V V M M D N.G.H.F [ ).Q.W.W.Q.W.R.).U.H O > 3XzX>X].].[.[.p.3.$.#.#.:.o.~ 4   5 b z z M S S S [ Q.(.< o Q XXE.Q.Q.W.W.Q.H.C N.Q.!.!.!.!.).).!.Q.Q.Q.W.I.R.Y.H.F ` Y.Q.).).!.Q.Q.Q.Q.E.l.' } C B.).Q.W.W.Q.Q.Q.Q.Q.Q.Q.Q.W.E.E.Q.Q.Q.Q.W.R.E.E.R.R.H.V.G.Z.G.V.Z.Z.V.V.B.v.G G S.B.S.B.B.N.B.B.b.K.L.{ B OX&XXXY.Y.L.K.Y.Y.K.K.K.I.K.I.K.K.K.K.I.G.z.z.c.F n } J.K.K.K.K.K.K.K.K.L.L.L.L.K.H.H.J.J.G.v.z.z.v.B.M.m F.(.G.C.G.G.G.Z.G.D._ ; - a B Z Z C C N A A.| O & [.rXeXeXeX4Xw.Q Q Q Q Q o.~ @ o 6 <.D.H.Z.Z.Z.H.G.G.G.Z.l.l.c.m F D.H.G.G.Z.Z.Z.Z.Z.C.H.) @ $ 9.6.0 - : 8 8 X 4 8 5 6 8 8 8 5 5 5 8 5 5 5 5 5 5 5 5 8 5 5 5 5 5 5 8 8 8 8 8 & & 4 4 5 5 8 8 # # 5.h.hXnXNXNXBXNXMXNXNXAXJXPXPXPXPXPXPXPXPXPXPXPXPXPXPXPXPXPXPXPXPXPXPXPXPXPXPXPXPXPXPXPXPXPXPXPXPXPXPXPXPX",
"PXPXPXPXPXPXPXPXPXPXPXPXPXPXPXPXPXPXPXPXPXPXPXPXPXPXPXPXPXPXPXPXPXPXPXPXPXPXPXPXPXPXPXPXKXJXHXFXFXvXe % 5.6.,.*.*.5 5 *.#.#.+.#.+.+.+.@.+.+.@.@.@.@.@.@.@.@.@.@.+.+.+.W W W W ~ ~ ! r & * e 0 3 $ +     $ J J / / V / C C C V M V C B.Z.H.[ Z ).Q.W.E.Q.W.W.).(.L O > 3XzX>X].].[.[.p.3.:.#.$.:.#.^ 3   5 b z z M S S S [ Q.(.< o Q XXE.Q.!.E.W.Q.G.N M.E.W.W.!.!.).).).!.Q.Q.W.R.R.Y.H.F F Y.Q.).).).Q.E.R.Q.E.B.' } C M.).Q.W.W.Q.Q.E.E.E.E.Q.Q.Q.E.R.Q.Q.Q.Q.Q.E.E.R.R.R.K.V.V.G.G.V.V.V.V.V.V.B.k.A c.B.S.G.B.B.B.B.G.C.Y.n.k XX&XXXE.L.T.R.R.I.K.K.K.K.I.K.K.K.K.K.K.H.v.z.c.' p A H.K.K.K.K.C.K.K.K.L.L.L.L.J.H.H.H.H.G.v.z.z.v.v.M.M <.(.H.H.G.G.H.G.H.D._ ; - y B Z Z C C C A A.) o & [.rXeXeXeX4Xe.Q Q Q Q Q Q ^ @ o 6 ;.B.S.Z.Z.Z.H.G.G.H.B.l.l.c.n [ D.H.G.Z.Z.Z.Z.Z.Z.C.H.) @   , - > L i.@X0.* ! 6.#.o.#.+.........W W T T @.@.@.@.T T Y ~ ~ Y Y ~ @.! ! O.! 4 4 r I U U T Y $ = dXBXNXBXBXBXBXNXNXBXBXAXKXPXPXPXPXPXPXPXPXPXPXPXPXPXPXPXPXPXPXPXPXPXPXPXPXPXPXPXPXPXPXPXPXPXPXPXPXPXPXPXPX",
"PXPXPXPXPXPXPXPXPXPXPXPXPXPXPXPXPXPXPXPXPXPXPXPXPXPXPXPXPXPXPXPXPXPXPXPXPXPXPXPXPXPXPXPXPXPXHXJXHXnXr + 6.q.>.,.1.9 5 ,.$.$.#.#.#.#.+.+.+.+.........+.+.+.+.....#.#.o.....o...^ +.+.Y : 4 ! Y K I 0 $   $ J J V / B C C C C V M C F N.H.H.c.N ).Q.W.E.Q.W.R.E.U.H O > 3XzX>X].'.].[.p.>.#.#.$.:.:.^ 3   5 b z z M S S S [ Q.(.< o Q XXE.Q.!.W.W.Q.H.C M.E.W.W.!.!.).).).!.!.Q.W.R.R.Y.H.' D I.Q.).).Q.Q.Q.E.Q.E.N.' } N l.).Q.W.R.E.R.E.E.E.Q.Q.Q.Q.Q.Q.Q.Q.Q.Q.Q.W.E.R.R.E.L.G.v.G.G.V.V.V.V.V.V.B.z.G ' M.B.S.B.N.N.N.V.C.Y.A.k (.qXOXQ.L.T.R.R.I.K.K.K.K.I.K.K.I.K.K.K.J.V.z.z.c.m N D.U.K.K.K.H.K.K.K.L.L.L.L.K.H.H.J.J.G.v.z.z.z.z.M.C ] .XJ.C.G.G.G.G.H.D._ ; - y V Z Z C V N A n.) o & [.rXeXeXeX4Xw.Q Q Q Q Q Q ^ @ o 6 ;.B.S.Z.Z.Z.G.G.G.G.B.l.l.} n M.D.H.G.Z.Z.Z.Z.N.Z.C.H.| @   : P {.3X8XfXd.: Y 1.Q o.o.....o.o.o.o.o.......+.....+.....+.+.............+.@.5 5 I U L R W U $ = dXNXBXBXBXMXNXNXNXAXDXGXPXPXPXPXPXPXPXPXPXPXPXPXPXPXPXPXPXPXPXPXPXPXPXPXPXPXPXPXPXPXPXPXPXPXPXPXPXPXPXPXPX",
"PXPXPXPXPXPXPXPXPXPXPXPXPXPXPXPXPXPXPXPXPXPXPXPXPXPXPXPXPXPXPXPXPXPXPXPXPXPXPXPXPXPXPXPXPXPXPXPXKXnX .# 6.w.3.1.6.9 5 *.$.$.#.+.#.+.+.+.+.+.+.+.+.#.+.+.+.+.#.#.+.+.+.+.+.+.+.Q W +.T : 5 ~ W P T ! 4   $ J b V / B V C C C V V C F S.G.H.B.N K.E.W.E.Q.W.R.E.U.H O > 5XzX>X].'.'.[.p.>.#.#.$.:.:.^ 4   5 b z z z S S S [ Q.(.< o Q XXE.Q.Q.W.W.Q.H.C M.E.W.W.!.!.).).).).).Q.W.R.R.Y.U.[ N H.Q.!.).Q.Q.Q.Q.Q.Q.Z.' c.C [ Y.E.W.W.Q.Q.Q.Q.Q.Q.Q.Q.E.Q.Q.Q.Q.Q.Q.Q.W.W.E.R.R.E.H.v.G.G.V.V.V.V.V.V.B.S.l.G l.B.G.B.Z.N.N.b.C.Y.F.d P.qXOX).L.T.R.R.I.K.Y.K.K.K.K.K.I.K.K.H.K.V.z.v.v.V m M.H.K.K.K.K.K.K.L.L.L.L.L.K.J.H.J.J.G.v.z.v.v.b.B.D _ (.Y.H.J.H.G.G.H.D._ ; - y V Z Z C C N A n.) o & [.rXeXeXeX4Xw.Q Q Q Q Q Q ^ @ o 6 ;.B.S.Z.Z.Z.Z.G.G.H.z.k.c.[ n A.D.H.G.Z.V.Z.Z.N.Z.C.H.) @ + 0.8XgX9X9X9Xf.> Y *.#.#.....+.+.+.+.+.+.+.^ #.#.#.#.#.#.^ #.#.^ #.#.^ ......+.5 < I L L R P K + & dXNXNXMXMXMXNXCXDXGXHXKXPXPXPXPXPXPXPXPXPXPXPXPXPXPXPXPXPXPXPXPXPXPXPXPXPXPXPXPXPXPXPXPXPXPXPXPXPXPXPXPXPX",
"PXPXPXPXPXPXPXPXPXPXPXPXPXPXPXPXPXPXPXPXPXPXPXPXPXPXPXPXPXPXPXPXPXPXPXPXPXPXPXPXPXPXPXPXPXPXPXPXPXnXO.+ 6.w.2.4.3.8 5 *.$.$.+.+.+.+.+.+.+.+.................o.o.........o.o...W Q ..! = 3 ! T P T T ,   : J J / / V V V V V V V V A N.C.G.D.C M.E.R.I.Y.R.R.E.U.R O > 3XzX>X].'.].].p.,.o.#.:.o.X.+.3   4 b z M V / S M ] Q.(.< o Q XXE.Q.).Q.R.E.H.Z B.Y.W.!.!.!.!.Q.Q.Q.!.!.!.R.R.I.U.M.N H.).Q.!.!.!.Q.Q.E.).H.' c.N [ Y.E.Q.!.Q.Q.Q.Q.Q.Q.Q.).Q.Q.Q.Q.Q.R.Q.).E.R.R.R.Q.E.J.V.V.G.G.G.G.V.B.B.G.G.v.G G S.B.B.B.B.B.B.V.L.F.k <.qXOX).Y.R.K.K.K.I.R.R.K.K.K.I.K.K.I.K.K.Z.z.z.A.` k [ H.K.K.I.K.K.K.K.K.L.L.J.J.L.J.H.G.G.z.z.z.z.v.S.] V }.(.C.J.H.H.G.H.D._ ; - a V Z Z C C C Z n.| o & {.lXeXeX6X4Xw.Q Q o.Q Q o.^ @ o < | B.S.Z.Z.H.Z.Z.H.H.z.k.l.[ p D.H.Z.Z.Z.G.H.H.N.N.V.D.) - : -XrXeXeXeX9Xd., I *.X.#.#...o.o.o.o...#.o.......+.....W W W ..+.+.....#.....~ 5 , U L L R R K + # dXNXNXNXNXNXAXGXKXKXKXKXPXPXPXPXPXPXPXPXPXPXPXPXPXPXPXPXPXPXPXPXPXPXPXPXPXPXPXPXPXPXPXPXPXPXPXPXPXPXPXPXPX",
"PXPXPXPXPXPXPXPXPXPXPXPXPXPXPXPXPXPXPXPXPXPXPXPXPXPXPXPXPXPXPXPXPXPXPXPXPXPXPXPXPXPXPXPXPXPXPXPXPXnX .+ 6.u.4.4.7.0 5 *.$.$.#.#.#.#.+.+.#.#.+.................o.......o.o.o.o.......! = 4 Y P P T T ,   : J J V V V V V V V V M V A N.Z.G.H.` [ E.R.I.Y.R.R.E.U.R o > 3XzX>X].'.[.[.p.>.o.o.o.o.o.W 4   4 J z M S ) S S [ Q.(.< o Q XXE.Q.).Q.Q.E.H.N l.E.W.W.!.!.Q.Q.Q.Q.Q.Q.Q.R.R.R.U.M.N S.).Q.W.!.Q.Q.Q.).).J.' c.Z ' U.Q.Q.Q.Q.Q.W.W.W.W.Q.).Q.).).).).E.).Q.E.R.R.R.E.E.L.V.V.V.G.G.G.V.v.B.V.V.G.k.Z c.S.B.B.B.B.B.V.L.J.k { qXOX.XY.I.K.K.I.Y.R.R.L.L.L.I.K.I.I.K.K.G.B.z.M.} k F H.H.K.K.K.K.K.K.K.L.J.J.J.K.J.H.H.G.z.z.z.z.z.B.' b }.(.C.G.H.H.G.H.D._ ; - a V N C C C A Z A.| o & {.rXeXeX6X4Xw.Q Q Q Q Q Q ^ @ o < | B.S.Z.Z.Z.Z.Z.H.H.l.l.l.[ n D.H.Z.Z.Z.G.H.H.Z.N.V.D.) - & @XlXeXeXrXgXs., Y #...o.o.....o.o.....o.o.+.....+...........+.#.#.#.#.#.....~ 5 , K L R E E U + & dXNXMXNXNXBXFXKXKXKXKXPXPXPXPXPXPXPXPXPXPXPXPXPXPXPXPXPXPXPXPXPXPXPXPXPXPXPXPXPXPXPXPXPXPXPXPXPXPXPXPXPXPX",
"PXPXPXPXPXPXPXPXPXPXPXPXPXPXPXPXPXPXPXPXPXPXPXPXPXPXPXPXPXPXPXPXPXPXPXPXPXPXPXPXPXPXPXPXPXPXPXPXPXmXO.X 0.'.4.4.w.0 5 *.$.$.#.#.#.#.#.#.#.#.#.#.+...............o.o.o.#.o.o.o.....o.Y = 4 Y W P T T ,   $ b b b V V V V V V V M M C N.Z.Z.H.[ F E.R.I.Y.R.R.E.U.L o : 3XzX>X].'.].[.p.>.o.o.o.o.o.W :   8 J z M V / S S [ Q.(.< o Q XXE.E.Q.Q.Q.Q.H.Z l.Y.W.W.!.!.Q.Q.).Q.Q.Q.Q.R.R.R.Y.D.N M.).Q.W.Q.!.Q.Q.).).U.' c.A F U.Q.Q.Q.Q.Q.W.W.E.E.Q.).Q.).).).).Q.).E.E.R.R.R.E.E.E.G.V.G.G.G.G.G.v.v.b.V.V.v.G G M.B.Z.V.B.B.b.J.J.c _ qXOX.XI.K.K.K.I.Y.R.R.R.L.Y.R.K.K.I.K.J.H.B.z.v.n.m N B.H.I.K.K.K.K.H.K.J.J.J.J.J.J.K.H.Z.z.l.z.z.z.B.} c (.).J.G.H.H.G.H.D._ ; - a M N C C C A Z A.| o * {.rXeXeX6X4Xe.Q Q Q W Q Q ^ @ o < | B.D.Z.Z.Z.Z.N.H.H.l.l.l.` m D.H.C.Z.Z.N.H.H.N.N.V.D.| - & +XlXeXrXrXgXi., ! *.X.#.o.....o.o...o.o.o.#.....+...#.#.o.o.#.#.#.Q #.#.....~ 5 , K L R E Q Y + * dXNXNXNXNXBXGXKXKXPXPXPXPXPXPXPXPXPXPXPXPXPXPXPXPXPXPXPXPXPXPXPXPXPXPXPXPXPXPXPXPXPXPXPXPXPXPXPXPXPXPXPXPX",
"PXPXPXPXPXPXPXPXPXPXPXPXPXPXPXPXPXPXPXPXPXPXPXPXPXPXPXPXPXPXPXPXPXPXPXPXPXPXPXPXPXPXPXPXPXPXPXPXPXnXO.+ |.-X X}.|.0 5 6.,.,.$.$.$.$.$.$.#.#.#.#.#.o.............o.o.o.o.o.#.#...o.#.~ = 4 Y W W T T , o $ J b b V V V V V V V V M A B.Z.Z.G.M.A U.R.I.Y.R.W.Q.(.R o : 3XzX>X].'.].[.p.>.o.o.o.o.o.W :   8 J z M V V S S [ Q.(.<   Q XXE.E.Q.Q.Q.Q.H.A [ I.W.W.!.!.!.Q.Q.Q.Q.Q.W.E.R.E.Y.D.N c.).Q.W.Q.Q.).Q.Q.).Y.l.c.A A J.E.W.W.Q.Q.W.E.E.E.Q.).Q.).).).).).).).E.R.R.R.R.E.E.J.V.G.G.G.G.G.G.v.b.V.V.V.k.Z c.B.B.V.B.B.V.G.J.V _ qX&X.XY.K.K.K.I.L.R.Y.R.R.R.R.K.K.I.K.K.K.B.z.v.v.A m M.K.K.K.K.K.K.H.K.J.J.J.J.J.J.H.H.G.z.l.l.z.l.v.c.k /..XJ.G.H.H.G.H.D._ ; - a V A C C C N Z S.) O * {.rXeXeX6X3Xe.Q Q Q W W Q ^ @ o < ] M.D.Z.Z.Z.V.N.Z.Z.l.l.l.` M D.H.Z.Z.Z.N.S.H.N.N.Z.D.| - & +XrXeXeXeXgXr., 0.w.:.>.,.:.#.#.#.#.o.o.o.o.........o.o.#.#.#.#.#.#.#.#.X...O.4 : U P P E Q T + * dXNXNXNXMXMXFXKXPXPXPXPXPXPXPXPXPXPXPXPXPXPXPXPXPXPXPXPXPXPXPXPXPXPXPXPXPXPXPXPXPXPXPXPXPXPXPXPXPXPXPXPXPX",
"PXPXPXPXPXPXPXPXPXPXPXPXPXPXPXPXPXPXPXPXPXPXPXPXPXPXPXPXPXPXPXPXPXPXPXPXPXPXPXPXPXPXPXPXPXPXPXPXPXmX5.+ +X9X6X6X8XK 8 f.r.r.8.7.7.7.7.3.3.1.:.,.:.$.#.o.#.#.#.#.#.$.:.:.>.>.3.3.3.w.6.4 : Y W W W Y , o $ J b b V V V V V V V V M A B.Z.C.G.B.Z G.E.I.Y.R.R.Q.(.R o > 3XlX>X].p.s.[.p.>.o.o.o.o.o.T :   8 J z M V V S S [ Q.(.< o Q XXY.E.Q.Q.Q.Q.J.A [ I.Q.W.!.!.Q.Q.Q.Q.Q.Q.Q.E.E.E.Y.H.C l.).Q.W.W.Q.).W.W.Q.E.l.l.G A H.E.W.W.E.E.R.E.E.E.E.Q.Q.).).).).).E.).).E.R.R.R.R.E.J.V.V.G.G.G.G.G.b.b.V.V.v.v.A G B.B.V.V.B.V.Z.J.V V qX&XXXR.I.K.K.K.L.Y.Y.E.E.E.Y.I.I.I.H.K.K.V.z.z.v.[ n } H.K.H.K.K.K.K.J.J.J.J.J.L.J.H.H.B.l.l.z.z.l.v.n.m F..XL.G.G.H.Z.G.D.S ; - a V A A C C N Z n.) O * |.lXeXwX6X,Xw.Q Q Q W W Q ^ +   < ] N.D.Z.Z.Z.N.N.Z.N.[ l.l.F N D.G.Z.Z.N.S.S.S.N.N.Z.D.| - & +XrXeXeXrXgX0., d.|.u.r.w.w.q.7.3.,.:.o.o.#.#.$.:.:.:.:.,.,.,.,.>.>.>.>.1.1.6.5 : T ..o.=.:.^ + * dXNXNXNXMXNXFXKXPXPXPXPXPXPXPXPXPXPXPXPXPXPXPXPXPXPXPXPXPXPXPXPXPXPXPXPXPXPXPXPXPXPXPXPXPXPXPXPXPXPXPXPXPX",
"PXPXPXPXPXPXPXPXPXPXPXPXPXPXPXPXPXPXPXPXPXPXPXPXPXPXPXPXPXPXPXPXPXPXPXPXPXPXPXPXPXPXPXPXPXPXPXPXPXmX5.+ +X9X6X6X8XK 0 |.[.s.r.i.i.i.i.i.p.r.r.e.w.8.8.1.$.#.$.$.1.7.8.r.r.r.w.w.e.i.6.4 : T W P T T ,   : J b V V V V V M V V V M A B.G.C.H.B.F B.R.I.Y.R.R.E.(.R o > 3XlX>X].p.].[.i.>.o.o.o.o.o.T :   4 J z M V V S S [ Q.(.< o Q XXE.E.Q.W.Q.E.H.A G Y.E.Q.W.!.Q.).Q.Q.Q.Q.Q.Y.R.R.Y.H.A ' Y.Q.W.W.Q.Q.R.W.Q.E.z.k.' C H.E.W.W.W.Q.W.W.W.E.E.E.E.).).).).).).).).E.R.W.W.E.E.L.V.V.V.b.b.G.G.b.b.B.V.B.A.[ Z l.B.B.B.S.b.V.H._ V OX&XXXY.I.K.K.K.L.Y.Y.Y.Y.Y.R.I.I.I.K.K.K.Z.v.v.B.l.m ` H.K.H.H.H.K.K.K.J.J.L.J.L.J.J.H.V.z.l.z.z.l.v.n.N { XXY.C.G.G.Z.H.D.S ; - a V A C C C C Z n.) o * {.lXeXeX6X,Xw.Q W W W W Q ^ +   < ) M.D.Z.Z.Z.N.N.Z.N.[ l.c.A C H.G.Z.Z.N.S.S.S.N.N.V.D.| - & +XlXrXeXrXgXr.4 g.|.p.s.i.p.e.w.q.7.>.:.o.:.8.w.e.e.e.w.w.w.w.w.r.r.r.r.u.i.r.0 : %.,.>.>.,.+.+ % dXAXNXNXMXNXFXKXPXPXPXPXPXPXPXPXPXPXPXPXPXPXPXPXPXPXPXPXPXPXPXPXPXPXPXPXPXPXPXPXPXPXPXPXPXPXPXPXPXPXPXPXPX",
"PXPXPXPXPXPXPXPXPXPXPXPXPXPXPXPXPXPXPXPXPXPXPXPXPXPXPXPXPXPXPXPXPXPXPXPXPXPXPXPXPXPXPXPXPXPXPXPXPXnX5.+ +X9X1X6X8XK 9 |.s.s.r.r.i.i.i.p.i.i.i.r.p.i.i.i.8.1.$.$.*.1.8.r.r.r.r.i.u.i.6.4 , T W P T T ,   : J b b V B V V M V V V M A B.H.C.H.N.G l.R.I.Y.R.R.E.(.R o > 3XlX>X].].].[.p.:.o.o.o...o.T :   8 J z M V V S S [ Q.(.< o Q XXE.E.Q.R.E.E.L.F G U.Y.Q.).W.Q.).Q.Q.Q.Q.Q.Y.R.I.Y.H.' G Y.Q.Q.W.Q.Q.W.W.Q.E.B.k.' N H.E.W.W.W.Q.W.W.W.E.R.E.E.).).).).).).).).E.W.W.W.R.R.Y.V.V.b.b.b.G.G.b.V.B.v.V.S.M.A ' z.z.v.S.b.V.D._ V $X&XXXY.T.K.K.K.L.Y.Y.Y.Y.Y.I.I.I.I.K.K.K.G.v.z.B.c.n V N.K.H.G.H.K.K.K.J.J.L.J.L.J.J.H.V.z.l.z.z.l.v.v.N ` XX).J.G.Z.Z.G.D.S ; - a V C C C C C Z n.) o * {.rXeXwX6X,Xe.Q W E W W Q +.+   > ) M.D.N.N.N.N.N.Z.N.[ l.l.C F H.G.Z.Z.N.S.S.S.N.N.V.D.) - & +XlXrXeXrXgX0., d.|.u.p.t.u.e.w.w.q.>.o.:.7.i.r.i.r.p.i.i.i.i.i.i.i.i.e.u.i.9.0 @ $.,.:.>.,.+.+ & dXAXNXNXMXNXFXKXPXPXPXPXPXPXPXPXPXPXPXPXPXPXPXPXPXPXPXPXPXPXPXPXPXPXPXPXPXPXPXPXPXPXPXPXPXPXPXPXPXPXPXPXPX",
"PXPXPXPXPXPXPXPXPXPXPXPXPXPXPXPXPXPXPXPXPXPXPXPXPXPXPXPXPXPXPXPXPXPXPXPXPXPXPXPXPXPXPXPXPXPXPXPXPXnX5.+ +XrX1X6X8XK 8 |.f.s.p.t.t.p.s.t.t.t.e.t.p.i.i.i.p.i.3.$.#.,.3.w.r.r.i.i.u.p.6.4 3 Y W T T Y 4   $ J b V V V V V M V V M M A B.Z.Z.C.Z.' ' U.E.W.W.R.Y.U.R o > 3XuX>X'.p.].].t.>.o.:.#...o.T *   5 v z M S S S S [ Y.(.< o Q oXE.E.E.Q.Q.W.Y.F D H.R.W.Q.).!.Q.!.!.Q.Q.Q.Y.I.I.R.L.' A U.).E.W.W.Q.W.E.Q.E.G.' [ N S.E.Q.Q.Q.Q.E.E.E.E.E.E.).E.E.E.E.E.E.E.E.E.R.R.E.R.R.R.H.V.V.V.V.G.G.G.V.V.V.V.B.z.k.Z c.v.v.m.b.V.D.{ c $X&XOXE.Y.I.Y.Y.L.Y.L.L.L.L.K.K.K.K.K.K.K.G.v.v.v.v.Z m A.H.H.H.H.K.H.K.H.H.H.H.K.K.H.H.Z.z.z.v.z.c.z.B.C V XXY.G.G.Z.C.H.D.S ; - y V C C C C A Z n.) o * {.rXeXeX6X4Xe.Q W Q E Q Q ^ @   < ) M.D.Z.Z.Z.N.N.Z.N.j.[ } V ` H.N.H.G.S.S.B.N.N.N.N.N.) - @ |.rXeXuXrXgX9.4 {. Xu.^.p.u.e.w.w.,.#.,.w.p.i.i.i.t.t.t.i.i.p.p.i.i.p.r.u.i.r.0 @ &.,.>.>.>.$.+ * dXAXNXNXNXNXFXKXKXPXPXPXPXPXPXPXPXPXPXPXPXPXPXPXPXPXPXPXPXPXPXPXPXPXPXPXPXPXPXPXPXPXPXPXPXPXPXPXPXPXPXPXPX",
"PXPXPXPXPXPXPXPXPXPXPXPXPXPXPXPXPXPXPXPXPXPXPXPXPXPXPXPXPXPXPXPXPXPXPXPXPXPXPXPXPXPXPXPXPXPXPXPXPXnX5.+ +XrX6X6X8XK 8 d.f.s.s.p.t.s.s.p.t.t.t.t.t.r.i.i.i.i.p.w.,.#.:.7.w.r.i.r.e.p.6.4 4 Y W T T Y 4   $ J b V V V V V V V V M M A N.Z.Z.C.Z.l.G U.E.W.R.W.Y.U.L o > 3XzX>X'.p.].].t.>.o.#.#.o.o.~ *   8 v z M S S S S [ U.(.< o Q oXE.E.Q.Q.Q.E.Y.' N H.R.R.Q.Q.!.Q.Q.!.Q.Q.Q.Y.I.I.T.L.[ N J.Q.W.W.Q.Q.W.E.Q.Q.G.' [ N S.E.W.Q.Q.Q.Q.E.E.E.E.E.).E.E.E.E.E.E.E.R.R.Y.E.E.E.E.R.K.V.V.V.V.V.G.V.V.V.V.V.z.B.l.Z ' B.v.S.b.V.D.{ c OX&XOXE.I.K.L.L.L.Y.L.L.L.L.K.K.K.K.K.K.K.J.B.v.v.z.' f c.H.U.H.Z.K.K.K.K.K.H.H.K.H.H.H.N.l.z.z.z.l.z.B.A m .X).C.G.Z.Z.G.D.S ; - y V C C C V N A v.) o * |.rXeXeX6X4Xe.Q Q Q E Q Q ^ @   < ) M.D.Z.Z.Z.Z.Z.H.B.l.l.} V ' H.Z.H.G.S.S.B.N.B.V.N.N.) - @ |.rXeXuXrXgX0., {. Xu.^.p.p.e.w.1.:.1.r.i.p.p.p.i.t.i.i.i.i.p.i.i.i.p.r.i.i.r.8 @ &.:.>.>.>.*.+ * dXCXNXNXNXNXFXKXKXPXPXPXPXPXPXPXPXPXPXPXPXPXPXPXPXPXPXPXPXPXPXPXPXPXPXPXPXPXPXPXPXPXPXPXPXPXPXPXPXPXPXPXPX",
"PXPXPXPXPXPXPXPXPXPXPXPXPXPXPXPXPXPXPXPXPXPXPXPXPXPXPXPXPXPXPXPXPXPXPXPXPXPXPXPXPXPXPXPXPXPXPXPXPXnXO.+ #XrX6X6X8XK 8 d.f.p.p.p.p.s.p.p.t.t.t.p.t.t.t.t.i.p.p.t.r.7.:.3.8.r.r.i.i.p.6.4 3 Y ^ W T T ,   $ J J V B V V V V V M M M A B.Z.Z.C.Z.B.F H.E.W.R.R.Y.U.R o : 3XzX>X[.p.'.].p.>.:.o.o.o.o.~ *   8 v z M S S S S [ U.(.< O Q oXY.E.Q.).Q.W.Y.[ M H.R.R.E.Q.Q.Q.Q.Q.!.Q.Q.I.I.I.T.L.l.N J.Q.Q.W.W.E.E.E.Q.Q.H.' [ N M.E.E.W.Q.Q.Q.Q.W.E.Q.).E.E.E.E.E.E.E.E.E.R.R.E.W.E.E.R.K.V.V.V.V.v.v.V.V.V.V.V.z.B.z.k.G z.S.G.b.V.D.{ k XX&XOXQ.Y.K.L.L.L.Y.L.L.R.L.L.K.K.K.K.K.K.K.V.z.z.z.[ m ` D.H.I.K.K.K.L.L.K.K.H.K.H.H.H.B.l.l.z.z.l.v.v.` d .X).C.Z.Z.Z.G.D.S ; - y V C C C V N A v.) o & {.rXeXrX6X4Xe.Q Q Q W Q Q ^ @   < ) M.D.Z.Z.Z.Z.Z.H.B.l.l.} V } H.Z.H.G.G.S.B.N.N.B.N.D.) - @ |.rXrXrXrXgXr., {. Xu.^.t.e.3.1.,.8.i.i.i.i.t.t.t.i.p.i.i.r.r.r.r.i.i.i.i.i.i.0 @ *.>.>.>.>.*.+ * dXNXNXNXNXNXDXKXKXPXPXPXPXPXPXPXPXPXPXPXPXPXPXPXPXPXPXPXPXPXPXPXPXPXPXPXPXPXPXPXPXPXPXPXPXPXPXPXPXPXPXPXPX",
"PXPXPXPXPXPXPXPXPXPXPXPXPXPXPXPXPXPXPXPXPXPXPXPXPXPXPXPXPXPXPXPXPXPXPXPXPXPXPXPXPXPXPXPXPXPXPXPXPXnX5.& #XrXeX6X8XK 8 f.f.p.t.t.s.s.t.t.s.t.t.p.t.s.t.s.t.t.t.s.p.i.r.q.w.r.i.i.p.i.6.4 3 ! W T W Y ,   $ J J V B V V V M V M M M A B.Z.Z.Z.Z.B.F D.E.W.W.W.Y.U.R o : 3XzX>X'.p.p.'.t.>.:.=.#.o.o.T =   8 v z V S S S C [ Q.(.< O Q XXE.E.Q.Q.Q.Q.Y.c.M D.Y.R.E.E.Q.Q.Q.Q.!.Q.Q.Y.I.I.T.L.c.m H.Y.W.W.W.Q.E.E.Q.Q.H.G [ N M.E.E.W.Q.Q.Q.E.E.E.Q.).).E.E.E.E.E.E.E.E.E.E.E.E.R.E.R.R.Z.V.V.V.v.v.V.G.V.V.V.z.B.B.l.Z k.v.G.b.b.D.{ k XX&X%X).Y.L.L.L.Y.E.L.Y.E.L.K.L.L.L.J.J.K.K.Z.z.z.z.c.N C D.H.K.K.K.K.H.H.H.K.K.K.H.H.H.B.l.l.z.z.v.v.B.' d (..XH.H.G.C.G.D.) ; - y b C C C C N Z c.) o & {.rXeXwX6X4Xe.Q Q Q Q Q Q ^ @   < ) M.D.Z.Z.Z.N.N.G.B.l.[ { m } H.Z.H.G.S.M.M.N.N.B.N.D.) - @ |.rXrXuXrXgX8., {. X'.t.t.e.3.7.i.p.r.i.i.t.t.t.t.t.i.t.t.r.r.r.r.i.i.i.i.i.r.0 @ *.,.>.>.>.*.+ * dXNXBXBXNXNXDXKXKXPXPXPXPXPXPXPXPXPXPXPXPXPXPXPXPXPXPXPXPXPXPXPXPXPXPXPXPXPXPXPXPXPXPXPXPXPXPXPXPXPXPXPXPX",
"PXPXPXPXPXPXPXPXPXPXPXPXPXPXPXPXPXPXPXPXPXPXPXPXPXPXPXPXPXPXPXPXPXPXPXPXPXPXPXPXPXPXPXPXPXPXPXPXPXnXO.& #XrXeX6X8XU 8 d.f.p.p.p.s.s.p.t.p.s.p.s.s.].p.s.t.t.t.s.p.p.i.t.i.i.i.i.u.u.6.4 3 Y W T +.~ ,   * J b V V V V V M V M M M C B.Z.Z.Z.V.N.A N.E.W.W.R.E.U.R O : 3XzX>X'.s.p.].p.>.#.:.#.o.o.~ =   8 v z V S S S C [ .X(.< o Q XXE.E.Q.Q.Q.Q.Y.M.M N.Y.R.E.E.Q.Q.Q.Q.Q.Q.Q.Y.I.I.T.L.M.m H.Y.W.W.Q.Q.E.W.Q.Q.L.' [ N c.E.W.W.Q.Q.Q.W.E.W.Q.Q.E.E.E.E.E.E.E.E.E.E.E.E.E.R.E.R.R.G.v.V.V.V.v.V.V.V.B.v.v.B.B.z.G G v.m.b.b.S.{ k XX&X%X).Y.L.L.Y.L.L.L.L.E.L.K.L.L.L.K.J.K.K.Z.z.z.z.c.C m D.H.K.K.K.K.H.H.K.K.K.L.H.H.H.B.l.l.l.z.v.b.v.} d (..XJ.G.G.C.G.D._ ; - y b C C V C N Z c.) o * {.rXeXwX6X4Xt.Q Q Q W Q Q ^ @   > ) M.D.Z.N.N.N.N.G.z.l.l.{ m } H.Z.H.G.B.M.M.N.N.B.N.D.) - @ |.rXrXuXrXgX8., |.|.u.^.t.p.p.i.i.i.r.i.i.t.i.i.t.t.s.t.t.r.t.r.r.t.i.i.i.i.r.0 @ %.:.>.>.>.*.+ * dXVXNXNXNXNXDXKXKXPXPXPXPXPXPXPXPXPXPXPXPXPXPXPXPXPXPXPXPXPXPXPXPXPXPXPXPXPXPXPXPXPXPXPXPXPXPXPXPXPXPXPXPX",
"PXPXPXPXPXPXPXPXPXPXPXPXPXPXPXPXPXPXPXPXPXPXPXPXPXPXPXPXPXPXPXPXPXPXPXPXPXPXPXPXPXPXPXPXPXPXPXPXPXnXO.& #XrX6X6XgXU 8 d.f.p.'.p.p.s.s.t.p.p.s.p.s.s.s.s.p.t.p.t.i.i.s.p.i.i.i.i.u.u.6.4 : Y W T +.~ ,   * v b B V V V V M V M M N C M.Z.Z.Z.V.N.F l.I.W.W.R.E.U.R o : 3XzX>X].].'.[.p.>.#.:.#.o.o.~ =   8 v z V S S S C [ .X(.< o Q XXE.E.Q.Q.Q.Q.E.M.M M.Y.R.R.E.Q.Q.W.Q.Q.Q.Q.Q.I.I.T.J.M.n H.Y.E.W.W.Q.W.W.Q.E.L.' [ N l.E.W.W.Q.Q.Q.W.W.W.Q.Q.E.E.E.E.E.E.E.E.E.E.E.E.E.R.E.R.R.K.v.B.V.v.v.V.V.V.v.v.B.B.B.B.k.Z v.b.b.b.S.{ k XX&X%X).Y.L.L.Y.K.J.K.L.E.L.L.L.E.R.L.L.K.K.Z.B.z.z.v.` m c.H.K.H.K.L.L.K.K.K.K.L.H.H.H.B.l.l.z.l.v.b.z.} d F.XXK.G.Z.C.G.D._ ; - y b C C C C A Z n.) o * {.rXeXwX6X4Xe.Q Q Q E Q Q ^ @   < ) M.D.Z.N.N.S.S.G.c.l.l.[ m M.H.Z.Z.Z.S.B.M.N.N.B.V.D.) - & +XrXeXeXrXgX8.: |.|.e.^.p.p.p.i.t.t.t.t.p.t.s.s.p.p.p.p.t.t.t.t.r.r.r.i.i.i.r.0 @ %.:.>.>.>.*.+ * dXVXNXNXNXNXDXKXKXPXPXPXPXPXPXPXPXPXPXPXPXPXPXPXPXPXPXPXPXPXPXPXPXPXPXPXPXPXPXPXPXPXPXPXPXPXPXPXPXPXPXPXPX",
"PXPXPXPXPXPXPXPXPXPXPXPXPXPXPXPXPXPXPXPXPXPXPXPXPXPXPXPXPXPXPXPXPXPXPXPXPXPXPXPXPXPXPXPXPXPXPXPXPXnXO.+ #XrX6X6XgXU 8 f.f.p.s.].p.s.s.t.t.t.p.p.t.s.p.s.t.p.p.p.t.t.s.s.s.p.i.r.e.i.6.4 * Y W T ^ ~ ,   $ J b V V V V V M V V V V C M.Z.Z.Z.Z.H.' l.I.R.W.R.Y.U.R o : 3XzX>X].].p.].t.>.#.:.#.o.o.T =   8 v z V S S S C [ Q.(.< o Q XXE.E.Q.Q.Q.W.E.D.N [ Y.R.R.E.Q.Q.Q.Q.W.Q.Q.Q.I.I.T.L.B.m D.E.E.W.W.Q.W.E.E.E.L.' [ C l.Y.W.Q.Q.Q.E.W.E.E.Q.).).E.E.E.E.E.E.E.E.E.E.E.E.R.E.R.E.L.V.V.v.v.v.V.V.G.V.b.B.B.B.v.v.Z k.b.b.b.S.{ m XX&X&X_.Y.L.L.L.L.J.L.L.Y.L.L.R.E.E.L.L.L.K.Z.B.z.z.c.' m ' H.K.H.K.L.L.L.K.K.K.L.H.G.G.N.z.z.z.l.v.z.z.c.d ;.XXL.G.G.C.G.D._ ; - 1 V C C C C C Z n.) o & {.rXeXwX6X,Xe.Q Q Q E Q Q ^ @   < ) M.D.G.Z.G.G.G.S.l.l.l.[ m A.H.V.Z.N.S.M.M.N.N.B.N.N.) @ & +XrXeXeXrXgX0.: |.|.e.t.t.p.p.p.p.t.p.t.t.p.s.s.p.t.t.t.p.r.t.t.t.t.t.i.i.i.r.8 + #.:.>.>.>.$.+ * dXVXVXNXNXNXDXKXKXPXPXPXPXPXPXPXPXPXPXPXPXPXPXPXPXPXPXPXPXPXPXPXPXPXPXPXPXPXPXPXPXPXPXPXPXPXPXPXPXPXPXPXPX",
"PXPXPXPXPXPXPXPXPXPXPXPXPXPXPXPXPXPXPXPXPXPXPXPXPXPXPXPXPXPXPXPXPXPXPXPXPXPXPXPXPXPXPXPXPXPXPXPXPXnX .@ #XrX6XeX8XK 5 f.f.p.p.'.'.p.p.p.t.t.t.t.s.s.s.p.t.t.t.p.p.p.s.s.p.p.p.t.u.p.6.= * T W W ^ ~ , o $ J b V V V V V V V b V M V M.Z.Z.C.Z.G.l.l.I.W.R.R.E.U.R o : 3XzX>X].'.p.[.t.:.#.#.#.o.=.T *   8 b v V S S S S [ Q.(.< o Q oXE.E.E.Q.Q.Q.E.H.Z ' L.Y.I.E.Q.Q.Q.).Q.Q.Q.E.I.K.I.U.S.k D.Y.W.W.W.Q.W.W.W.W.L.k.[ N ' Y.).Q.Q.W.Q.W.W.E.Q.).).E.E.E.).).).E.E.E.E.E.R.R.E.R.R.I.Z.V.V.v.V.G.G.G.G.V.V.V.v.v.v.G k.v.b.b.S.} m XX&X&X_.T.K.L.L.L.L.L.L.Y.Y.Y.Y.E.E.L.L.L.J.H.B.z.z.z.l.n A H.H.K.H.K.K.L.L.K.K.K.K.G.G.N.z.l.l.v.v.z.z.c.m ` XXY.G.C.Z.Z.D._ ; - 1 b C C C C N A A.) o * |.eXwXwX6X>Xe.Q Q E E Q Q ^ @   > ) M.D.G.G.G.G.S.S.l.l.[ ] M M.H.Z.N.N.N.B.B.B.N.N.C.S.) @ * +XrXeXeXrXgX6.: |.|.u.t.s.p.p.p.p.t.t.p.t.t.p.s.p.i.t.r.t.t.t.t.t.t.t.r.u.i.8.0 + +.:.>.>.,.*.+ = dXVXVXVXNXBXFXKXPXPXPXPXPXPXPXPXPXPXPXPXPXPXPXPXPXPXPXPXPXPXPXPXPXPXPXPXPXPXPXPXPXPXPXPXPXPXPXPXPXPXPXPXPX",
"PXPXPXPXPXPXPXPXPXPXPXPXPXPXPXPXPXPXPXPXPXPXPXPXPXPXPXPXPXPXPXPXPXPXPXPXPXPXPXPXPXPXPXPXPXPXPXPXPXnX .@ #XrX6X6X8XK 8 d.f.p.t.p.].p.t.p.p.t.t.s.p.s.s.s.p.t.p.s.s.s.s.s.p.p.p.i.p.r.6.= * T W W ^ ~ 4 o $ v b V B B B B c c V V M C M.Z.Z.Z.Z.G.l.[ I.W.W.R.E.U.R o : 3XzX>X].'.p.[.t.:.#.#.#.o.=.T *   8 b v V S V S S G U.(.< o Q oXE.E.E.Q.Q.Q.E.J.F Z L.Y.R.R.Q.Q.Q.).).Q.Q.E.I.K.K.L.S.k D.E.W.W.W.W.W.W.!.).L.l.' N F Y.).Q.Q.Q.E.E.W.W.Q.E.E.E.E.E.E.E.).E.E.E.E.R.R.R.R.E.R.K.G.V.B.V.V.G.G.G.G.V.V.B.v.v.v.k.Z z.b.b.S.} m XX&X&X_.T.K.L.Y.Y.E.E.Y.Y.Y.Y.L.L.L.L.L.L.K.H.V.z.z.c.c.N C S.H.K.H.K.L.L.L.J.K.K.K.K.H.Z.z.z.z.v.v.z.z.c.m C oXY.G.C.C.Z.D._ ; - 1 b C C C V N A A.) o * {.eXwXwX6X>Xe.Q Q E E Q Q ^ @   > ) M.D.G.G.G.G.S.S.l.l.[ ` m A.H.Z.H.N.N.B.B.N.N.N.V.S.) @ * +XrXeXeXrXgX6.: d.|.u.t.p.p.p.p.p.p.t.p.p.p.s.t.t.t.t.r.r.i.i.r.t.t.t.r.e.i.0.0 + +.:.>.>.,.*.@ * dXVXVXVXNXBXDXKXPXPXPXPXPXPXPXPXPXPXPXPXPXPXPXPXPXPXPXPXPXPXPXPXPXPXPXPXPXPXPXPXPXPXPXPXPXPXPXPXPXPXPXPXPX",
"PXPXPXPXPXPXPXPXPXPXPXPXPXPXPXPXPXPXPXPXPXPXPXPXPXPXPXPXPXPXPXPXPXPXPXPXPXPXPXPXPXPXPXPXPXPXPXPXPXnX .@ #XrX6X9X8XK 5 d.f.p.t.t.p.p.p.p.p.t.p.s.p.s.s.s.s.p.s.s.p.p.s.s.s.p.p.i.e.r.6.= * T W ^ ^ ~ 4 o $ v b B B B V V V V V V M C M.Z.Z.C.V.G.B.G H.R.W.R.Y.U.R o : 3XzX>X].p.p.[.r.>.#.#.#.o.=.T *   8 b v M M M S S [ U.(.< O Q oXY.E.Q.Q.Q.Q.E.U.[ N J.Y.I.I.R.Q.Q.Q.Q.Q.Q.E.I.K.I.K.M.p D.Q.W.W.W.Q.W.W.W.).E.c.[ A F Y.).).Q.E.E.E.W.W.E.E.E.E.E.E.E.E.).E.E.E.E.E.R.E.E.R.R.Y.H.V.B.B.V.G.G.G.G.V.V.v.v.v.v.v.Z v.b.V.S.} k XX&X&X_.R.K.L.Y.E.E.E.E.E.E.Y.L.L.L.L.L.L.K.K.Z.z.z.c.z.A m M.H.H.J.K.L.L.L.J.K.L.K.H.G.N.z.l.z.v.z.z.z.v.N m oX).G.C.C.Z.D._ ; - 1 V C C C V N F M.) o * {.eXeXwX6X>Xe.Q Q E E Q Q ^ @   > ) M.D.G.G.G.G.S.S.c.l.[ ` M F.H.V.H.Z.B.B.B.N.N.N.V.S.Q + * +XrXeXeXuXgX6.: d.|.u.t.s.p.p.p.p.t.t.p.p.t.p.p.i.i.t.r.t.t.t.t.t.t.t.r.u.u.0.0 + +.:.>.>.,.*.+ * dXVXVXVXNXNXDXKXPXPXPXPXPXPXPXPXPXPXPXPXPXPXPXPXPXPXPXPXPXPXPXPXPXPXPXPXPXPXPXPXPXPXPXPXPXPXPXPXPXPXPXPXPX",
"PXPXPXPXPXPXPXPXPXPXPXPXPXPXPXPXPXPXPXPXPXPXPXPXPXPXPXPXPXPXPXPXPXPXPXPXPXPXPXPXPXPXPXPXPXPXPXPXPXnX .@ #XrX6XrX8XK 5 d.f.p.t.t.p.p.p.p.s.t.s.s.t.t.s.s.s.s.s.s.t.t.s.s.p.s.s.i.p.p.6.4 * T W ^ ^ ~ , o $ J b B B V V V V V b c M C M.Z.Z.C.V.G.B.G H.W.W.R.E.U.R o , 3XzX>X'.p.p.].w.:.:.#.#.o.=.T *   8 v v z M M V V G Y.(.< O Q oXY.E.Q.Q.Q.Q.E.U.c.m D.Y.I.I.R.Q.Q.Q.Q.Q.Q.E.I.K.I.L.v.m D.).W.W.W.W.W.W.R.E.E.c.' A A J.).).E.E.E.E.W.W.E.E.).E.).).).).).).E.E.E.E.E.E.R.R.R.Y.K.V.v.B.V.G.G.G.V.V.V.v.v.v.v.v.G ' V.V.S.{ p .X&X&X.XT.K.K.Y.Y.Y.Y.E.E.E.R.L.L.L.J.K.L.K.K.Z.z.z.z.M.` m c.H.G.K.K.K.L.L.J.L.K.K.G.H.N.z.l.l.c.v.z.z.z.( m .X).G.C.Z.G.D._ - - y V C C V V N A M.) O * |.rXwXwX6X>Xe.Q Q Q E Q Q ^ @   > ) M.D.G.G.G.S.S.N.l.l.[ _ M A.H.V.Z.Z.B.M.B.N.N.N.V.S.E + * +XrXrXuXrXgX6., d.|.u.t.s.p.p.p.p.p.t.p.p.t.p.p.i.i.i.i.i.i.i.i.t.t.i.i.i.i.r.0 + @.:.>.>.1.*.& * dXVXNXNXNXBXDXKXPXPXPXKXPXPXPXPXPXPXPXPXPXPXPXPXPXPXPXPXPXPXPXPXPXPXPXPXPXPXPXPXPXPXPXPXPXPXPXPXPXPXPXPXPX",
"PXPXPXPXPXPXPXPXPXPXPXPXPXPXPXPXPXPXPXPXPXPXPXPXPXPXPXPXPXPXPXPXPXPXPXPXPXPXPXPXPXPXPXPXPXPXPXPXPXnX .@ #XgX6X6X8XK 5 d.f.p.t.t.p.p.p.p.p.t.s.s.t.t.s.s.s.s.s.s.p.t.s.s.s.p.p.i.p.p.6.3 * U W ^ ^ ~ , o $ J J V B V V V V V b c M N M.Z.Z.C.V.G.B.G H.R.W.W.E.U.R o : 3XzX>X'.p.p.].e.:.:.#.#.o.=.T *   8 v z M M M V V G Q.(.< O Q oXY.E.Q.Q.Q.Q.Q.I.S.m v.L.I.R.R.Q.Q.Q.).Q.Q.E.I.K.K.L.c.m J.Q.W.W.W.W.W.W.W.E.E.v.' A N J.).).).E.E.E.R.W.Q.).).).).).).).).).E.E.Y.Y.R.R.R.R.R.R.K.Z.V.V.V.G.G.G.G.V.v.v.v.v.v.v.k.A v.V.A.{ k .X&X&X.XT.T.Y.R.Y.Y.Y.E.E.E.R.L.L.L.L.K.K.K.K.Z.B.z.B.M.} f [ H.H.L.L.L.L.L.J.J.J.J.G.H.N.z.l.l.c.v.z.z.z.( p }..XH.C.Z.G.D._ - - y V N C V V N A M.) O * |.rXwXeX9X,Xe.Q Q Q E Q Q ^ @   > J M.D.G.G.G.N.S.M.l.l.[ D M A.H.V.N.N.N.l.B.B.B.N.V.S.E + * +XrXrXuXrXgX6., d.|.u.t.s.p.p.p.p.p.p.p.p.t.p.p.i.i.i.i.i.i.i.i.i.i.r.r.u.i.r.0 + @.:.>.2.1.*.& # dXVXNXNXNXBXDXKXPXPXPXKXPXPXPXPXPXPXPXPXPXPXPXPXPXPXPXPXPXPXPXPXPXPXPXPXPXPXPXPXPXPXPXPXPXPXPXPXPXPXPXPXPX",
"PXPXPXPXPXPXPXPXPXPXPXPXPXPXPXPXPXPXPXPXPXPXPXPXPXPXPXPXPXPXPXPXPXPXPXPXPXPXPXPXPXPXPXPXPXPXPXPXPXnX .@ #XgXrX9XgXK 8 d.f.i.t.t.t.p.p.t.p.t.s.s.t.t.s.s.s.s.s.s.t.t.s.s.p.p.p.i.u.p.6.3 * I W ^ ^ ~ , o $ J J / V V V V V V c B M N M.Z.V.C.V.G.G.G Z.R.W.R.E.U.J o : 3XzX>X'.p.p.[.e.>.:.#.#...o.T *   8 v z z M M S S ' Q.(.< O Q oXE.E.E.Q.Q.Q.Q.R.H.C F L.R.R.R.Q.Q.!.).).Q.E.I.K.K.H.l.N J.Q.W.W.W.W.W.W.W.W.E.M.' A N J.(.).).).Q.W.W.W.Q.).).).).).).).).).E.E.Y.E.R.R.R.R.R.R.L.G.V.B.V.G.G.G.G.V.v.v.v.v.b.v.v.Z z.V.S.` k XX&X&X_.T.K.I.I.Y.Y.Y.L.L.L.L.L.L.L.L.L.L.K.K.G.B.z.B.M.c.m C D.H.L.L.K.L.L.J.J.J.J.H.G.Z.z.l.l.z.v.z.z.z.' p U..XK.C.Z.G.D._ - - y b C C V V N A M.) O * |.rXwXeX9X,Xq.Q Q Q E Q Q ^ @   > J M.D.G.G.S.B.S.M.l.l.[ D V D.Z.V.N.N.B.l.N.B.N.N.V.S.E + * #XrXeXuXrXgX6., |.|.u.t.p.p.p.p.p.p.p.p.p.t.t.p.i.t.i.t.i.i.i.i.i.t.r.r.e.i.r.0 + @.>.>.>.2.*.& & dXNXNXNXNXBXDXKXPXPXPXKXPXPXPXPXPXPXPXPXPXPXPXPXPXPXPXPXPXPXPXPXPXPXPXPXPXPXPXPXPXPXPXPXPXPXPXPXPXPXPXPXPX",
"PXPXPXPXPXPXPXPXPXPXPXPXPXPXPXPXPXPXPXPXPXPXPXPXPXPXPXPXPXPXPXPXPXPXPXPXPXPXPXPXPXPXPXPXPXPXPXPXPXnX .@ #XgXrX9X9XK 8 |.f.i.p.s.t.i.p.t.t.t.p.p.p.t.s.s.i.i.s.s.i.i.s.s.p.p.p.i.p.p.6.4 * Y W W ^ ~ , o $ J J / V V V V V V c B M C M.Z.Z.C.C.Z.G.G N.R.W.R.Y.U.H o : 3XzX>X'.p.p.[.t.:.:.#.#...o.T *   8 v z M M M S S [ Q.(.< o Q oXY.E.E.E.Q.Q.W.R.H.' N J.Y.K.R.Q.Q.Q.).!.Q.E.I.K.K.H.' C U.E.W.W.W.W.W.W.W.W.E.S.G ` N J.(.).Q.Q.Q.W.W.Q.E.E.).E.E.E.E.).E.).).E.E.Q.E.R.Y.Y.R.R.L.G.V.v.V.G.G.G.G.G.V.B.v.v.v.v.v.G l.V.S._ k XX&X&X_.K.K.K.K.L.E.E.L.L.L.R.Y.L.L.L.K.L.K.H.G.B.z.B.B.v.C m D.H.J.J.J.K.J.J.J.J.J.H.G.Z.z.l.l.z.v.z.z.c.} p A.XXK.C.Z.G.D._ - - y V C C V V N A A.) O : |.rXwXeX9X,Xe.Q E E E Q Q +.@   > ) M.D.S.N.B.N.S.M.l.l.[ D V D.Z.V.N.N.B.l.l.B.B.N.V.S.E + * #XrXeXeXrXgX6., |.|.u.t.t.p.p.p.p.t.t.p.p.t.t.t.t.t.t.t.t.i.i.t.t.r.t.i.u.i.r.0 + O.:.>.>.2.*.* # dXVXVXNXNXBXDXKXPXPXPXPXPXPXPXPXPXPXPXPXPXPXPXPXPXPXPXPXPXPXPXPXPXPXPXPXPXPXPXPXPXPXPXPXPXPXPXPXPXPXPXPXPX",
"PXPXPXPXPXPXPXPXPXPXPXPXPXPXPXPXPXPXPXPXPXPXPXPXPXPXPXPXPXPXPXPXPXPXPXPXPXPXPXPXPXPXPXPXPXPXPXPXPXnXr + #XrXrXrX9XK 8 +Xf.i.t.t.s.s.s.p.t.t.s.p.p.p.p.p.t.t.s.p.p.p.s.s.s.s.s.t.p.i.6.4 * Y W W W ~ : o : v b V V V V V V V V B M C M.Z.Z.C.Z.Z.V.l.l.I.R.R.Y.U.H o : 3XzX>X[.i.p.].r.:.#.o.o...o.T $   8 v b M M M V C [ Q.(.< o Q XXY.E.E.Q.Q.Q.W.R.L.A.m A.L.K.R.R.Q.Q.!.Q.Q.Q.K.T.K.J.A F U.Q.W.W.W.W.R.E.W.Q.E.N.G ` N H.Y.Q.W.W.W.E.Q.Q.E.).E.E.E.E.E.E.E.E.E.E.E.).).E.L.L.R.Y.K.J.V.v.V.G.G.G.G.G.G.V.v.V.v.v.v.' j.V.S.` m OX%X&X.XR.L.L.L.L.E.E.L.L.L.R.L.L.K.K.K.I.K.G.G.N.l.z.v.v.` p A.J.J.G.K.K.K.J.J.H.H.K.G.G.z.l.z.z.l.z.z.z.c.k | XXI.Z.Z.G.D.) > - 1 c C C C V N F v.) O : |.rXwX6X9X,Xe.Q E E E E Q ..@   < b M.D.Z.G.N.S.S.M.l.[ [ C / A.Z.Z.N.N.B.l.M.B.N.B.V.B.E + & #XrXeXeXrXgX6., |.|.p.e.t.t.t.p.i.t.p.p.i.i.t.t.p.t.t.e.r.t.t.t.t.r.t.i.i.i.i.0 + O.,.,.>.,.*.* & dXVXNXNXNXNXDXKXPXPXPXPXPXPXPXPXPXPXPXPXPXPXPXPXPXPXPXPXPXPXPXPXPXPXPXPXPXPXPXPXPXPXPXPXPXPXPXPXPXPXPXPXPX",
"PXPXPXPXPXPXPXPXPXPXPXPXPXPXPXPXPXPXPXPXPXPXPXPXPXPXPXPXPXPXPXPXPXPXPXPXPXPXPXPXPXPXPXPXPXPXPXPXPXnXr + #XgX9XuXgX9 8 @X[.t.e.e.`.^.e.p.p.p.p.i.i.i.p.p.t.t.s.p.t.p.p.p.s.s.s.t.p.i.6.3 : Y W W W ~ : o : v b b V V V B c V V V M C N.Z.Z.Z.C.Z.Z.N.j.R.R.R.Y.U.H o : 3XzX>X[.i.p.].r.:.#.o.o...o.T $   8 R b V M S S C [ Q.(.< o Q XXY.E.E.Q.Q.Q.Q.W.L.D.N ' L.K.T.R.Q.Q.E.Q.Q.Q.I.K.J.D.V [ Y.Q.W.W.W.Q.E.E.W.R.E.G.G ` N H.E.E.R.R.E.R.R.E.E.).E.E.E.E.E.E.E.E.E.E.E.).E.E.).E.Y.I.K.K.G.v.V.V.G.G.G.G.V.V.v.v.v.v.v.l.G V.S.( m OX%X&XXXR.K.L.L.L.E.E.L.L.L.L.L.K.K.K.I.I.K.G.H.N.l.z.v.z.{ p { H.J.H.K.K.J.L.J.H.K.K.K.G.z.l.z.z.z.z.z.z.c.m _ XXY.Z.Z.G.D.) > - 1 c N C C V N A v.) O : |.rXeX6X9X>Xe.Q E E E E Q ..@   < b M.B.Z.G.N.S.S.B.l.[ [ C _ D.Z.Z.N.N.B.l.B.N.N.B.V.B.E + & #XrXeXeXrXgX6., |.|.p.e.t.t.t.t.p.p.p.t.t.t.t.t.t.t.t.t.e.e.r.r.e.r.t.u.i.i.a.0 + O.,.,.>.,.*.* # dXVXVXNXNXNXFXKXPXPXPXPXPXPXPXPXPXPXPXPXPXPXPXPXPXPXPXPXPXPXPXPXPXPXPXPXPXPXPXPXPXPXPXPXPXPXPXPXPXPXPXPXPX",
"PXPXPXPXPXPXPXPXPXPXPXPXPXPXPXPXPXPXPXPXPXPXPXPXPXPXPXPXPXPXPXPXPXPXPXPXPXPXPXPXPXPXPXPXPXPXPXPXPXnXr + #XgX9XzXjX9 4 g.+Xf.i.'.^.^.e.u.u.u.p.p.i.p.p.p.t.t.s.p.t.p.p.p.].].s.t.p.i.6.4 : Y W W T ~ : o $ b b b B V V B b V b V M C M.Z.Z.Z.Z.Z.V.N.G R.R.R.Y.U.J o : 3XzX>X[.i.p.].r.:.:.#.#...o.T $   8 R z V S S S S [ Q.(.< o Q XXY.E.E.Q.E.Q.Q.W.Y.G.' N H.L.T.T.W.Q.Q.Q.Q.Q.K.K.H.v.m M.E.Q.W.W.W.Q.R.E.W.R.E.H.G ` N D.Y.R.R.R.E.Q.E.R.E.).).E.).E.).E.E.).).E.E.).E.).E.E.E.R.K.K.G.V.V.V.b.b.b.G.v.v.v.v.v.v.v.c.G V.S./ m OX&X&XXXR.L.Y.Y.L.E.E.Y.L.L.L.K.K.K.K.I.K.K.H.K.N.l.z.v.z.} k C G.L.K.K.J.J.L.L.J.K.K.G.G.z.z.c.c.z.z.z.v.c.V V .XY.Z.C.G.D.) > - 1 c C C V C N A v.) O : |.rXeX6X9X>Xe.Q E E E E Q ..@ o < S M.D.Z.G.N.S.S.c.c.l.[ C _ D.Z.Z.N.N.B.l.M.B.N.B.V.B.E + * #XrXeXeXrX9X6., |.|.p.e.t.t.p.p.t.t.t.t.t.t.p.t.r.r.t.r.e.e.e.e.e.e.e.i.i.i.a.q + O.,.,.>.>.,.: * dXVXNXNXNXNXDXKXPXPXPXPXPXPXPXPXPXPXPXPXPXPXPXPXPXPXPXPXPXPXPXPXPXPXPXPXPXPXPXPXPXPXPXPXPXPXPXPXPXPXPXPXPX",
"PXPXPXPXPXPXPXPXPXPXPXPXPXPXPXPXPXPXKXPXPXPXPXPXPXPXPXPXPXPXPXPXPXPXPXPXPXPXPXPXPXPXPXPXPXPXPXPXPXnXr + -XgX9XzX8X8 + 8 r 5.d.|.[.s.e.4.e.u.e.t.i.p.t.p.t.t.s.p.t.p.t.t.].s.].t.p.i.6.4 * Y W W T T :   $ v b b B V V B V V b B M C M.N.Z.Z.V.V.V.N.G I.R.I.Y.U.J O : 3XzX>X[.s.s.].r.:.$.#.o...o.T $   5 v b V M S S S G Q.(.< o Q XXY.Q.Q.Q.E.Q.!.W.Y.N.c.n l.J.T.K.R.Q.Q.Q.E.Y.K.L.G.' N S.).E.W.R.E.E.E.E.W.R.E.H.G ` N S.Y.R.R.R.E.W.E.R.E.).Y.E.).E.).).).).).).).Y.E.E.E.E.R.R.Y.Y.G.V.V.V.b.b.b.G.v.v.B.v.v.v.v.M.j.v.S./ B OX%X%XXXR.L.L.Y.L.R.L.L.L.L.L.L.K.K.K.K.K.K.H.K.H.B.z.z.v.c.M p D.J.K.K.K.L.L.L.J.K.H.G.G.z.l.l.c.c.l.z.v.c.C k ).(.Z.C.C.D.) > - y V N V C C N A v.) O & |.rXwXeX9X>Xe.Q E E E E Q ..@   < S M.B.Z.N.N.S.S.c.c.l.[ V ` F.N.C.G.Z.B.l.l.B.B.N.V.B.E + * #XrXeXeXrX9X*., |.|.p.e.t.t.p.p.t.t.t.p.t.t.p.i.i.r.r.i.r.r.r.r.r.i.s.i.6.+.Y , + r ,.>.>.,.*., # dXNXVXNXNXNXDXKXPXPXPXPXPXPXPXPXPXPXPXPXPXPXPXPXPXPXPXPXPXPXPXPXPXPXPXPXPXPXPXPXPXPXPXPXPXPXPXPXPXPXPXPXPX",
"PXPXPXPXPXPXPXPXPXPXPXPXPXPXPXPXPXPXKXPXPXPXPXPXPXPXPXPXPXPXPXPXPXPXPXPXPXPXPXPXPXPXPXPXPXPXPXPXPXnXr + #XrXeXrX9X3.6 + + & 4 8 I 5.d.s.s.i.i.p.t.p.t.p.t.t.s.p.t.t.p.p.s.].s.].p.u.6.4 * Y W W W T ,   $ v b b B V V B V V b V M C M.H.Z.Z.V.V.Z.N.N.K.R.R.Y.U.J o : 3XzX>X[.s.s.].r.:.:.o.#...o.T $   5 R b M M z S V G Q.(.< o Q XXE.Q.Q.E.E.Q.Q.Q.E.G.B.Z A G.K.R.I.E.Q.Q.Q.Y.U.H.M.A A U.).Q.W.E.E.E.I.R.E.R.E.H.G ` N A.Y.R.R.W.E.W.E.R.E.).).E.E.E.).).).).).E.E.L.E.E.).E.R.Y.L.L.J.B.V.V.G.b.b.b.v.B.v.v.v.v.v.B.k.z.S.C V OX%X&XOXR.K.L.L.L.R.L.L.L.L.L.L.K.K.K.K.K.K.K.K.H.B.z.z.v.z.D p M.H.J.K.K.L.L.L.L.K.K.G.G.z.l.c.c.l.l.z.z.c.` k U.(.Z.C.Z.M.) > - 1 V C N C C N A n.) O : |.rXwXeX9X>Xe.E E E E E Q +.@   < ) M.D.N.N.N.N.N.c.c.[ [ V ` F.N.C.Z.Z.B.l.l.M.l.N.V.S.E + * #XeXeXeXrXgX*., f.|.p.e.t.t.t.t.t.t.t.p.t.t.e.e.i.i.r.9.9.9.a.9.6.~ 0 8 : @ o   o q ,.>.>.,.*., * dXNXVXVXBXNXDXKXPXPXPXPXPXPXPXPXPXPXPXPXPXPXPXPXPXPXPXPXPXPXPXPXPXPXPXPXPXPXPXPXPXPXPXPXPXPXPXPXPXPXPXPXPX",
"PXPXPXPXPXPXPXPXPXPXPXPXPXPXPXPXPXPXKXPXPXPXPXPXPXPXPXPXPXPXPXPXPXPXPXPXPXPXPXPXPXPXPXPXPXPXPXPXPXnXe @ #XrXrXeX1X4X8X#X:.9 > @ + & * 8 Y 6.0.i.i.p.t.p.t.t.s.p.t.t.p.s.s.].s.].p.i.6.4 * Y W W W ~ ,   $ v b b V V V B B V c V M C M.Z.G.Z.V.V.Z.Z.Z.I.R.R.Y.U.H o : 3XzX>X[.s.s.].r.:.#.o.#...o.T $   5 R z M M z S V G Q.(.< o Q XXQ.Q.Q.E.).Q.Q.E.E.H.B.' N l.G.K.K.Y.Q.E.R.I.H.D.} N } Y.E.W.W.E.E.Y.E.R.E.R.E.L.' ' N M.Y.R.R.W.R.E.R.R.Y.).).E.E.E.).).).).).E.L.E.E.E.).E.R.L.Y.L.L.b.B.G.G.G.G.G.V.B.v.v.v.v.v.M.z.k.A.B C OX%X%XOXR.K.K.K.L.R.L.L.L.L.L.L.L.K.K.K.K.K.K.K.H.B.z.z.v.z.] p [ J.L.K.L.L.L.L.L.K.K.G.H.z.l.c.c.c.l.z.l.c.{ k A..XK.C.C.B.S - - 1 b V N C C N A n.) O :  XrXwXeX9X>Xe.E E E E E Q ..@   > b M.D.N.N.N.N.N.l.c.[ ' N ` F.Z.C.N.N.B.l.l.B.M.N.V.B.E + : #XeXeXeXuXgX*., f.|.p.e.t.t.t.t.t.p.t.p.t.t.p.p.i.i.r.6.5.r 8 * $ # + X # * , 0 I *.,.>.>.>.*.4 * dXVXVXVXBXNXDXKXPXPXPXPXPXPXPXPXPXPXPXPXPXPXPXPXPXPXPXPXPXPXPXPXPXPXPXPXPXPXPXPXPXPXPXPXPXPXPXPXPXPXPXPXPX",
"PXPXPXPXPXPXPXPXPXPXPXPXPXPXPXPXPXPXPXPXPXPXPXPXPXPXPXPXPXPXPXPXPXPXPXPXPXPXPXPXPXPXPXPXPXPXPXPXPXnXe + #XuXeXeXwX1X,X,X>X$X{.>.K 8 & X + + * &.s.i.p.p.i.t.p.t.t.p.s.s.'.p.p.].p.i.6.4 * Y W W ..T , o $ v b b V V V V V V B B M C M.N.Z.Z.Z.Z.Z.Z.Z.I.R.R.Y.U.l o : 5XzX>X].p.p.].r.:.#.#.#.X.o.Y $   5 J z V M M S V G Q.(.< o Q XXE.Q.Q.Q.Q.Q.Q.E.E.I.N.l.Z F N.G.G.K.K.K.Z.Z.H.M.A m D.E.Q.W.W.W.E.E.E.W.E.R.E.L.' ' C c.Y.Y.E.E.R.W.R.E.E.).).E.E.E.).).).).E.Y.L.L.E.E.E.E.R.Y.Y.L.L.B.v.V.G.G.G.G.B.B.v.v.v.v.v.v.z.k.c.m ( OX%X%XOXR.K.K.K.L.L.L.L.L.L.L.L.K.K.I.I.K.K.K.K.H.B.z.v.v.z.} p C G.L.J.L.L.L.L.K.K.G.G.H.z.z.z.c.l.l.z.z.c.} k { .XI.C.C.B.S - - 1 b N N V C N A v.) O :  XeXwXeX9X>Xe.E E E E E Q +.@   < b ;.D.Z.N.N.S.N.l.l.' { B ` D.Z.C.N.N.B.l.l.M.M.c.z.B.E @ : +XrXeXeXuXgX6., |.|.p.e.t.t.t.t.t.p.t.p.t.t.p.u.e.i.*.: # X # = = 5 8 q Y %.$.#.#.*.,.>.:.>.*.4 * hXNXNXNXBXNXDXKXPXPXPXPXPXPXPXPXPXPXPXPXPXPXPXPXPXPXPXPXPXPXPXPXPXPXPXPXPXPXPXPXPXPXPXPXPXPXPXPXPXPXPXPXPX",
"PXPXPXPXPXPXPXPXPXPXPXPXPXPXPXPXPXPXPXPXPXPXPXPXPXPXPXPXPXPXPXPXPXPXPXPXPXPXPXPXPXPXPXPXPXPXPXPXPXnXe + #XuXrXeXeXqXqX,X=X,X>X>X$X{.9.%.0 + % 5.{.i.p.p.p.p.s.s.s.p.p.p.p.p.p.].p.i.6.4 * Y T T @.Y : o : b b b B V V V V V b B M C M.Z.V.Z.C.Z.Z.Z.Z.Z.I.R.E.U.l O > 5XzX>X'.p.p.[.r.>.:.#.@.X.o.Y $   5 v v z M V S z F Q.(.< o Q XXE.E.E.Q.Q.Q.Q.Q.E.Q.Z.N.G N k.N.Z.G.H.C.C.Z.N.[ m F L.Q.W.W.W.W.W.W.W.W.W.R.Y.L.' ' C c.Y.Y.Y.E.R.Q.E.Q.).).E.E.E.).).).).).E.L.L.E.E.Y.E.E.E.E.R.Y.L.V.B.v.v.G.G.G.B.B.v.B.B.B.B.b.b.k.{ d ( OX%X&XOXY.I.I.K.L.L.L.L.L.L.L.L.L.I.K.K.Z.C.H.H.H.V.z.v.v.z.c.M M D.L.H.K.K.K.K.H.H.G.G.G.v.l.z.c.l.l.z.z.v.c.m _ .XY.C.C.D.) - - 1 b C V V C N F M./ O :  XeXwXeX6X>Xe.E E Q E E Q +.@ o < b M.D.Z.N.N.S.B.l.l.l.{ B ` H.Z.Z.V.Z.z.l.l.M.M.c.z.M.E + : +XrXeXeXuXgX*., |.|.t.t.t.p.t.t.p.p.t.p.t.p.t.e.e.r.O.# X X 8 ! &.$.$.#.$.:.:.#.$.*.:.:.:.:.$.4 = hXNXNXNXNXNXFXPXPXPXPXPXPXPXPXPXPXPXPXPXPXPXPXPXPXPXPXPXPXPXPXPXPXPXPXPXPXPXPXPXPXPXPXPXPXPXPXPXPXPXPXPXPX",
"PXPXPXPXPXPXPXPXPXPXPXPXPXPXPXPXPXPXPXPXPXPXPXPXPXPXPXPXPXPXPXPXPXPXPXPXPXPXPXPXKXPXPXPXPXPXPXPXPXnXr + ;XzX6X1XeXwX0X0X=X0X,X,X,X,X#X6.0 & # 5.{.p.p.i.p.p.s.].].p.'.'.'.'.p.].p.i.6.4 * Y T @.T Y : o : b b c c V V V V V V B M C M.Z.Z.Z.V.Z.Z.Z.V.Z.I.I.Y.P.l O , 5XzX>X].p.p.[.r.>.:.#.+.X.o.T $   5 v z V V S S z F Q.(.< o Q XXY.Q.Q.E.E.W.Q.E.E.Q.I.B.N.Z N c.z.G.Z.Z.N.M.} C m S.R.W.W.W.W.W.Q.W.W.W.E.E.R.K.k.' C c.Y.Y.E.E.E.E.E.E.).).).E.E.E.).).).E.E.E.E.).E.L.Y.E.E.R.Y.R.L.G.v.v.v.B.B.G.B.B.v.B.B.B.B.v.v.l.] d _ &X%X&XOXE.Y.I.K.L.L.L.K.J.J.L.L.L.K.K.K.K.Z.H.H.H.V.z.v.z.B.M.D m v.H.J.K.H.H.K.H.H.G.G.G.B.l.z.c.l.l.z.z.v.c.C M (.(.C.C.D.) - - 1 V C N V C N F v./ O :  XeXeXeX6X>Xe.E Q Q E E Q +.@ o < b M.D.Z.N.N.S.S.c.l.l.] c ` H.Z.G.V.Z.B.l.l.M.M.v.v.B.E + : +XrXeXeXuXgX,.> |.|.t.t.t.t.p.p.t.t.t.t.t.t.p.e.e.r.%.# 8 * # e O.6.*.,.:.:.=.o.#.:.,.>.>.,.*.4 = hXNXNXNXNXNXFXPXPXPXPXPXPXPXPXPXPXPXPXPXPXPXPXPXPXPXPXPXPXPXPXPXPXPXPXPXPXPXPXPXPXPXPXPXPXPXPXPXPXPXPXPXPX",
"PXPXPXPXPXPXPXPXPXPXPXPXPXPXPXPXPXPXPXPXPXPXPXPXPXPXPXPXPXPXPXPXPXPXPXPXPXPXPXPXKXPXPXPXPXPXPXPXPXnXr X 0.3XgXzXeX1X1XqXqXqXqX,X$X`.J > < 6 * 6.{.p.p.p.p.p.s.s.].p.'.p.p.p.p.].p.i.6.4 * Y T @.T Y : o : v b b c V V V V V V V M C M.Z.Z.Z.V.Z.Z.Z.V.Z.I.I.Y.U.l O 5 5XzX>X].p.p.[.r.>.:.#.#...o.T $   5 v v z V S b z G E.(.< o Q XXY.Q.Q.E.E.W.E.Q.W.W.E.V.B.l.N Z l.M.M.M.M.{ D p F Y.Q.W.W.R.R.W.W.E.R.R.E.E.E.L.k.` C l.Y.Y.E.E.E.R.E.E.).).).E.E.E.).).).).E.E.).).E.E.E.E.R.R.L.R.L.J.B.V.V.B.B.b.B.v.v.v.v.B.B.b.v.z.] d ` &X%X&XOXE.Y.I.K.L.L.L.L.K.K.L.L.L.J.K.K.K.K.H.K.H.V.v.v.v.B.M.[ m [ H.H.H.H.G.H.H.G.G.G.G.B.l.z.c.l.z.z.v.c.v.' k P.(.H.C.S.S - - 1 V C N V C N F M.J O : |.eXeXeX9X>Xe.E Q Q E E Q +.@ o < b M.D.Z.N.N.S.S.c.l.l.] c ` H.Z.G.Z.Z.z.l.l.c.c.v.v.B.E + : +XrXeXeXrXgX,., |.|.t.e.t.t.p.p.t.t.t.t.t.t.t.e.e.r.O.& e O.= X 4 O.&.:.:.:.=.:.>.,.6.6.,.6.O.& = hXNXNXNXNXNXFXPXPXPXPXPXPXPXPXPXPXPXPXPXPXPXPXPXPXPXPXPXPXPXPXPXPXPXPXPXPXPXPXPXPXPXPXPXPXPXPXPXPXPXPXPXPX",
"PXPXPXPXPXPXPXPXPXPXPXPXPXPXPXPXPXPXPXPXPXPXPXPXPXPXPXPXPXPXPXPXPXPXPXPXPXPXPXPXKXPXPXPXPXPXPXPXPXnX5.= = : 5 T p.>X3X,X,X1X3X#XW > > 6 L T : 6.{.p.p.p.p.p.s.s.].'.p.p.p.p.p.].p.i.6.4 * Y T T T T , o : v b b c V V V V B b V m N M.Z.Z.Z.C.Z.G.Z.Z.Z.Z.K.Y.U.l o , 5XzX>X].p.p.[.r.>.:.#.#.o.=.T *   8 v z z V V V V F E.(.< o Q XXY.E.E.Q.E.E.Q.Q.W.W.Q.I.N.l.' n Z ' c.c.] V p C H.E.W.E.R.E.E.W.W.E.W.W.E.E.E.L.k.` A [ U.Y.R.R.R.R.E.E.).).E.E.L.E.E.).E.).).E.E.Y.).).E.Y.L.E.R.R.R.L.V.V.V.V.v.G.B.B.v.z.v.z.z.G.V.z.] i _ &X%X&XOXQ.I.I.K.L.Y.L.L.L.L.L.L.J.H.K.K.K.H.H.K.K.V.z.v.v.B.M.[ m A H.H.H.H.H.H.H.H.G.H.G.B.l.l.c.l.z.v.v.c.v.' d F.).K.K.S.S - - 1 V C V V C N Z M./ O :  XrXeXeX9X>Xe.E E E E E Q ^ @ o < b M.B.N.N.N.S.M.l.l.l.{ c ` Z.Z.Z.Z.Z.z.l.[ [ } c.v.B.E + * +XrXeXeXuX8X*., +X+Xw.e.t.t.p.p.p.p.t.p.t.r.e.e.e.r.%.& 8 &.! 4 + , ! #.$.:.:.:.$.*.%.^ w 5 + + e hXNXNXNXNXNXGXPXPXPXPXPXPXPXPXPXPXPXPXPXPXPXPXPXPXPXPXPXPXPXPXPXPXPXPXPXPXPXPXPXPXPXPXPXPXPXPXPXPXPXPXPXPX",
"PXPXPXPXPXPXPXPXPXPXPXPXPXPXPXPXPXPXPXPXPXPXPXPXPXPXPXPXPXPXPXPXPXPXPXPXPXPXPXPXKXPXPXPXPXPXPXPXPXFXkXg.5.5.e 8 3 : 8 +.{.-X@XK : 8 0 R >.*.: 6.{.p.p.p.p.p.s.s.'.'.p.p.p.p.p.].p.i.6.4 * Y T T T T , o : v b b c b V V V B b V M C M.Z.Z.Z.C.Z.Z.Z.Z.N.Z.C.Y.U.l o , 5XzX>X].p.p.[.r.:.:.o.#.o.o.T *   8 v z z V V V V G Q.(.< o Q XXY.E.E.Q.E.W.Q.Q.W.W.W.E.Z.B.B.l.Z N N N n n A J.E.W.W.R.I.W.E.E.E.E.W.W.E.E.E.U.k.F C [ U.Y.R.R.R.R.E.E.).).E.E.E.E.).).E.).E.E.E.L.E.E.E.R.R.E.L.Y.R.L.Z.v.b.V.v.v.B.B.B.v.v.z.z.v.b.B.] i C &X%X&XOXQ.I.I.I.L.Y.L.L.L.L.L.L.J.H.K.K.K.K.H.K.K.V.v.v.v.v.M.c.N C D.H.H.H.K.H.H.H.H.G.G.B.l.l.l.l.l.l.l.c.c.x.m { ).K.K.Z._ - - 1 V C V V C N Z M./ O : |.eXeXeX9X,Xe.E E E E E Q ^ @ o < b M.D.N.N.N.S.M.l.l.l.{ c ` G.Z.Z.Z.Z.z.l.[ [ } c.v.M.E + * #XrXeXeXuX8X*., +X+Xw.e.t.t.p.p.p.p.t.p.t.r.e.e.e.r.%.& 8 &.+.@.0 + # w %.+.+.T K 8 * + # 4 r 5.sXnXNXNXNXAXDXHXPXPXPXPXPXPXPXPXPXPXPXPXPXPXPXPXPXPXPXPXPXPXPXPXPXPXPXPXPXPXPXPXPXPXPXPXPXPXPXPXPXPXPXPXPXPX",
"PXPXPXPXPXPXPXPXPXPXPXPXPXPXPXPXPXPXPXPXPXPXPXPXPXPXPXPXPXPXPXPXPXPXPXPXPXPXPXPXKXPXPXPXPXPXPXPXPXPXPXJXDXnXhXsXg. .8 = * 8 8 , 0 U L Q '.6.: 6.{.i.p.p.p.p.s.s.'.p.p.p.p.p.p.].p.u.6., * Y T T T T , o : v v b b V V V V V b V M C M.Z.Z.Z.Z.Z.Z.Z.Z.N.Z.C.Y.H.l o 5 5XzX>X].p.p.s.8.:.#.o.#.o.o.T *   8 v v z V V S z ] Q.(.< o Q XXY.E.E.E.W.Q.Q.Q.W.W.W.E.R.Z.z.N.l.l.F A G l.H.E.R.W.R.E.I.E.E.Y.E.E.W.W.E.E.E.Y.l.F D G I.Y.R.R.R.R.E.E.E.E.E.E.).).).).E.E.E.Y.Y.L.L.E.E.R.E.E.L.Y.Y.L.G.v.v.b.v.v.B.B.B.M.B.B.B.b.v.B.{ d M &X%X&X%X).K.K.Y.L.R.L.L.L.L.L.L.L.K.K.K.K.K.K.H.K.Z.v.v.v.z.M.M.A m D.H.H.H.K.H.H.H.H.G.H.B.l.l.l.z.z.l.c.c.c.c./ C Y.Y.K.Z._ - - 1 b N C C C N Z M.J O : |.eXwXeXrX,Xe.E E E E E Q ^ @ o < b ;.S.N.N.N.S.M.l.l.l.{ c ` S.Z.Z.Z.Z.z.l.l.l.c.c.z.M.E + : #XrXrXeXuXgX*., |.|.w.e.t.t.t.p.p.p.t.p.t.p.t.e.e.r.%.# 8 #.+.#.+.r #   3 4 : & & = e 5.h.dXkXnXBXCXAXDXDXFXJXPXPXPXPXPXPXPXPXPXPXPXPXPXPXPXPXPXPXPXPXPXPXPXPXPXPXPXPXPXPXPXPXPXPXPXPXPXPXPXPXPXPXPXPXPXPXPX",
"PXPXPXPXPXPXPXPXPXPXPXPXPXPXPXPXPXPXPXPXPXPXPXPXPXPXPXPXPXPXPXPXPXPXPXPXPXPXPXPXPXPXPXPXPXPXPXPXPXPXPXPXKXJXGXFXSXvXkXh. .4 + 3 0 L E 4.#Xr.* 6.|.p.r.i.p.s.].].s.s.s.s.p.p.p.p.p.i.6.4 * Y T T ~ ~ 5 o : v v b z V V V b b c V M C M.Z.Z.Z.Z.Z.Z.Z.Z.N.Z.Z.I.U.v O 5 5XzX>X].p.p.s.w.:.$.#.#.o.o.Y $   8 v v z V V S M [ Q.(.< o Q XXE.E.E.E.W.Q.Q.Q.W.W.E.E.E.I.Z.V.B.z.z.M.Z.K.E.Q.Q.W.W.E.I.E.E.E.E.E.R.E.E.E.R.L.k.F F G U.Y.R.R.R.T.E.T.).).).E.E.).).).E.Y.Y.E.L.Y.L.E.E.E.E.E.E.R.R.Y.G.z.v.v.v.v.B.B.B.B.B.B.B.v.v.B.c.k M OX&X&X%X).K.K.L.L.L.L.K.K.K.L.L.L.L.K.K.K.K.K.K.K.G.v.z.v.v.B.M.F m n.H.H.J.K.K.H.H.G.H.G.B.l.c.c.l.l.l.c.c.l.c.( B P.E.K.Z.` ; - 1 b N V V V N A M./ O : |.eXeXeXrX,Xe.E E E E E Q ..+ o < b ;.D.N.N.S.S.M.l.l.[ ] k ` D.Z.Z.Z.Z.N.l.l.l.l.l.z.M.J O : #XrXrXeXuX8X*., |.|.e.t.t.t.t.p.p.t.t.t.t.t.p.e.e.r.O.# 8 #...+.#.O.4 X # * 8 ! g.hXkXmXAXDXDXDXGXJXJXKXPXPXPXPXPXPXPXPXPXPXPXPXPXPXPXPXPXPXPXPXPXPXPXPXPXPXPXPXPXPXPXPXPXPXPXPXPXPXPXPXPXPXPXPXPXPXPXPXPXPX",
"PXPXPXPXPXPXPXPXPXPXPXPXPXPXPXPXPXPXPXPXPXPXPXPXPXPXPXPXPXPXPXPXPXPXPXPXPXPXPXPXPXPXPXPXPXPXPXPXPXPXPXPXPXPXPXPXJXJXKXDXmXkXe % , E '.oX4Xr.* 6.|.p.t.i.s.].].].s.s.s.s.p.p.p.p.p.i.6.4 * Y W ..+.~ 5 o : v b z M M M M z z V M M C M.Z.Z.Z.Z.G.G.G.G.N.Z.Z.K.J.v O 5 5XzX>X].].p.s.w.$.$.$.#.o.o.Y $   8 v v z V V S M [ Q.(.< O Q XXE.W.W.W.W.Q.Q.Q.E.E.E.E.E.E.R.I.K.K.L.Y.R.Q.Q.Q.Q.Q.Q.W.R.W.W.Q.Q.E.R.E.E.R.R.L.l.F F G U.Y.R.R.R.R.R.E.).).).E.E.).).).E.E.E.E.L.Y.E.E.Y.Y.E.Y.E.E.Y.Y.J.v.B.v.v.v.v.b.V.V.V.V.v.v.z.B.c.c B OX&X&X%X_.K.L.L.Y.Y.Y.K.K.K.K.Y.L.L.L.L.L.K.K.K.K.G.z.z.v.v.z.B.' m } H.H.H.H.H.H.Z.G.H.G.B.l.v.v.l.l.l.c.l.k.l.] B F.).R.G.` ; - 1 b N V V V N A v./ O : |.eXeXeX9X4Xe.E E E E Q ) W @ o < b M.D.N.N.S.S.M.[ l.[ [ k ` J.G.Z.Z.N.M.l.l.l.l.l.l.M.E O : #XrXrXeXuX9X*., |.|.e.t.t.e.p.p.p.t.t.t.^.t.t.u.e.8.+.+ 8 #...o.+.O.4 X 5.dXkXnXBXDXFXHXHXJXKXPXPXPXPXPXPXPXPXPXPXPXPXPXPXPXPXPXPXPXPXPXPXPXPXPXPXPXPXPXPXPXPXPXPXPXPXPXPXPXPXPXPXPXPXPXPXPXPXPXPXPXPXPXPXPX",
"PXPXPXPXPXPXPXPXPXPXPXPXPXPXPXPXPXPXPXPXPXPXPXPXPXPXPXPXPXPXPXPXPXPXPXPXPXPXPXPXPXPXPXPXPXPXPXPXPXPXPXPXPXPXPXPXPXPXPXJXGXDXh.X 5 ].,X1X9Xr.* 5.|.p.r.i.s.s.].].s.s.s.s.p.p.p.p.p.i.6.4 * Y T T ~ ~ 4 o : v b z M M M M z b V M M C M.Z.Z.Z.C.G.G.G.G.Z.Z.Z.J.H.l O , 5XzX>X].'.p.s.8.$.$.:.$.o.o.Y $   8 b v z V V S M [ Q.^.< O Q XXE.W.Q.W.W.Q.Q.Q.Q.E.E.E.E.R.R.R.E.E.E.).Q.Q.E.R.W.E.Q.Q.E.E.E.Q.Q.E.E.E.E.R.E.R.z.F F F H.Y.W.R.R.R.E.E.E.).).E.E.).).E.E.E.E.E.E.E.E.E.Y.Y.E.E.E.Y.L.K.L.V.B.v.v.v.v.v.V.V.V.V.v.v.z.B.M.V k XX&X&X%X.XK.Y.L.Y.Y.Y.K.K.K.K.Y.Y.L.J.K.L.K.H.K.K.G.z.z.z.z.z.z.l.N ( H.H.J.H.H.K.H.G.H.G.V.l.z.z.c.c.c.l.z.l.l.} B ` Y.Q.H.` ; - 1 c N V V V N A v.J O : +XeXwXeX9X,Xe.E E E E Q ) ..@ o < b } D.N.N.S.S.M.[ l.[ ] k ` D.Z.C.Z.N.M.l.l.l.l.l.l.M.E O : #XrXrXrXuX9X*.< |.|.e.t.t.e.p.p.p.t.t.t.^.t.e.e.u.r.O.# 8 %.o.o.#.O.= % dXBXBXNXNXAXDXKXKXPXPXPXPXPXPXPXPXPXPXPXPXPXPXPXPXPXPXPXPXPXPXPXPXPXPXPXPXPXPXPXPXPXPXPXPXPXPXPXPXPXPXPXPXPXPXPXPXPXPXPXPXPXPXPXPXPX",
"PXPXPXPXPXPXPXPXPXPXPXPXPXPXPXPXPXPXPXPXPXPXPXPXPXPXPXPXPXPXPXPXPXPXPXPXPXPXPXPXPXPXPXPXPXPXPXPXPXPXPXPXPXPXPXPXPXPXKXPXKXGX;X. 0 #X6X6XrXr.$ 5.|.p.r.i.s.s.].].s.s.s.s.s.p.p.p.p.i.6.3 * Y T W ^ ~ 4 o : J b b M M M M z b V V M C M.Z.Z.Z.Z.G.G.G.G.D.N.Z.G.H.l O , 5XlX>X].'.p.[.w.$.$.:.$.o.o.Y &   6 J z b V V S V [ U.(.< O Q XXR.Q.Q.Q.Q.Q.Q.Q.Q.W.E.E.E.E.E.R.R.R.E.).E.E.R.R.R.E.Q.Q.W.W.E.Q.Q.E.E.E.E.E.W.R.z.F F F H.E.W.R.R.R.Q.Q.E.).).).).).E.E.E.E.E.E.E.E.E.E.E.E.E.E.E.L.L.K.L.Z.V.v.v.v.v.V.V.V.V.V.v.v.z.B.M.C p .X%X&X&X.XL.Y.L.L.L.L.I.K.K.K.L.L.Y.J.K.L.K.H.H.H.G.v.z.z.z.z.z.c.C C D.H.J.J.H.H.G.G.H.G.V.c.z.v.c.l.l.l.l.l.l.c.( B U.Q.L.` ; - 1 b N V V V N A n.J O : +XeXwXeX9X,Xq.E E W E Q ) #.@ o < b } B.N.N.S.S.M.[ l.[ ] k ` F.Z.C.V.B.l.[ l.l.l.l.l.M.E O : #XrXrXeXuX9X*., |.|.u.t.t.e.p.p.p.t.t.t.t.t.e.e.u.r.+.+ 8 %.#.o.#.Y * X hXBXNXBXBXNXDXKXKXKXPXPXPXPXPXPXPXPXPXPXPXPXPXPXPXPXPXPXPXPXPXPXPXPXPXPXPXPXPXPXPXPXPXPXPXPXPXPXPXPXPXPXPXPXPXPXPXPXPXPXPXPXPXPXPXPX",
"PXPXPXPXPXPXPXPXPXPXPXPXPXPXPXPXPXPXPXPXPXPXPXPXPXPXPXPXPXPXPXPXPXPXPXPXPXPXPXPXPXPXPXPXPXPXPXPXPXPXPXPXPXPXPXPXPXPXPXPXKXFXsXX 0 >XuXeXlXr.: 6.|.i.i.i.s.s.s.s.s.s.s.t.t.t.i.p.p.i.6.4 * r T T ~ ~ , o : J b b M M M V z z V B m V M.Z.Z.Z.Z.G.G.G.G.Z.Z.Z.G.U.l O , 5XgX>X].p.u.p.8.$.:.:.#.=.o.Y #   6 v z b V V M M G Y.(.< O ) XXE.W.Q.E.Q.W.Q.Q.Q.W.R.W.W.E.E.E.E.E.E.).Q.E.E.E.E.E.E.R.R.R.E.E.E.E.E.E.E.E.E.E.z.F F F H.Y.R.R.R.R.R.E.).).).).).E.E.E.E.E.).).Y.E.E.E.E.E.L.E.E.E.E.K.L.G.v.v.b.v.v.B.V.V.V.V.v.v.v.V.M._ k (.&X&X&XXXL.L.Y.K.K.K.K.I.K.K.L.L.L.L.L.L.K.H.K.H.G.z.v.z.z.z.v.z.( m A.H.H.J.J.H.G.H.G.G.G.z.z.c.l.c.l.l.l.k.l.l.' m D.Q.Y.` ; - 1 b V V C V N G n.J O : +XrXeXeX6X,Xe.E E E E E ) W @ o < b } B.N.N.B.S.M.' l.[ [ k ` D.Z.C.Z.V.M.l.l.l.l.l.l.M.E O * #XrXrXeXuX9X*., +X Xw.t.t.p.e.t.p.t.t.t.t.p.t.e.e.0.+.+ 5 #.#.o.+.Y * . dXNXNXBXBXBXAXHXKXKXPXPXPXPXPXPXPXPXPXPXPXPXPXPXPXPXPXPXPXPXPXPXPXPXPXPXPXPXPXPXPXPXPXPXPXPXPXPXPXPXPXPXPXPXPXPXPXPXPXPXPXPXPXPXPXPX",
"PXPXPXPXPXPXPXPXPXPXPXPXPXPXPXPXPXPXPXPXPXPXPXPXPXPXPXPXPXPXPXPXPXPXPXPXPXPXPXPXPXPXPXPXPXPXPXPXPXPXPXPXPXPXPXPXPXPXPXPXPXGXsXX 0 >XuXrXlXr.: 6.|.p.i.i.s.s.s.s.s.p.i.t.i.i.p.p.u.i.6.4 * Y T T ~ ~ , o : J b V M M V V z z V B m V M.Z.Z.Z.Z.G.G.G.G.Z.Z.Z.G.H.l O , 5XlX>X].p.u.p.3.$.:.#.#.=.o.Y &   5 v z b V V M M G Y.^.< O Q XXE.E.E.E.Q.Q.Q.Q.Q.W.E.W.W.W.W.W.Q.Q.E.).Q.E.E.Q.Q.Q.E.E.R.E.E.R.E.E.E.E.R.E.E.E.z.F F Z H.Y.W.R.R.R.R.E.).).).E.E.E.E.E.E.E.E.E.Y.Y.Y.E.E.L.L.E.L.L.L.L.L.H.V.v.b.v.v.V.V.V.V.V.v.v.v.v.M.` p H.%X&X&XXXU.L.L.K.L.K.K.I.K.K.L.L.L.L.L.K.H.H.K.H.G.v.v.c.B.z.v.z.' p } H.H.J.H.H.H.H.G.G.G.z.z.v.c.c.l.k.l.l.l.z.} V F ).Y.] ; - 1 c V V C V N G n.J O * |.rXeXeX9X,Xq.E E E E E ) W @ o < b } D.N.N.S.S.M.' l.[ [ k ` D.Z.C.Z.N.M.l.l.l.l.l.l.M.E O : #XrXeXeXuX9X*., |.|.w.r.t.t.e.t.p.t.t.t.t.p.t.e.u.r.+.+ 8 #.o.o.+.Y & X dXBXNXBXBXNXDXKXKXKXPXPXPXPXPXPXPXPXPXPXPXPXPXPXPXPXPXPXPXPXPXPXPXPXPXPXPXPXPXPXPXPXPXPXPXPXPXPXPXPXPXPXPXPXPXPXPXPXPXPXPXPXPXPXPXPX",
"PXPXPXPXPXPXPXPXPXPXPXPXPXPXPXPXPXPXPXPXPXPXPXPXPXPXPXPXPXPXPXPXPXPXPXPXPXPXPXPXPXPXPXPXPXPXPXPXPXPXPXPXPXPXPXPXPXPXPXPXPXGXsX% w 4XrXrXzXe.: 6.|.p.i.p.s.s.s.s.p.t.t.i.t.p.p.p.u.i.6.4 * Y T T ~ ~ , o : J b b M M M M z z V B m V M.Z.Z.Z.Z.G.G.G.G.Z.Z.Z.G.D.l O , 5XgX>X].p.u.p.8.$.:.#.#.=.o.T &   5 v z b V V M M G Y.^.< O Q .XE.W.E.Q.Q.Q.Q.Q.Q.W.E.E.W.W.W.Q.Q.Q.E.).E.E.E.Q.Q.Q.E.E.E.E.E.R.E.E.R.R.R.R.E.E.v.F ' N D.Y.W.R.R.R.R.E.E.).).E.E.E.L.E.E.E.E.E.L.Y.Y.E.E.L.E.E.L.Y.Y.L.L.J.V.v.b.v.v.B.V.V.V.V.v.b.b.z.M.| i M.%X&X&XXXL.L.L.L.K.K.K.K.I.K.L.L.L.L.K.J.H.K.K.H.G.B.z.c.B.v.v.z.} p ` H.H.G.J.J.J.J.H.H.G.z.c.v.c.l.l.k.l.l.l.j.} _ m U.Y.{ ; - 1 c V V C V N G n.J O : |.rXeXeXrX4Xq.E W W E E ) W @ o < b } D.N.N.S.S.M.' l.[ [ k ` D.Z.C.V.N.M.[ l.l.l.l.l.M.E O * +XrXrXeXuX9X*., |.|.w.w.t.e.e.t.p.t.t.t.t.p.t.u.u.r.O.$ 5 #.o.o.+.Y & . dXNXNXNXBXNXDXKXKXPXPXPXPXPXPXPXPXPXPXPXPXPXPXPXPXPXPXPXPXPXPXPXPXPXPXPXPXPXPXPXPXPXPXPXPXPXPXPXPXPXPXPXPXPXPXPXPXPXPXPXPXPXPXPXPXPX",
"PXPXPXPXPXPXPXPXPXPXPXPXPXPXPXPXPXPXPXPXPXPXPXPXPXPXPXPXPXPXPXPXPXPXPXPXPXPXPXPXPXPXPXPXPXPXPXPXPXPXPXPXPXPXPXPXPXPXPXPXPXFXsXX K ,XuXrXzXr.* 6.|.p.p.p.p.p.p.s.p.p.p.p.p.p.u.e.u.i.6.4 * r W W ^ ~ 3 o : J b M M M M M V V V V M V c.S.Z.Z.Z.Z.G.G.B.N.N.G.H.J.l O , 5XlX>X[.'.'.p.8.$.$.#.#.o.o.T *   5 v z M M M V M [ Q.(.< O Q XXY.E.E.W.Q.Q.Q.Q.Q.Q.Q.Q.Q.Q.Q.).).).).).Q.E.E.E.Q.Q.R.R.E.E.E.R.E.E.W.E.E.R.R.R.v.G ' C H.Y.R.R.R.R.E.).).).L.E.E.E.E.E.E.E.E.E.Y.Y.L.E.Y.E.E.E.L.E.E.R.R.Y.Z.v.V.V.V.V.G.G.G.V.v.v.b.b.B.c.p { OXOX&XXXL.L.L.L.L.K.J.K.K.L.L.L.K.L.L.L.K.K.K.K.G.V.v.z.z.z.z.B.c.m N D.J.J.J.J.J.H.J.H.G.z.v.v.c.v.v.l.l.c.c.l.l.} m c.(.] < - 1 c C C V V N A n./ O *  XrXeXeX9X,Xe.E E W E E Q W @ o < b [ A.N.N.D.N.M.l.l.G ] k ` S.Z.V.B.N.l.l.l.l.c.l.l.M.J O * +XrXeXeXuX9X,.< |.|.e.w.t.e.e.t.p.p.t.p.t.t.t.e.e.r.%.+ 8 %.o.o.#.Y & X dXNXVXNXBXBXAXHXKXPXPXPXPXPXPXPXPXPXPXPXPXPXPXPXPXPXPXPXPXPXPXPXPXPXPXPXPXPXPXPXPXPXPXPXPXPXPXPXPXPXPXPXPXPXPXPXPXPXPXPXPXPXPXPXPXPX",
"PXPXPXPXPXPXPXPXPXPXPXPXPXPXPXPXPXPXPXPXPXPXPXPXPXPXPXPXPXPXPXPXPXPXPXPXPXPXPXPXPXPXPXPXPXPXPXPXPXPXPXPXPXPXPXPXPXPXPXPXPXFXaXX K 4XuXrXzXr.$ 6.|.p.p.p.p.p.p.p.p.p.p.p.p.u.u.e.u.u.6.4 * Y W ..^ ~ 3   : J b V V z V M V V z M M V c.S.Z.Z.Z.Z.G.G.B.N.Z.Z.H.J.l O < 5XlX>X[.'.'.p.8.$.#.#.#.o.o.T *   6 v z M M V S V [ Q.(.< O Q }.U.Y.E.W.Q.Q.W.Q.Q.Q.Q.Q.Q.).).).).).).).Q.E.R.R.E.W.R.R.E.E.E.E.E.E.W.E.E.R.R.R.v.G ` C D.R.R.I.R.R.E.).E.).L.Y.Y.E.).).).E.E.E.E.L.L.E.Y.E.Y.E.Y.E.E.T.L.K.Z.B.V.V.V.V.G.G.G.V.B.v.v.b.V.v.f { OXOX&XOXY.L.L.L.L.L.L.L.L.L.L.L.J.L.L.L.K.K.K.K.H.V.v.v.z.z.z.B.c.V m D.H.K.J.J.H.J.J.H.G.v.v.v.c.v.v.z.c.c.c.l.l.c.C C (.{ < - 1 c N C V V N A v./ O * |.lXeXeX6X,Xe.E E E E E Q W @ o < b } A.S.N.D.N.B.l.l.G ] k ` G.V.V.N.B.l.l.l.l.c.l.l.M.J O : +XrXeXeXuX9X,.< |. Xe.r.t.e.e.t.p.p.t.t.t.t.t.e.e.r.%.+ 8 *.o.o.#.~ & X dXNXVXVXBXBXAXHXKXPXPXPXPXPXPXPXPXPXPXPXPXPXPXPXPXPXPXPXPXPXPXPXPXPXPXPXPXPXPXPXPXPXPXPXPXPXPXPXPXPXPXPXPXPXPXPXPXPXPXPXPXPXPXPXPXPX",
"PXPXPXPXPXPXPXPXPXPXPXPXPXPXPXPXPXPXPXPXPXPXPXPXPXPXPXPXPXPXPXPXPXPXPXPXPXPXPXPXPXPXPXPXPXPXPXPXPXPXPXPXPXPXPXPXPXPXPXPXPXFXaXX K 4XuXrXzXr.$ 6.|.p.i.p.p.p.p.p.p.p.p.p.p.u.u.e.u.u.6.4 * r W ..^ ~ 3   : J V M V V V M V z z M M C c.S.Z.Z.Z.Z.G.G.Z.N.Z.Z.G.F.l O < 5XlX>X[.'.u.p.8.$.o.#.#.o.o.T *   6 v z M M V S V [ Q.P.< O Q }.U.Y.E.W.Q.Q.W.Q.Q.Q.Q.Q.Q.).).).).).).).E.R.R.E.E.R.R.E.E.E.R.E.E.E.E.E.R.R.E.E.B.G ` C S.R.R.R.R.E.E.E.).).L.L.L.E.).).).E.E.E.E.Y.L.E.E.Y.Y.E.Y.E.Y.R.K.K.H.B.v.v.v.v.G.G.G.V.B.v.v.b.b.S.N C OXOX&XOXR.L.L.L.L.L.L.L.L.L.L.L.J.L.L.L.K.K.K.K.H.V.v.v.v.v.v.B.c.` p c.H.K.J.H.G.J.J.J.G.v.v.v.c.v.v.v.c.c.c.l.l.l.[ m D.| ; - 1 c C C V V N A v./ O * |.lXeXeX6X,Xe.E E E E E Q W @ o < b } D.S.N.H.N.B.l.l.G ] c ` S.V.Z.N.N.B.l.l.l.c.c.z.M.J O * +XeXeXeXrX8X*., |. Xe.r.t.e.e.t.t.t.t.t.t.t.e.e.e.r.%.+ 5 *.o.o.#.~ * X dXmXNXNXNXNXAXHXKXKXPXPXPXPXPXPXPXPXPXPXPXPXPXPXPXPXPXPXPXPXPXPXPXPXPXPXPXPXPXPXPXPXPXPXPXPXPXPXPXPXPXPXPXPXPXPXPXPXPXPXPXPXPXPXPXPX",
"PXPXPXPXPXPXPXPXPXPXPXPXPXPXPXPXPXPXPXPXPXPXPXPXPXPXPXPXPXPXPXPXPXPXPXPXPXPXPXPXPXPXPXPXPXPXPXPXPXPXPXPXPXPXPXPXPXPXPXPXPXJXsXX K 4XuXrXzXr.$ 5. Xp.i.p.p.p.p.p.p.p.p.t.p.e.u.e.u.u.6.4 * r W W ^ ~ 3   : J V V V V V M V b z M M C c.S.Z.Z.Z.Z.G.G.Z.N.Z.V.G.D.l O < 8XlX>X[.p.'.p.w.$.o.#.#.o.o.T *   5 v z M M V S V [ Q.^.< O Q }.U.Y.E.W.Q.Q.W.Q.Q.Q.Q.Q.Q.).).).).).).).Q.E.E.E.R.R.E.E.W.E.R.E.E.E.E.E.R.R.E.E.V.A ` C S.R.R.E.R.E.E.E.).).L.L.Y.E.E.E.E.E.E.E.E.Y.L.E.E.Y.E.E.Y.Y.Y.Y.L.R.J.V.v.v.v.v.G.G.G.V.B.B.v.b.V.S.A m .XOX&XOXR.L.L.L.L.L.J.J.K.L.L.L.K.L.L.L.K.K.K.K.J.V.V.B.B.B.v.z.z.[ p ' H.H.J.G.G.J.H.J.G.v.v.v.c.v.v.z.c.c.c.l.l.' c.m ] ;.< - y c C C V V N A v./ O * |.lXeXeX6X,Xe.E E E R E E W @ o < b } D.S.N.H.N.B.l.l.G ` c ` G.Z.Z.Z.N.B.l.l.l.c.z.z.M.J O * +XeXeXeXrX8X*., |.|.e.r.t.p.t.t.t.t.t.t.t.p.e.e.e.r.O.+ 5 $.o.o.#.~ * X sXmXNXNXNXNXAXHXKXKXPXPXPXPXPXPXPXPXPXPXPXPXPXPXPXPXPXPXPXPXPXPXPXPXPXPXPXPXPXPXPXPXPXPXPXPXPXPXPXPXPXPXPXPXPXPXPXPXPXPXPXPXPXPXPXPX",
"PXPXPXPXPXPXPXPXPXPXPXPXPXPXPXPXPXPXPXPXPXPXPXPXPXPXPXPXPXPXPXPXPXPXPXPXPXPXPXPXPXPXPXPXPXPXPXPXPXPXPXPXPXPXPXPXPXPXPXPXPXFXsX% K 9XuXuXzXr.$ 5.|.p.i.p.p.p.p.p.p.p.p.p.p.p.u.u.u.u.6.4 & r W W ^ ~ 3 o : v b M V V V V b b z M M C M.D.Z.Z.Z.Z.G.G.G.Z.Z.Z.G.D.H O < 5XlX>X[.p.'.p.w.:.$.o.#.o.o.T &   6 v v V S S V V [ Q.^.< O Q }.Y.Y.E.W.W.W.Q.Q.Q.Q.Q.Q.Q.).).).).).).).Q.Q.Q.R.R.R.E.E.W.R.E.E.E.E.E.R.R.R.R.Y.V.G [ C S.E.T.R.E.W.E.E.E.).E.E.E.E.E.E.E.E.L.L.E.L.L.E.E.R.R.Y.Y.Y.E.Y.Y.R.L.V.v.B.z.v.V.G.V.V.V.B.v.b.V.S.` p (.&X&XOXR.K.L.L.L.L.J.K.L.L.L.L.J.L.L.L.K.K.H.H.H.V.v.B.B.B.z.z.z.c.m C H.H.H.G.G.J.G.G.G.v.v.z.c.x.x.k.k.k.l.l.l.' M.` M ] < - 1 c N V V V N G v.J O & |.lXeXeXrX>Xq.E E E E E Q W @ o < b } D.N.S.S.N.B.l.l.G ` c ` G.Z.Z.N.N.c.k.[ l.c.z.z.M.J O : +XrXrXeXrX8X*.> |.|.w.r.t.p.p.t.t.t.t.t.t.p.e.w.e.r.+.+ 8 #.#.o.#.~ * X sXMXVXVXNXNXAXKXKXPXPXPXPXPXPXPXPXPXPXPXPXPXPXPXPXPXPXPXPXPXPXPXPXPXPXPXPXPXPXPXPXPXPXPXPXPXPXPXPXPXPXPXPXPXPXPXPXPXPXPXPXPXPXPXPXPX",
"PXPXPXPXPXPXPXPXPXPXPXPXPXPXPXPXPXPXPXPXPXPXPXPXPXPXPXPXPXPXPXPXPXPXPXPXPXPXPXPXPXPXPXPXPXPXPXPXPXPXPXPXPXPXPXPXPXPXPXPXPXJXsX% U 9XuXuXzXr.$ 6. Xt.p.p.i.p.p.p.p.p.p.p.p.p.u.u.u.u.6.3 * r W W ^ ~ 4 o : v b V V V / / V z z M M N c.D.Z.Z.Z.Z.G.G.G.N.Z.Z.G.D.v O < 5XrX>X[.p.'.p.8.$.$.#.#.o.o.Y &   6 b z V S S V V [ Y.^.< O Q .XY.Q.E.W.W.W.Q.Q.Q.Q.Q.Q.Q.).).).).).).).Q.E.R.E.R.R.E.E.E.E.E.E.E.E.E.R.R.R.R.Y.V.G [ C S.E.R.R.E.E.E.E.E.).E.E.E.).E.E.E.L.L.L.L.L.L.E.L.L.L.L.L.L.L.Y.Y.Y.L.V.v.v.v.V.V.b.v.V.V.B.b.b.V.H.} i P.&X&XOXE.K.K.L.L.L.K.K.L.L.L.L.J.L.K.J.K.K.H.H.H.V.v.B.M.B.z.v.z.c.V m D.H.H.H.H.J.G.G.G.v.z.v.c.x.x.z.c.c.l.c.l.G l.D.p j ; - y c N C V V N G v./ O * |.gXeXeXrX>Xq.E E E E E Q W @ o < b } D.N.N.S.N.B.l.l.G ` c ` G.Z.Z.N.N.c.l.l.l.c.l.z.M.J O : +XrXrXeXrX8X*., |.|.w.w.t.p.t.r.e.t.t.t.t.e.e.e.e.r.+.+ 8 %.#.o.#.~ * . sXMXVXVXNXNXAXKXKXPXPXPXPXPXPXPXPXPXPXPXPXPXPXPXPXPXPXPXPXPXPXPXPXPXPXPXPXPXPXPXPXPXPXPXPXPXPXPXPXPXPXPXPXPXPXPXPXPXPXPXPXPXPXPXPXPX",
"PXPXPXPXPXPXPXPXPXPXPXPXPXPXPXPXPXPXPXPXPXPXPXPXPXPXPXPXPXPXPXPXPXPXPXPXPXPXPXPXPXPXPXPXPXPXPXPXPXPXPXPXPXPXPXPXPXPXPXPXPXFXsX% U 8XuXuXzX8.$ 6. Xt.t.i.p.p.p.p.p.p.p.p.p.p.u.u.u.u.6.3 * r W W ^ ~ 4   : v b V V V / / V b z z M N c.G.Z.V.Z.Z.G.G.Z.N.N.V.G.D.v O < 5XrX>X].'.'.p.8.$.o.o.#.o.o.Y &   6 b z V S M V V [ Y.(.< O Q .XY.Q.E.W.W.W.Q.Q.Q.Q.Q.Q.Q.).).).).).).).Q.R.R.E.R.R.E.E.R.W.E.E.E.E.E.R.R.R.R.Y.V.G [ C M.E.R.E.E.R.E.E.E.).L.E.E.E.).E.E.L.Y.E.L.L.L.L.L.L.L.L.L.L.L.Y.Y.R.L.G.B.v.v.B.V.v.v.V.V.B.b.b.Z.H.M.i F.OX&XOXQ.K.K.L.L.L.K.K.K.L.L.L.J.L.L.J.H.K.H.H.H.v.v.B.M.B.v.v.z.c.` p M.H.H.H.H.K.G.J.H.v.v.v.c.v.v.v.c.c.c.c.l.l.l.D._ u - - 1 c N V V V N G v./ O * |.rXeXeXeX>Xq.E E E E E Q W @ o < b } D.N.N.N.N.B.l.l.G ` c ` G.Z.Z.N.N.c.l.l.l.c.l.z.;.J O * +XrXrXeXuX9X,., d.|.w.r.t.p.t.t.t.t.t.t.t.r.e.e.e.r.+.+ 5 $.#.Q #.@.= . sXNXVXNXNXNXAXKXKXPXPXPXPXPXPXPXPXPXPXPXPXPXPXPXPXPXPXPXPXPXPXPXPXPXPXPXPXPXPXPXPXPXPXPXPXPXPXPXPXPXPXPXPXPXPXPXPXPXPXPXPXPXPXPXPXPX",
"PXPXPXPXPXPXPXPXPXPXPXPXPXPXPXPXPXPXPXPXPXPXPXPXPXPXPXPXPXPXPXPXPXPXPXPXPXPXPXPXPXPXPXPXPXPXPXPXPXPXPXPXPXPXPXPXPXPXPXPXPXJXsX% I 9XuXrXzX8.$ 6.|.p.t.i.s.s.s.s.p.p.t.p.p.p.p.p.u.r.6.3 * r T W ^ ~ 4   2 b b b M V V M M M z M m V c.N.B.V.G.G.G.G.B.V.Z.V.S.D.l O 5 5XrX>X[.p.p.p.8.o.o.o.#.o.o.T &   6 v v z V V V C [ Q.(.< O Q .XY.E.E.E.Q.Q.Q.E.E.W.Q.Q.Q.Q.).).).).Q.Q.W.Q.W.W.R.E.E.E.R.E.E.W.E.E.W.E.E.E.R.Y.Z.F [ A A.Y.R.E.R.R.R.E.).).L.Y.E.E.E.E.R.Y.Y.R.Y.I.Y.L.L.Y.Y.E.E.L.L.E.E.R.I.H.V.v.v.B.v.b.G.G.G.V.V.V.C.K.A.d <.$X&X%XQ.K.L.K.K.L.L.L.L.L.L.L.K.L.L.L.J.H.J.H.J.V.v.B.z.B.B.z.z.z.] p { H.K.J.H.G.H.H.H.B.l.v.c.c.v.v.l.l.l.l.l.l.k.D.A.i - - y c N N M C N Z c./ O * |.rXeXeX9X>Xq.E E E E E Q W @ o < v [ D.M.B.S.S.M.l.l.' ] V ) D.Z.C.N.B.c.l.l.l.l.l.l.;.R O * +XeXeXeXrX9X*., |.|.w.w.t.e.t.t.t.t.t.t.t.p.w.e.u.r.%.+ , *.#...#.@.= X sXNXMXNXBXNXDXKXKXPXPXPXPXPXPXPXPXPXPXPXPXPXPXPXPXPXPXPXPXPXPXPXPXPXPXPXPXPXPXPXPXPXPXPXPXPXPXPXPXPXPXPXPXPXPXPXPXPXPXPXPXPXPXPXPXPX",
"PXPXPXPXPXPXPXPXPXPXPXPXPXPXPXPXPXPXPXPXPXPXPXPXPXPXPXPXPXPXPXPXPXPXPXPXPXPXPXPXPXPXPXPXPXPXPXPXPXPXPXPXPXPXPXPXPXPXPXPXPXFXsX% I 9XzXrXzX8.$ 6.|.u.t.p.s.s.s.s.p.p.t.t.p.p.p.p.u.i.6.3 * r @.W ^ ~ 4 o - b b b M V V M M V V M m V c.S.S.G.G.V.G.G.Z.Z.Z.N.S.D.l O 5 5X9X>X[.p.p.p.8.$.o.o.#.o.o.T &   6 z z z V V V V [ Q.(.< O Q .XY.E.E.E.Q.Q.Q.E.E.Q.Q.Q.Q.Q.).).).).Q.W.W.W.W.E.E.E.E.W.E.R.E.E.E.E.W.E.E.E.E.R.Z.F [ A A.Y.R.R.R.R.R.E.).).).E.L.E.E.E.R.E.E.R.R.I.Y.L.L.Y.E.E.E.E.E.E.E.R.I.K.V.v.v.v.v.G.G.G.G.m.B.V.C.T.G.c ` XX&X%X).L.L.K.K.L.L.L.L.L.L.L.K.L.L.L.K.J.K.J.J.V.v.B.B.B.z.z.z.z.} p D J.J.J.H.H.H.H.G.B.c.z.c.c.z.v.l.l.l.l.l.v.k.v.J.C - - a c N C V V N Z c./ O : |.rXeXrX9X>Xq.E R E E E Q W @ o < b [ D.N.N.S.S.M.l.l.' ] V ) F.N.C.N.B.z.l.l.l.l.l.l.;.R O * +XeXrXeXrX9X*.> |.|.w.w.t.p.e.e.t.t.t.t.t.p.e.e.e.r.O.+ 5 #.o.o.#.@.* X sXNXNXNXBXNXDXKXPXKXPXPXPXPXPXPXPXPXPXPXPXPXPXPXPXPXPXPXPXPXPXPXPXPXPXPXPXPXPXPXPXPXPXPXPXPXPXPXPXPXPXPXPXPXPXPXPXPXPXPXPXPXPXPXPXPX",
"PXPXPXPXPXPXPXPXPXPXPXPXPXPXPXPXPXPXPXPXPXPXPXPXPXPXPXPXPXPXPXPXPXPXPXPXPXPXPXPXPXPXPXPXPXPXPXPXPXPXPXPXPXPXPXPXPXPXPXPXPXFXsX% I 9XxXrXzXr.$ 9.|.u.t.p.s.s.s.s.p.p.t.t.p.p.p.p.u.i.6.4 * r @.W ^ ~ 4 o - b b b M V V M V V V M m V c.S.S.G.V.V.B.G.Z.Z.Z.N.S.D.l O 5 5X9X>X[.e.p.p.8.#.o.o.#.o.#.T &   6 v z z V V V V [ Q.(.< O Q .XE.E.E.E.E.Q.Q.E.E.Q.Q.W.W.Q.).).).).E.E.E.E.E.E.E.E.E.E.E.R.E.E.R.E.W.E.E.R.R.R.Z.A [ A M.Y.Y.R.R.R.R.T.).).).E.Y.E.Y.R.Y.E.E.R.R.R.R.Y.Y.L.E.E.E.E.Y.E.E.R.I.K.G.v.B.B.v.G.G.G.G.G.v.V.C.K.J.V M .X&X&X.XK.L.K.K.L.L.L.L.L.L.L.K.L.L.L.K.J.J.J.J.V.v.z.v.B.z.z.z.z.c.k m H.J.H.H.K.K.G.G.B.z.z.c.c.c.v.c.l.l.c.c.c.l.c.J.[ < - y c N C V V N Z c./ O : |.rXeXrX9X>Xq.E R E E E Q W @ o < b [ D.S.N.N.S.M.l.l.[ ] V _ F.Z.N.N.B.z.l.l.l.l.l.l.;.R O * +XrXrXeXrX9X*.> |.|.w.e.t.p.e.t.t.t.t.t.t.p.e.e.e.r.O.+ 5 %.o.o.#.@.* X sXNXNXNXBXNXAXHXKXKXPXPXPXPXPXPXPXPXPXPXPXPXPXPXPXPXPXPXPXPXPXPXPXPXPXPXPXPXPXPXPXPXPXPXPXPXPXPXPXPXPXPXPXPXPXPXPXPXPXPXPXPXPXPXPXPX",
"PXPXPXPXPXPXPXPXPXPXPXPXPXPXPXPXPXPXPXPXPXPXPXPXPXPXPXPXPXPXPXPXPXPXPXPXPXPXPXPXPXPXPXPXPXPXPXPXPXPXPXPXPXPXPXPXPXPXPXPXPXJXsX% I 9XxXuXzXr.$ 9.|.u.t.p.s.s.s.s.p.p.p.p.p.p.p.t.e.i.6.4 * r T W ~ ~ 4 o - b b z M V V V M V V V m V c.M.B.V.V.B.B.G.G.Z.V.B.S.D.l O 5 5X9X>X].t.p.u.8.$.o.o.#.o.o.T &   6 v v z V V V V [ Q.U.< O Q .XY.E.E.Y.Q.Q.Q.E.W.W.W.W.W.Q.).).).).E.E.R.E.E.E.E.W.E.R.R.E.E.E.R.R.W.E.E.R.R.R.Z.A [ A M.Y.R.R.R.T.R.E.).).).E.E.L.R.E.E.E.E.R.R.R.R.E.Y.Y.Y.E.E.L.L.Y.L.Y.I.K.H.v.B.v.v.G.G.b.G.b.v.B.C.K.L.D k .X&X&X.XK.L.L.L.L.L.L.L.L.L.L.L.L.L.L.J.J.J.J.J.V.z.v.z.B.z.z.z.z.c.V m D.J.H.K.H.H.G.G.V.z.z.c.c.c.v.z.c.l.c.c.c.k.l.D.M.1 - 1 c N N V V N A c./ O : |.rXeXeX9X4Xq.E R R R E Q W @ o < b [ D.S.S.S.S.M.l.l.' ] / / F.D.N.N.N.c.l.l.l.l.l.l.;.J O * +XrXeXeXuX9X*., |.|.w.r.t.p.t.t.t.t.t.t.t.p.e.e.w.w.O.+ , *.o.o.#.~ * X sXMXNXNXBXNXAXKXKXPXPXPXPXPXPXPXPXPXPXPXPXPXPXPXPXPXPXPXPXPXPXPXPXPXPXPXPXPXPXPXPXPXPXPXPXPXPXPXPXPXPXPXPXPXPXPXPXPXPXPXPXPXPXPXPXPX",
"PXPXPXPXPXPXPXPXPXPXPXPXPXPXPXPXPXPXPXPXPXPXPXPXPXPXPXPXPXPXPXPXPXPXPXPXPXPXPXPXPXPXPXPXPXPXPXPXPXPXPXPXPXPXPXPXPXPXPXPXPXFXsX% K 9XxXuXzX9.$ 9.|.p.t.s.s.s.s.p.p.p.p.p.p.p.p.t.u.i.6.3 * Y T W ^ ~ : o - b b z M V M V M V V V M V c.M.B.G.V.V.B.G.Z.Z.V.B.N.A.l O 6 5X9X>X].t.u.p.8.$.o.#.#.o.o.T &   6 z v z z V V M [ Q.U.< O E .XY.E.E.Y.Q.Q.E.E.Q.W.E.W.Q.Q.Q.).).).E.E.E.E.E.E.E.W.R.R.R.E.R.E.E.E.E.E.E.E.R.R.H.F l.A c.Y.R.T.T.K.T.E.).).).E.E.L.Y.E.E.E.E.R.R.I.Y.Y.Y.L.L.L.E.L.Y.Y.L.Y.K.K.J.V.v.v.b.G.b.m.m.m.v.B.C.T.L.' p (.&X&X.XL.L.L.L.L.L.L.L.L.L.L.L.L.L.K.J.J.J.J.G.V.z.z.z.B.z.z.z.z.v.` p c.L.H.C.H.G.G.H.G.z.z.c.c.k.v.z.c.l.c.c.l.l.k.M.A.1 - y c N N V N N Z c./ O * |.rXeXeX9X4Xq.R E R R E Q W @ o < b ] A.G.S.B.B.B.l.k.[ ] / / F.Z.N.B.N.M.l.l.l.c.l.l.} J @ * +XeXeXeXuX9X$., |.|.w.w.t.e.t.t.t.t.t.t.t.r.e.e.w.r.O.+ 5 $.o.o.#.+., X sXmXNXNXNXNXAXKXKXKXPXPXPXPXPXPXPXPXPXPXPXPXPXPXPXPXPXPXPXPXPXPXPXPXPXPXPXPXPXPXPXPXPXPXPXPXPXPXPXPXPXPXPXPXPXPXPXPXPXPXPXPXPXPXPXPX",
"PXPXPXPXPXPXPXPXPXPXPXPXPXPXPXPXPXPXPXPXPXPXPXPXPXPXPXPXPXPXPXPXPXPXPXPXPXPXPXPXPXPXPXPXPXPXPXPXPXPXPXPXPXPXPXPXPXPXPXPXPXFXsX% K 8XxXuXzX8.$ 0.|.p.r.p.s.s.s.p.p.p.p.p.p.p.p.t.u.i.6.3 * Y @.W ^ ~ , o - b b z M M V M M V V V M V c.N.G.G.V.V.B.Z.Z.Z.V.B.N.A.h O 6 5XrX>X[.u.u.u.w.$.o.#.+.....Y $   6 z v b z V V V [ Q.(.< O E .XY.E.E.R.E.W.E.R.W.W.R.W.W.Q.E.).).).Q.E.E.E.E.R.R.E.R.E.R.R.R.R.E.W.E.E.E.E.R.R.G.F l.Z v.Y.Y.I.R.R.R.R.).).).E.E.L.L.E.E.E.E.R.I.I.Y.L.L.L.L.L.Y.Y.Y.L.L.R.I.K.K.G.v.V.V.G.G.v.v.b.B.V.C.K.K.c.p F.OX&X_.Y.L.K.J.J.L.L.L.L.L.K.J.L.L.K.K.J.J.J.H.V.v.z.z.z.z.z.z.z.c.[ p ' J.H.C.G.J.H.H.G.z.l.c.c.l.v.z.c.l.l.l.l.l.l.c.} 1 - 1 c N N V N N Z c./ O * {.rXeXeX9X>Xq.E E E E E Q W @ o < b ] A.S.S.N.S.S.l.l.[ [ / B F.Z.V.B.N.B.l.l.c.c.l.l.} J @ * +XeXrXeXuX9X*., |.|.w.w.t.e.t.t.t.t.t.t.w.e.e.e.w.r.%.+ 5 *.o.o.#.+.4 X sXmXNXNXNXNXAXHXPXPXPXPXPXPXPXPXPXPXPXPXPXPXPXPXPXPXPXPXPXPXPXPXPXPXPXPXPXPXPXPXPXPXPXPXPXPXPXPXPXPXPXPXPXPXPXPXPXPXPXPXPXPXPXPXPXPX",
"PXPXPXPXPXPXPXPXPXPXPXPXPXPXPXPXPXPXPXPXPXPXPXPXPXPXPXPXPXPXPXPXPXPXPXPXPXPXPXPXPXPXPXPXPXPXPXPXPXPXPXPXPXPXPXPXPXPXPXPXPXFXsX% K 8XxXuXzX0.$ 0.|.p.r.p.s.s.s.p.p.p.p.p.p.p.p.t.u.i.6.4 * Y @.W ^ ~ 4 o - b b z M V M M M V V V M V c.S.G.G.G.G.G.Z.Z.V.V.B.N.A.h O 6 5XrX>X[.u.u.p.w.$.o.#.#.Q ..T $   6 z z z z V V V l.Q.(.< O E .XY.E.E.Y.Q.Q.Q.W.Q.W.W.Q.Q.Q.E.).).).Q.E.R.E.E.E.R.E.E.R.R.R.W.E.E.E.E.E.E.R.R.R.G.F l.Z v.Y.E.R.R.R.R.T.Y.).).E.E.L.E.E.E.E.R.R.R.I.Y.Y.L.L.L.Y.Y.Y.E.L.L.Y.I.K.K.G.v.V.V.v.m.v.m.b.M.Z.C.K.K.N.B [ OX&XXXE.L.K.K.K.L.L.L.L.J.K.J.L.L.K.K.J.J.J.J.V.v.v.B.M.M.B.z.z.c.[ k ` J.H.K.H.G.G.G.G.z.l.c.c.l.l.z.c.c.l.l.l.l.v.} ` < - 1 c N N V N N Z c./ O * {.rXwXeX9X4Xq.E E E R E E W @ o < b ] A.S.S.S.N.M.l.l.[ { _ c A.N.V.B.N.B.l.l.l.l.l.l.[ J @ * +XeXrXeXuX9X*., |.|.w.w.t.e.e.t.t.w.w.w.e.e.e.e.e.r.%.+ 5 *.o.Q ..O., X sXmXNXNXNXNXAXHXPXPXPXPXPXPXPXPXPXPXPXPXPXPXPXPXPXPXPXPXPXPXPXPXPXPXPXPXPXPXPXPXPXPXPXPXPXPXPXPXPXPXPXPXPXPXPXPXPXPXPXPXPXPXPXPXPXPX",
"PXPXPXPXPXPXPXPXPXPXPXPXPXPXPXPXPXPXPXPXPXPXPXPXPXPXPXPXPXPXPXPXPXPXPXPXPXPXPXPXPXPXPXPXPXPXPXPXPXPXPXPXPXPXPXPXPXPXPXPXKXGXdXX I 9XxXuXzX8.$ 9.|.p.t.p.p.p.p.p.p.p.p.p.p.p.p.t.p.i.6.4 * Y ^ T +.~ 4   * J v z M V V V V V V V M C M.S.G.G.G.G.G.Z.V.S.V.V.V.D.h O 6 8XeX>X].u.u.p.w.$.#.o.#.o.o.Y &   5 v b V V V V M [ ).(.< o E .XI.Y.E.R.Q.Q.Q.Q.Q.Q.Q.Q.W.Q.E.E.Q.Q.).Q.R.E.Q.E.R.R.E.I.I.R.E.R.R.E.E.E.E.E.R.R.G.G l.C M.Y.R.R.R.I.R.R.L.L.).E.E.Y.Y.E.E.Y.Y.E.E.E.R.R.R.R.R.E.L.Y.R.L.Y.Y.Y.L.L.H.V.v.V.v.v.m.m.V.V.Z.C.C.K.G.C V XX&XOXR.K.H.K.L.H.L.L.L.L.L.L.L.L.L.G.Z.Z.G.G.N.z.v.v.B.M.B.v.v.c.} m C D.G.C.K.H.G.G.G.z.l.l.c.l.l.l.l.l.l.l.c.l.[ } _ < - y c N V N N N Z c./ O * {.rXwXeX9X4Xe.E E P E E Q W @   < v ] A.M.D.S.S.M.c.l.[ [ _ z F.D.B.B.B.z.c.c.c.l.[ l.} J + * +XeXeXeXuX9X*., |.|.w.w.t.e.w.t.p.e.w.r.t.r.r.t.w.r.O.+ 5 *.o.Q ..O., . sXBXMXMXNXBXAXHXPXKXKXKXPXPXPXPXPXPXPXPXPXPXPXPXPXPXPXPXPXPXPXPXPXPXPXPXPXPXPXPXPXPXPXPXPXPXPXPXPXPXPXPXPXPXPXPXPXPXPXPXPXPXPXPXPXPX",
"PXPXPXPXPXPXPXPXPXPXPXPXPXPXPXPXPXPXPXPXPXPXPXPXPXPXPXPXPXPXPXPXPXPXPXPXPXPXPXPXPXPXPXPXPXPXPXPXPXPXPXPXPXPXPXPXPXPXPXPXKXGXdXX I 9XxXuXzX8.$ 9.|.p.t.p.p.p.p.p.p.p.p.p.p.p.p.t.p.i.6.4 * Y ^ T +.~ 4   * J b V V V V V V V V V M C M.S.G.G.G.G.G.G.V.S.V.V.V.D.h O 6 3XeX>X{.'.'.p.r.$.#.o.#.o...T &   5 v v V V V V M [ Q.(.1 o E .XY.E.E.E.Q.Q.Q.Q.Q.Q.Q.Q.W.E.Q.).E.E.).).Q.Q.Q.E.R.R.E.R.R.E.E.E.E.E.R.R.R.I.R.R.G.G [ N M.Y.Y.R.I.I.Y.R.L.).).E.L.L.Y.E.E.Y.Y.E.E.E.R.R.R.Y.L.L.E.E.R.L.L.L.K.K.L.K.V.v.V.b.G.G.G.G.V.C.Z.C.K.H.{ k .X&XOXR.K.L.L.U.L.L.L.Y.L.L.L.L.J.H.G.K.K.K.G.N.z.v.v.B.M.B.v.v.c.c.V m D.G.K.K.H.G.G.G.z.l.l.l.l.l.l.l.l.l.l.c.c.[ } _ ; - y c N V M N N Z c./ O * {.rXwXeX9X4Xe.E E P R E Q W @   < b ] A.M.D.S.S.S.c.[ [ [ _ k A.D.B.B.B.z.[ c.c.l.[ l.} J + * +XeXeXeXuXgX*., |.|.w.w.t.e.e.t.e.e.e.t.r.r.r.t.w.r.O.+ 5 *.o.Q ..O.= . sXBXMXMXNXBXAXHXPXKXKXPXPXPXPXPXPXPXPXPXPXPXPXPXPXPXPXPXPXPXPXPXPXPXPXPXPXPXPXPXPXPXPXPXPXPXPXPXPXPXPXPXPXPXPXPXPXPXPXPXPXPXPXPXPXPX",
"PXPXPXPXPXPXPXPXPXPXPXPXPXPXPXPXPXPXPXPXPXPXPXPXPXPXPXPXPXPXPXPXPXPXPXPXPXPXPXPXPXPXPXPXPXPXPXPXPXPXPXPXPXPXPXPXPXPXPXPXKXGXdXX I 9XxXuXzX8.$ 9.|.p.t.p.p.p.p.p.p.p.p.p.p.p.p.t.p.i.6.4 * Y W T +.~ 4   * J b V M V V V V V V V M C M.S.G.G.G.G.G.G.G.S.Z.V.V.D.h O 6 5XrX>X{.p.'.p.w.$.#.o.#.o...T &   5 v v V M V S M [ ).(.1 o Q XXY.E.E.R.Q.Q.Q.Q.Q.Q.Q.Q.W.E.).).E.E.).).Q.Q.Q.E.R.R.E.E.R.E.E.E.E.E.R.R.R.I.R.R.H.G [ C c.Y.R.R.I.Y.Y.E.E.).).Y.Y.L.E.E.E.E.E.E.E.E.R.R.R.R.Y.L.Y.Y.R.R.Y.Y.L.L.L.L.G.v.V.G.G.G.m.V.V.H.Z.C.H.K.A.m (.OXOXE.K.L.L.Y.U.L.L.L.L.L.L.L.H.H.G.Z.K.K.G.Z.B.v.z.v.M.B.v.v.c.c.( p A.H.K.K.H.G.G.H.z.l.l.l.l.l.l.l.l.l.l.c.c.c.} _ ; - 1 k m N N N N Z c./ O * {.rXwXeX9X>Xq.E E E E E Q W @   < v ] A.B.B.N.S.S.c.[ [ [ _ k <.D.B.B.B.z.[ [ [ [ [ l.[ J + * +XeXeXeXuXgX*., |.|.w.w.t.e.t.t.e.e.e.e.r.r.r.t.w.r.O.+ 5 *.o.Q ..+., . sXBXMXMXBXBXCXHXKXKXPXPXPXPXPXPXPXPXPXPXPXPXPXPXPXPXPXPXPXPXPXPXPXPXPXPXPXPXPXPXPXPXPXPXPXPXPXPXPXPXPXPXPXPXPXPXPXPXPXPXPXPXPXPXPXPX",
"PXPXPXPXPXPXPXPXPXPXPXPXPXPXPXPXPXPXPXPXPXPXPXPXPXPXPXPXPXPXPXPXPXPXPXPXPXPXPXPXPXPXPXPXPXPXPXPXPXPXPXPXPXPXPXPXPXPXPXPXKXGXdX. I 9XxXuXzX8.$ 9.|.p.t.p.p.p.p.p.p.p.p.p.p.p.p.i.p.i.6.4 * Y W T +.~ 4   * J b V M M V V V V V V M C M.S.G.G.G.G.G.G.G.S.Z.V.V.D.h o 8 5XrX>X{.u.p.p.8.$.o.o.o.o...T &   5 z v b M V S S [ Q.(.< o E XXY.R.E.R.Q.Q.Q.Q.W.E.Q.Q.Q.Q.).).E.Q.).E.E.E.Q.E.E.R.E.E.R.R.R.R.R.E.R.E.E.I.R.R.H.G [ A c.Y.R.R.R.R.R.E.E.).).E.L.L.L.E.E.E.E.E.E.R.R.R.R.R.R.E.L.L.L.R.E.R.R.L.L.L.J.V.v.B.G.b.m.v.V.H.C.C.H.K.F.M A.OXOXW.H.L.U.U.U.L.K.H.L.L.J.L.J.H.G.Z.Z.K.G.Z.B.v.v.v.M.B.B.v.z.c.] p } H.H.K.H.G.G.G.B.l.l.l.l.l.l.l.l.l.l.c.c.c.} / ; - 1 k N N N N N Z c./ O & {.rXwXeX9X>Xe.E E E E E Q W @ o 6 v ] A.B.B.B.N.S.M.[ ' ' ` k <.D.M.B.B.z.[ [ [ [ l.l.[ J + * +XrXrXeXuXgX*., d.|.w.w.t.p.t.t.w.w.e.t.r.r.t.t.w.r.O.+ 5 #.o.Q W +., . sXmXMXMXNXBXCXHXPXPXPXPXPXPXPXPXPXPXPXPXPXPXPXPXPXPXPXPXPXPXPXPXPXPXPXPXPXPXPXPXPXPXPXPXPXPXPXPXPXPXPXPXPXPXPXPXPXPXPXPXPXPXPXPXPXPX",
"PXPXPXPXPXPXPXPXPXPXPXPXPXPXPXPXPXPXPXPXPXPXPXPXPXPXPXPXPXPXPXPXPXPXPXPXPXPXPXPXPXPXPXPXPXPXPXPXPXPXPXPXPXPXPXPXPXPXPXPXKXGXdX. K 9XxXuXzX9.$ 9.|.p.e.p.p.p.p.p.p.p.p.p.t.p.p.p.i.i.6., * Y W T +.~ ,   * J b z M M V V V V V V V C M.S.G.G.V.B.B.V.G.G.Z.V.V.A.h o 6 5XrX>X{.e.p.p.8.$.o.o.o.o...T &   5 v v b V V S V [ ).(.< O E XXY.Y.E.Y.E.Q.Q.W.E.E.W.W.Q.Q.Q.).E.E.Q.E.E.E.E.E.E.R.E.E.R.R.R.R.R.E.R.R.R.I.R.Y.K.G [ C [ Y.R.R.R.R.E.E.L.L.L.L.E.L.L.L.Y.E.E.E.E.R.R.R.I.I.Y.L.L.L.L.L.R.L.Y.Y.L.L.L.G.v.v.v.m.m.v.V.K.K.C.H.K.J.V ` OXOX!.H.L.U.U.L.K.H.H.L.L.H.H.H.H.G.Z.Z.K.H.Z.z.z.z.v.B.M.B.v.v.z.} k { J.C.H.Z.G.G.G.B.l.v.l.l.l.l.l.l.l.l.l.c.c.} _ ; - 1 k m N N M N Z c./ O & {.rXwXeX9X>Xq.E E E R E Q W @ o 6 v ] A.M.B.N.N.N.M.[ k.' ] z { D.M.B.B.z.[ [ } [ l.l.[ v O * #XrXeXeXrX8X*., d.|.w.w.t.p.t.t.w.w.w.e.t.r.r.e.w.r.O.+ 8 #.o.Q W +., . sXmXNXNXBXBXAXKXKXPXPXPXPXPXPXPXPXPXPXPXPXPXPXPXPXPXPXPXPXPXPXPXPXPXPXPXPXPXPXPXPXPXPXPXPXPXPXPXPXPXPXPXPXPXPXPXPXPXPXPXPXPXPXPXPXPX",
"PXPXPXPXPXPXPXPXPXPXPXPXPXPXPXPXPXPXPXPXPXPXPXPXPXPXPXPXPXPXPXPXPXPXPXPXPXPXPXPXPXPXPXPXPXPXPXPXPXPXPXPXPXPXPXPXPXPXPXPXKXGXdX. K 8XxXuXzX8.$ 9.|.p.e.p.p.p.p.p.p.p.p.p.t.p.p.p.i.i.6., * Y W T ^ ~ ,   * J b z M V V V V V V V M C M.S.G.G.G.V.B.V.G.S.Z.C.V.A.h o 6 5XrX>X{.u.p.i.8.$.o.o.#.o...T &   6 b v b V S S V [ ).(.< O E XXY.Y.E.R.R.R.W.W.E.E.E.W.W.Q.E.Q.E.E.Q.E.E.E.E.E.E.E.E.R.E.E.E.R.E.E.R.R.R.R.R.Y.K.G l.C [ Y.R.R.R.R.E.E.L.L.L.L.L.Y.L.Y.Y.Y.E.E.E.R.R.R.I.I.L.L.L.L.L.L.Y.K.L.R.Y.L.L.G.V.v.v.m.v.v.G.K.K.K.K.H.L.` V XXOX.XH.L.L.L.L.K.K.K.L.J.H.H.H.J.H.Z.Z.H.H.Z.z.z.v.B.M.M.z.v.z.v.} c ` J.C.H.H.G.H.G.B.l.z.z.l.l.l.l.l.l.l.l.k.c.} _ ; - 1 k m N M M N Z c./ O & {.rXeXeX9X>Xq.E E R R E Q ^ @ o 6 v ] A.M.B.S.N.N.M.[ k.' { c ] D.M.B.B.z.[ [ } [ l.l.} v O * #XrXrXeXrX8X*., d. Xe.w.t.e.t.t.w.w.w.t.t.r.r.e.e.8.O.+ 8 #.o.Q ..+., . sXmXNXNXBXNXAXKXKXPXPXPXPXPXPXPXPXPXPXPXPXPXPXPXPXPXPXPXPXPXPXPXPXPXPXPXPXPXPXPXPXPXPXPXPXPXPXPXPXPXPXPXPXPXPXPXPXPXPXPXPXPXPXPXPXPX",
"PXPXPXPXPXPXPXPXPXPXPXPXPXPXPXPXPXPXPXPXPXPXPXPXPXPXPXPXPXPXPXPXPXPXPXPXPXPXPXPXPXPXPXPXPXPXPXPXPXPXPXPXPXPXPXPXPXPXPXPXKXGXdX. K 4XzXuXzX0.$ a.+Xp.e.p.p.p.p.p.p.p.t.p.].p.t.s.p.i.6., * Y W T +.~ ,   * v b b M V V V V V V V V C M.N.G.V.G.V.G.Z.G.S.V.C.V.M.h O 5 5XeX>X{.'.p.s.w.$.o.o.#.o...T &   5 v z z V V S S [ Q.(.< o E .XY.Y.E.E.R.R.E.E.E.E.E.E.W.Q.).).E.E.Q.Q.E.E.E.E.E.W.E.R.R.E.E.R.R.R.R.R.W.E.E.R.K.G l.N [ Y.R.R.E.E.R.E.Y.).).E.L.L.L.L.L.Y.Y.Y.Y.R.Y.K.K.I.K.L.L.L.K.Y.R.K.L.E.Y.Y.L.H.G.b.G.G.b.V.G.H.C.K.K.H.L.c.M (.OX.XK.K.L.L.L.L.L.L.H.J.H.L.L.L.H.Z.Z.H.G.Z.z.v.v.B.M.z.z.z.z.v.} c / J.H.G.H.G.Z.H.N.l.z.v.z.k.l.l.l.l.l.c.k.c.} / ; - 1 k m V N M N Z x./ O & {.rXwXrX9X>Xq.E E R R E Q ^ @ o < v ] A.B.S.B.B.S.M.[ k.} { b _ D.M.B.z.v.c.' [ c.l.l.} J O * #XrXeXeXrX8X*., {.|.w.w.t.e.w.e.e.e.e.t.r.r.w.w.t.r.O.+ 8 #.o.Q +.O., . sXmXMXMXNXBXAXKXKXPXPXPXPXPXPXPXPXPXPXPXPXPXPXPXPXPXPXPXPXPXPXPXPXPXPXPXPXPXPXPXPXPXPXPXPXPXPXPXPXPXPXPXPXPXPXPXPXPXPXPXPXPXPXPXPXPX",
"PXPXPXPXPXPXPXPXPXPXPXPXPXPXPXPXPXPXPXPXPXPXPXPXPXPXPXPXPXPXPXPXPXPXPXPXPXPXPXPXPXPXPXPXPXPXPXPXPXPXPXPXPXKXPXPXPXPXPXKXKXGXdX. w 4XuXuXzX8.$ 0.|.'.e.p.s.s.s.p.t.p.p.i.i.i.i.^.p.i.6.4 : Y W T +.~ :   $ v b b M V V V V V V V C C B.N.B.V.G.G.G.V.G.S.B.C.Z.A.h O 5 5X9X>X{.'.p.p.w.#.#.^ #.o...T &   6 z z z z V V V [ Q.(.1 o Q .XY.Y.E.E.E.E.E.Q.I.Q.Y.E.E.E.Q.Q.E.E.E.Q.W.E.E.E.E.E.R.R.I.E.E.R.R.E.R.R.E.E.Y.Y.H.G l.A [ Y.Y.R.E.Y.R.Y.L.).E.E.E.R.L.L.Y.L.L.L.L.K.H.V.V.Z.K.K.K.K.Y.L.L.L.L.E.Y.L.L.K.G.B.B.V.V.Z.H.H.H.K.K.K.L.D.N A.OXXXK.J.L.K.K.L.L.K.H.H.J.L.L.L.H.G.H.H.Z.V.z.B.z.z.z.z.l.z.z.l.v.V c F.H.G.G.H.H.G.Z.l.c.v.l.k.l.l.c.v.l.l.l.l.} ) ; - y d m N N N N A x.J O & {.lXeXeX6X>Xe.E E R v E E W @   < v ] A.M.B.S.N.G.M.k.G k.[ / c F.B.M.M.c.} [ c.c.l.l.} J O * #XrXeXeXuX9X*., |.+Xr.w.w.r.r.e.e.e.e.t.t.t.r.e.e.r.O.+ 8 #.o.o.+.+.4 . sXmXVXMXNXNXAXKXKXKXPXPXPXPXPXPXPXPXPXPXPXPXPXPXPXPXPXPXPXPXPXPXPXPXPXPXPXPXPXPXPXPXPXPXPXPXPXPXPXPXPXPXPXPXPXPXPXPXPXPXPXPXPXPXPXPX",
"PXPXPXPXPXPXPXPXPXPXPXPXPXPXPXPXPXPXPXPXPXPXPXPXPXPXPXPXPXPXPXPXPXPXPXPXPXPXPXPXPXPXPXPXPXPXPXPXPXPXPXPXPXKXPXPXPXPXPXKXKXGXdX. w 3XxXuXzX8.@ 9.|.'.e.p.s.s.s.p.p.p.p.i.i.i.i.t.p.i.6.4 : Y T T T ~ :   $ J b z M V V V V V V V V D B.H.B.V.V.G.G.V.B.A.B.C.Z.A.h O 5 5XrX,X{.'.p.u.w.:.#.^ +.....U &   6 z z b z z V V [ Q.(.1 o E .XY.Y.E.E.E.E.E.Y.E.Y.E.E.E.R.R.E.E.E.E.E.E.E.E.E.E.E.E.E.R.E.E.R.R.E.R.R.I.R.R.Y.G.k.l.N [ Y.Y.R.E.I.Y.L.E.).L.R.L.Y.Y.Y.R.L.L.E.K.H.V.z.B.V.G.K.K.L.L.L.L.L.R.R.L.L.L.Y.K.G.V.V.G.H.K.K.H.K.K.K.L.J.C ] OXXXK.J.L.K.L.L.J.H.H.H.L.L.L.L.H.H.H.K.G.Z.z.z.z.c.z.z.c.z.z.c.v.C k F.G.G.H.G.G.G.Z.l.l.c.l.k.l.v.z.k.l.l.l.l.} ) ; - y k m N m N N A } J O & {.lXeX6X6X>Xq.E E E R E Q W @   < b ` A.M.B.S.N.N.M.l.' k.[ ) d /.B.M.M.c.} [ c.l.l.l.} J O * #XrXeXeXuX9X*.> |.+Xt.w.w.r.r.w.e.e.e.t.t.t.r.e.w.r.O.+ 8 #.o.Q ..+.4 . sXmXVXMXNXNXAXKXPXPXPXPXPXPXPXPXPXPXPXPXPXPXPXPXPXPXPXPXPXPXPXPXPXPXPXPXPXPXPXPXPXPXPXPXPXPXPXPXPXPXPXPXPXPXPXPXPXPXPXPXPXPXPXPXPXPX",
"PXPXPXPXPXPXPXPXPXPXPXPXPXPXPXPXPXPXPXPXPXPXPXPXPXPXPXPXPXPXPXPXPXPXPXPXPXPXPXPXPXPXPXPXPXPXPXPXPXPXPXPXPXKXPXPXPXPXPXKXKXGXdX. w 4XuXuXzX8.$ 9.|.'.e.p.s.s.s.p.'.p.p.p.p.p.i.t.p.i.6.4 : Y W W +.~ :   $ J b z M V V V V S V V M D D.H.B.V.V.G.G.V.V.A.B.C.Z.A.h O 5 5XrX,X{.'.u.p.w.:.#.^ +...X.U &   6 v v z z S V V [ Q.(.1 o E .XY.Y.E.R.R.E.K.Z.Y.Y.E.E.R.E.R.R.E.).E.E.E.E.E.E.E.E.R.R.I.E.E.E.R.R.R.R.R.R.Y.Y.K.k.l.N [ Y.Y.R.E.I.R.Y.E.).E.L.L.L.L.L.Y.L.L.L.G.V.B.v.V.V.V.K.K.L.L.L.L.L.R.L.L.L.K.U.L.J.H.H.J.K.K.H.H.K.K.K.L.J.} V .XXXR.J.L.K.J.J.J.J.H.H.J.L.L.L.H.G.G.H.G.Z.z.z.z.z.z.z.z.z.l.z.n.( d D.H.H.G.G.G.G.G.z.l.c.c.l.l.c.v.x.l.l.l.l.} ) ; - y c m N m N N A x.J O & {.lXeX6X9X>Xe.E E R R E Q W +   < v ] A.B.B.S.N.M.M.l.' k.[ ` i F.D.N.M.c.c.} c.l.[ l.} J O * #XrXeXeXuX9X*., |.+Xr.w.w.r.r.w.e.e.e.t.t.r.e.e.w.r.O.+ 5 #.o.Q ..+.4 . sXmXNXMXNXNXAXHXPXPXPXPXPXPXPXPXPXPXPXPXPXPXPXPXPXPXPXPXPXPXPXPXPXPXPXPXPXPXPXPXPXPXPXPXPXPXPXPXPXPXPXPXPXPXPXPXPXPXPXPXPXPXPXPXPXPX",
"PXPXPXPXPXPXPXPXPXPXPXPXPXPXPXPXPXPXPXPXPXPXPXPXPXPXPXPXPXPXPXPXPXPXPXPXPXPXPXPXPXPXPXPXPXPXPXPXPXPXKXPXPXPXPXPXPXPXPXPXKXGXdX. I 4XuXuXzX8.: 9.|.'.t.p.s.s.s.p.'.'.p.p.p.i.i.t.p.i.6.4 : Y ^ +.+.~ :   : J b b M V V V V V V V M C D.H.B.V.V.G.V.V.V.S.N.C.Z.A.h O 5 5XrX>X{.^.u.p.w.:.#.#.#.Q ..T &   6 v b b z z V V [ Q.(.1 o Q XXU.Y.E.R.R.E.K.N.Y.E.E.R.R.W.E.E.E.).Q.E.E.E.E.E.E.E.E.E.R.E.E.E.R.R.R.R.E.R.Y.Y.K.G l.N [ Y.Y.R.R.I.R.Y.Y.).L.Y.L.Y.R.K.L.L.L.J.V.v.v.v.v.V.v.G.L.L.L.L.L.L.Y.Y.Y.L.K.K.L.L.K.K.K.K.K.K.K.K.K.Z.K.H.M.m P.XXE.J.L.J.J.J.J.J.H.H.L.L.J.J.H.H.H.H.G.Z.v.z.z.z.z.v.z.z.l.z.n.] k } Y.H.H.G.H.G.G.l.l.l.c.l.l.l.c.v.c.l.l.k.} / ; - 1 c m N m N N A [ J O & {.lXeXwX6X>Xe.E R R R E Q W @   < v ] A.M.M.B.M.M.M.l.' k.l.{ i <.D.B.M.c.c.} c.l.[ l.} J O * @XeXeXeXuX9X*.> d.+Xt.w.w.r.r.e.e.e.e.t.t.t.r.e.w.r.O.# 5 $.#.Q ..+.4 X sXmXNXNXMXNXAXKXPXPXPXPXPXPXPXPXPXPXPXPXPXPXPXPXPXPXPXPXPXPXPXPXPXPXPXPXPXPXPXPXPXPXPXPXPXPXPXPXPXPXPXPXPXPXPXPXPXPXPXPXPXPXPXPXPXPX",
"PXPXPXPXPXPXPXPXPXPXPXPXPXPXPXPXPXPXPXPXPXPXPXPXPXPXPXPXPXPXPXPXPXPXPXPXPXPXPXPXPXPXPXPXPXPXPXPXPXPXPXPXPXPXPXPXPXPXPXPXKXGXdX% w 3XxXuXzX8.$ 9.|.'.t.p.s.p.p.p.p.p.p.p.p.i.p.t.p.i.6.4 : Y ^ +.+.~ :   : J b z M V V V V V V V M C D.H.V.V.V.V.B.V.V.S.N.C.Z.A.h O 5 5XrX,X{.e.e.p.w.:.#.#.#.o...T &   6 v b b z z V V [ Q.(.1 o Q XXU.Y.E.T.R.E.U.M.Y.).E.R.R.R.E.E.E.).Q.E.R.E.E.E.E.R.E.E.E.R.E.E.E.E.R.R.R.R.R.Y.K.j.l.N [ Y.R.R.I.I.R.Y.L.).L.Y.Y.Y.R.L.L.K.J.G.v.v.v.v.v.V.v.G.L.Y.L.L.L.L.Y.Y.Y.L.K.K.K.K.K.K.K.J.K.K.K.Z.K.C.H.K.D.C } XXY.J.K.J.J.J.J.J.H.J.L.H.H.J.H.H.H.H.G.G.v.v.v.z.z.z.z.z.z.z.v.} k ] Y.H.H.H.G.Z.G.z.l.l.z.c.l.l.c.c.l.l.l.k.} / ; - 1 c m V M V N A [ J O & {.lXeXeX6X>Xe.R R R R E E W @   < v ` A.B.B.B.B.M.M.l.' k.k.{ k _ F.Z.M.c.c.} c.l.[ l.} J O * +XeXrXeXuX9X*.> d.+Xt.w.w.r.r.t.e.e.e.t.t.t.r.e.w.8.O.# 8 #.#.Q ..+.4 X sXmXNXNXMXBXAXKXPXPXPXPXPXPXPXPXPXPXPXPXPXPXPXPXPXPXPXPXPXPXPXPXPXPXPXPXPXPXPXPXPXPXPXPXPXPXPXPXPXPXPXPXPXPXPXPXPXPXPXPXPXPXPXPXPXPX",
"PXPXPXPXPXPXPXPXPXPXPXPXPXPXPXPXPXPXPXPXPXPXPXPXPXPXPXPXPXPXPXPXPXPXPXPXPXPXPXPXPXPXPXPXPXPXPXPXPXPXPXPXPXPXPXPXPXPXPXPXHXGXdX. w 3XxXuXzX8.$ 9.|.[.t.t.p.p.s.p.p.p.p.p.p.i.p.t.p.i.6.4 : Y ^ +.+.~ :   : J b z M M M V V V V V M C D.I.Z.V.b.b.V.V.G.S.B.V.V.M.h O 5 5XrX>X{.e.e.p.7.#.#.#.+.o...T &   6 b b b z z V V [ Q.Y.1 o Q XXU.Y.E.R.R.R.Y.M.J.).E.R.R.R.R.E.E.E.Q.E.E.E.E.E.E.E.E.E.E.E.E.E.E.E.W.R.R.I.R.Y.K.l.l.N [ Y.Y.R.I.I.Y.R.L.).L.R.R.Y.R.L.L.K.H.V.v.v.m.m.v.v.v.G.L.L.L.L.L.L.L.Y.Y.L.K.K.K.I.K.K.K.K.K.K.H.K.I.C.K.L.J.[ C .X).J.J.J.L.L.J.J.H.J.L.H.H.H.H.G.G.G.G.Z.v.z.v.z.z.v.v.z.B.z.v.} k S U.G.G.G.G.Z.G.z.l.l.c.c.l.l.c.k.l.l.l.k.} / ; - 1 c m M M V N A [ v o & {.lXeXwX6X>Xe.R R R R E Q W @   < z ` A.M.M.M.M.M.B.c.' k.k.[ V B P.D.M.[ } } } [ l.l.} J O * +XrXeXeXuX9X*.: d.+Xt.e.w.r.r.w.e.e.w.r.r.r.r.e.w.8.O.# 5 #.o.Q ..+.4 X ;XmXNXNXNXBXAXKXKXPXPXPXPXPXPXPXPXPXPXPXPXPXPXPXPXPXPXPXPXPXPXPXPXPXPXPXPXPXPXPXPXPXPXPXPXPXPXPXPXPXPXPXPXPXPXPXPXPXPXPXPXPXPXPXPXPX",
"PXPXPXPXPXPXPXPXPXPXPXPXPXPXPXPXPXPXPXPXPXPXPXPXPXPXPXPXPXPXPXPXPXPXPXPXPXPXPXPXPXPXPXPXPXPXPXPXPXPXPXPXPXPXPXPXPXPXPXPXHXGXdX% w 3XxXuXzX8.@ 9.|.[.t.t.t.t.t.p.t.p.p.p.p.p.i.t.p.u.6.4 : Y ^ +.+.~ :   : J b z M M V V V V V V V C D.Y.Z.Z.V.V.Z.Z.G.S.B.V.V.M.h O 5 5X9X>X{.'.p.t.7.#.#.#.+.o...T &   6 b b b z z V V [ Q.U.1 o Q XXU.Y.R.T.R.R.Y.M.H.).E.R.R.R.E.E.E.E.Q.E.E.E.R.R.E.W.E.E.E.E.E.E.E.E.W.R.R.R.R.Y.K.l.l.N [ U.Y.T.I.I.Y.R.L.Y.L.E.E.Y.R.K.L.K.Z.v.v.b.b.b.v.v.b.G.L.L.L.L.K.L.Y.Y.Y.Y.K.K.K.I.I.K.K.K.K.H.H.K.I.C.K.K.J.} m (.).K.J.K.L.L.L.J.L.L.L.L.L.L.H.G.G.G.G.Z.v.v.v.v.z.z.v.v.z.v.m.} k M (.H.H.H.G.G.G.B.c.l.l.l.l.l.c.k.l.l.k.l.} V ; - 1 c m M M V N A [ v o & {.rXeXwX6X>Xe.R R R R E Q W @   < z ` A.B.M.M.B.B.M.c.' ' k.' V d /.D.M.c.} [ [ [ l.l.} J O * +XrXrXeXuX9X*.> d.+Xe.w.w.r.r.w.w.e.w.r.r.r.r.e.w.8.O.# 5 #.o.o...+.4 X sXmXVXNXMXBXAXHXKXKXPXPXPXPXPXPXPXPXPXPXPXPXPXPXPXPXPXPXPXPXPXPXPXPXPXPXPXPXPXPXPXPXPXPXPXPXPXPXPXPXPXPXPXPXPXPXPXPXPXPXPXPXPXPXPXPX",
"PXPXPXPXPXPXPXPXPXPXPXPXPXPXPXPXPXPXPXPXPXPXPXPXPXPXPXPXPXPXPXPXPXPXPXPXPXPXPXPXPXPXPXPXPXPXPXPXPXPXPXPXPXPXPXPXPXPXPXPXKXFXsXX H 4XxXuXzX6.+ a. X{.e.i.p.t.t.t.r.p.p.p.p.p.p.t.e.e.6.4 * Y ~ T ..~ 3 o : J b b V M V / C V M M M C H.Y.H.N.Z.G.V.Z.S.A.B.V.V.A.h o 5 5X9X>X{.'.'.].w.:.Q o.+.o.o.T $   6 z v z z z S S [ W.(.< o E .XY.Y.R.K.I.I.Y.M.D..XR.R.W.E.E.E.E.E.E.E.R.Y.E.E.E.E.R.R.R.R.W.E.E.E.E.E.E.E.R.R.K.k.c.C c.Y.T.T.I.L.Y.E.E.E.E.E.E.L.K.K.L.L.G.V.v.m.m.b.v.v.v.V.J.Y.L.L.L.Y.L.L.L.L.U.U.Y.K.K.K.T.K.K.K.K.K.K.H.C.K.L.D.n A.(.L.H.L.L.L.L.L.L.L.J.J.L.L.H.H.J.H.H.Z.v.z.z.z.v.v.v.z.v.z.l.[ B m (.H.G.H.G.G.G.z.l.l.c.c.c.c.c.k.l.l.k.l.{ / ; - 1 j m M M N N Z ' J o * {.rXwX6X9X>X4.R R E R E Q T +   < z ` A.M.M.B.B.B.M.c.' ' ' ' ` p /.D.A.[ k.l.l.[ [ l.} J o * #XeXeXeXrX9X*.> d.|.w.w.w.r.r.r.r.e.r.r.r.r.r.e.w.8.O.+ 8 #.o.Q W +.4 . sXmXVXVXNXNXAXHXKXKXPXPXPXPXPXPXPXPXPXPXPXPXPXPXPXPXPXPXPXPXPXPXPXPXPXPXPXPXPXPXPXPXPXPXPXPXPXPXPXPXPXPXPXPXPXPXPXPXPXPXPXPXPXPXPXPX",
"PXPXPXPXPXPXPXPXPXPXPXPXPXPXPXPXPXPXPXPXPXPXPXPXPXPXPXPXPXPXPXPXPXPXPXPXPXPXPXPXPXPXPXPXPXPXPXPXPXPXPXPXPXPXPXPXPXPXPXPXKXFXsXX H 4XxXuXzX8.+ a. X{.r.i.p.p.t.t.r.p.p.p.p.p.p.t.e.e.6.4 * Y ^ T ..~ 3 o : J b b V M V / C V M M M C H.Y.H.Z.Z.V.V.B.S.A.V.V.V.A.h o 6 5X9X>X{.^.'.^.q.:.#.#.+.o.o.Y $   8 z v z z z S V [ Q.U.< o E .XY.R.E.R.Y.Y.Y.D.[ XXQ.R.E.E.E.E.E.R.E.E.R.I.E.E.E.E.R.E.R.R.E.E.E.E.E.E.E.R.R.Y.K.k.l.C c.Y.T.T.L.K.Y.R.E.E.E.E.Y.L.Y.L.L.J.v.v.v.m.m.b.m.v.v.B.J.Y.L.L.L.Y.L.L.L.L.U.U.L.K.J.K.K.L.L.L.L.K.K.K.Z.H.L.J.C ` (.U.H.J.L.L.L.L.L.L.L.J.J.J.L.H.J.H.H.Z.v.z.z.v.z.v.v.z.v.v.l.[ C p P.L.G.H.H.H.G.B.l.l.c.c.c.c.c.k.l.l.k.l.{ / ; - 1 k m N M N N A ' J o * {.rXwX6X9X>X4.E R P R E Q ~ + o < z ` A.M.M.M.B.B.M.M.[ ' ' ' ' p <.D.D.l.l.l.l.c.[ l.} J o * #XrXeXeXrX9X*.: d.+Xw.w.w.r.r.r.r.r.t.t.t.r.r.e.w.8.O.+ 8 #.o.Q ..+.4 . ;XmXVXVXNXNXAXHXKXKXPXPXPXPXPXPXPXPXPXPXPXPXPXPXPXPXPXPXPXPXPXPXPXPXPXPXPXPXPXPXPXPXPXPXPXPXPXPXPXPXPXPXPXPXPXPXPXPXPXPXPXPXPXPXPXPX",
"PXPXPXPXPXPXPXPXPXPXPXPXPXPXPXPXPXPXPXPXPXPXPXPXPXPXPXPXPXPXPXPXPXPXPXPXPXPXPXPXPXPXPXPXPXPXPXPXPXPXPXPXPXPXPXPXPXPXPXPXKXFXsXX w 4XxXuXzX8.+ a. X|.r.i.i.p.t.t.r.p.p.p.p.p.p.t.e.e.6.4 * Y ^ W ..~ 3 o : J b b V M V / C V M M M C H.Y.I.Z.Z.V.V.B.N.A.V.Z.Z.A.h o 6 5X9X>X{.t.t.t.q.:.#.:.#.o.o.T &   8 z v z z S S V G E.U.< o E .XI.R.Q.R.R.Y.Y.U.F .X_.R.I.E.E.E.E.R.E.E.W.R.R.R.R.E.E.E.R.I.R.E.E.E.E.E.E.R.Y.I.K.k.l.C } Y.R.T.L.K.Y.R.E.E.E.E.L.I.R.Y.L.G.v.b.v.m.b.b.v.v.b.v.J.Y.L.L.L.E.L.L.L.L.U.U.L.L.L.K.J.L.L.L.L.L.L.K.K.H.L.J.' m P.L.J.H.L.L.L.L.L.J.L.L.J.L.L.J.K.H.G.Z.v.z.z.v.v.z.z.z.v.z.l.l.( p F.Y.G.G.G.G.G.B.l.l.c.c.c.c.v.k.l.l.l.l.{ / ; - 1 j m M M N N A ' J o * {.rXwX6X9X>Xq.R R R R E Q ^ + o 6 b ` A.B.B.B.B.B.B.M.[ [ ' ' ' p ` F.D.l.l.' [ [ [ l.} J o * #XrXeXeXrX8X*.: d.+Xe.w.w.r.r.r.r.e.e.e.e.r.r.e.w.8.O.+ 8 #.o.Q W +.4 X sXmXNXNXNXNXAXHXKXKXPXPXPXPXPXPXPXPXPXPXPXPXPXPXPXPXPXPXPXPXPXPXPXPXPXPXPXPXPXPXPXPXPXPXPXPXPXPXPXPXPXPXPXPXPXPXPXPXPXPXPXPXPXPXPXPX",
"PXPXPXPXPXPXPXPXPXPXPXPXPXPXPXPXPXPXPXPXPXPXPXPXPXPXPXPXPXPXPXPXPXPXPXPXPXPXPXPXPXPXPXPXPXPXPXPXPXPXPXPXPXPXPXPXPXPXPXPXKXFXsXX H 4XxXuXzX8.+ a. X{.i.t.p.p.p.t.p.p.p.p.p.p.p.t.e.e.6.4 * Y ^ W ..~ 3 o : J b b M M V V C V V M M C D.Y.Y.Z.B.G.V.B.B.S.G.V.V.A.h o 6 5X9X>X[.p.t.t.q.:.#.#.#.o.o.P &   8 z z z z S V V G W.U.< o E .XI.R.R.R.R.Y.Y.(.F U.XXR.I.Y.R.E.E.R.R.E.E.R.R.R.E.E.R.I.I.I.R.E.R.R.E.R.R.R.R.Y.K.k.c.C [ Y.T.T.I.R.Y.L.L.L.E.L.K.I.K.L.J.V.b.V.b.b.b.m.m.b.v.V.J.L.L.L.L.Y.L.L.L.L.L.L.L.L.J.K.K.L.L.L.J.K.L.J.K.H.J.L.A.k A.Y.J.H.J.J.J.H.J.J.J.L.J.J.L.L.J.H.G.V.v.v.z.v.v.c.c.c.v.l.z.c.` p ;.).G.G.G.G.G.B.l.l.c.c.c.c.v.z.l.l.k.l.} ) ; - y k m N M V N A ' J o * |.eXwXeX9X>Xe.E R R R E Q ^ + o 6 z D A.M.B.B.V.S.B.M.[ ' ' ' ' V m F.D.c.[ l.[ [ [ l.} J o * +XrXeXuXrX8X*.> d.+Xr.w.w.r.e.e.e.e.e.e.e.r.r.e.w.8.O.+ 8 #.#.o.W +.4 . ;XmXNXNXMXNXAXHXKXKXKXPXPXPXPXPXPXPXPXPXPXPXPXPXPXPXPXPXPXPXPXPXPXPXPXPXPXPXPXPXPXPXPXPXPXPXPXPXPXPXPXPXPXPXPXPXPXPXPXPXPXPXPXPXPXPX",
"PXPXPXPXPXPXPXPXPXPXPXPXPXPXPXPXPXPXPXPXPXPXPXPXPXPXPXPXPXPXPXPXPXPXPXPXPXPXPXPXPXPXPXPXPXPXPXPXPXPXPXPXPXPXPXPXPXPXPXPXKXFXsXX H 4XxXuXzX8.+ a. X{.i.i.p.p.p.t.t.p.i.i.i.i.i.t.t.t.6.4 * Y ^ ....~ 3 o : J b b M M M V V V V M M C D.Y.Y.H.B.Z.V.V.B.S.G.V.V.A.h o 6 5X9X>X[.t.t.t.q.$.#.o.#.o.o.T $   5 z v z z S V M G W.U.< o E .XI.Y.R.R.Y.Y.Y.(.} D.XXE.I.E.R.E.R.R.E.E.E.R.R.E.E.E.I.Y.Y.Y.R.R.R.R.E.R.I.I.R.Y.K.l.c.Z [ Y.T.T.K.R.Y.L.L.L.L.L.L.I.K.K.J.V.B.V.V.b.b.b.m.b.v.G.L.L.L.L.L.L.Y.L.L.L.L.L.L.L.L.L.L.L.L.L.L.L.L.J.H.J.K.K.H.m ` Y.L.H.L.J.J.J.J.J.J.H.J.J.L.L.J.H.G.V.v.z.z.v.z.c.c.c.c.l.z.c.` d } ).H.H.H.G.G.Z.l.l.c.c.c.c.c.v.l.l.l.l.} / ; - y k N N N V N A ' b o & {.eXeXrX9X>Xe.E R R R E Q T + o 6 z D A.M.B.B.V.V.B.M.c.' ' ' } ( p F.D.c.' l.[ [ [ l.} J o * #XrXeXuXuX8X*.> d.+Xr.q.w.r.e.e.t.t.t.t.t.r.r.e.w.8.O.+ 8 #.#.o.#.+.4 . ;XmXNXNXBXNXAXHXKXKXPXPXPXPXPXPXPXPXPXPXPXPXPXPXPXPXPXPXPXPXPXPXPXPXPXPXPXPXPXPXPXPXPXPXPXPXPXPXPXPXPXPXPXPXPXPXPXPXPXPXPXPXPXPXPXPX",
"PXPXPXPXPXPXPXPXPXPXPXPXPXPXPXPXPXPXPXPXPXPXPXPXPXPXPXPXPXPXPXPXPXPXPXPXPXPXPXPXPXPXPXPXPXPXPXPXPXPXPXPXPXPXPXPXPXPXPXPXKXFXsXX H 4XxXuXzX8.+ a. X{.p.p.i.p.p.t.t.t.p.p.p.p.p.t.e.e.6.4 * Y ^ W ..T 3 o : J b b V V V V C V V V M C H.I.Y.H.B.V.V.V.B.A.V.b.Z.A.h o 6 5X9X>X[.e.t.t.q.$.#.o.+...o.Y $   5 z v b z S V M [ W.U.< o E .XY.Y.R.K.I.Y.E.(.M.] XXQ.I.E.E.E.R.E.E.E.E.E.E.E.E.E.Q.Q.Q.Q.E.R.R.Y.R.R.R.I.Y.Y.K.l.c.A } Y.T.T.K.R.Y.L.L.L.L.E.R.I.K.K.J.B.B.V.V.b.b.b.m.b.v.G.L.L.L.L.L.L.Y.Y.E.Y.L.L.L.L.L.L.L.L.L.L.L.L.L.L.K.K.K.K.J.C m J.L.J.L.K.K.L.H.H.H.H.H.J.L.L.G.G.Z.V.z.z.z.v.z.c.c.c.c.l.z.c.' p ] _.H.H.H.H.G.G.l.l.l.c.x.c.c.v.l.l.l.c.} / ; - y k N N M V N Z ' b o & {.rXeXrX9X>Xe.E R R R E Q T + o 6 z ` A.M.B.V.V.V.B.B.c.[ ' ' ' ` p D.D.c.[ l.[ [ [ l.} J o * #XrXeXuXuX8X*.> d.+Xr.w.w.r.r.e.t.t.t.t.t.r.r.e.w.8.O.+ 8 #.#.o.#.+.4 . ;XmXNXNXBXBXAXHXKXPXPXPXPXPXPXPXPXPXPXPXPXPXPXPXPXPXPXPXPXPXPXPXPXPXPXPXPXPXPXPXPXPXPXPXPXPXPXPXPXPXPXPXPXPXPXPXPXPXPXPXPXPXPXPXPXPX",
"PXPXPXPXPXPXPXPXPXPXPXPXPXPXPXPXPXPXPXPXPXPXPXPXPXPXPXPXPXPXPXPXPXPXPXPXPXPXPXPXPXPXPXPXPXPXPXPXPXPXPXPXPXPXPXPXPXPXPXPXKXFXsXX H 3XxXuXzX8.+ a. X|.p.p.i.p.i.t.t.t.p.p.p.p.p.r.e.t.6.4 * Y ^ W ..T 4 o : J b b V V V V V V V V M C D.I.Y.K.V.V.V.Z.B.S.V.b.Z.A.h o 6 5X9X,X[.e.t.t.8.$.#.W +.....T $   6 z v z z S V V [ Q.U.< o E .XY.Y.R.I.I.Y.R.).U.N .X).Y.E.W.E.R.E.E.W.W.E.E.Q.E.E.E.E.Q.E.E.R.Y.Y.R.R.R.I.Y.Y.K.l.c.A c.Y.T.T.K.R.Y.E.E.E.Y.R.R.I.I.K.G.v.B.B.m.b.b.b.b.v.v.G.L.L.L.L.L.L.Y.E.E.E.L.L.L.L.L.L.L.L.L.L.L.L.L.L.K.K.K.K.J.} p D.J.L.L.L.L.L.J.H.H.H.H.H.J.L.H.G.G.V.z.z.z.z.z.z.c.c.c.l.z.c.} p _ .XH.H.H.H.G.G.z.l.l.x.x.c.v.v.c.l.l.c.} / ; - y k N N M N N Z ' J o & {.rXeXeX9X>Xe.E R R R E Q T + o 6 b ` A.M.B.B.V.V.G.B.v.k.' [ ' ] p ;.D.c.' l.[ [ ' k.} v o @ +XrXeXuXuX9X*.> f.+Xw.w.w.r.r.e.t.t.t.t.t.r.r.t.w.8.O.+ 8 %.#.o.#.+.4 . ;XmXNXNXBXBXAXHXHXPXPXPXPXPXPXPXPXPXPXPXPXPXPXPXPXPXPXPXPXPXPXPXPXPXPXPXPXPXPXPXPXPXPXPXPXPXPXPXPXPXPXPXPXPXPXPXPXPXPXPXPXPXPXPXPXPX",
"PXPXPXPXPXPXPXPXPXPXPXPXPXPXPXPXPXPXPXPXPXPXPXPXPXPXPXPXPXPXPXPXPXPXPXPXPXPXPXPXPXPXPXPXPXPXPXPXPXPXPXPXPXPXPXPXPXPXPXPXKXFXsXX H 3XxXuXzX8.@ 0.|.|.p.t.p.t.p.p.i.t.t.t.t.p.p.r.e.i.6.= * T W W ^ ~ , o : R b b V C C B V / / V M C S.I.Y.I.V.V.V.N.N.G.V.B.N.M.h o 8 5XrX4X{.t.t.i.q.#.o...^ Q ..T &   5 v v z z S S V [ Q.(.< o E .XY.R.R.E.R.R.R.E.Y.C (..XE.R.R.R.R.E.W.W.E.E.E.E.E.).).).).E.E.Y.R.Y.R.R.I.R.Y.R.H.l.l.A c.Y.R.T.Y.R.L.L.E.E.Y.R.I.K.I.K.Z.z.B.B.m.m.m.b.B.v.v.G.L.L.L.L.L.L.L.L.L.L.Y.L.L.L.L.L.L.L.L.L.L.L.L.L.K.K.K.K.H.F.m ] J.K.K.K.K.L.J.H.J.J.J.H.H.H.H.J.H.S.c.v.v.c.v.v.c.v.z.z.z.v.k.p / .XL.H.H.G.N.N.v.l.l.c.c.c.c.c.c.l.l.c.c./ ; - y k N N M N N A ' J o & {.rXeXwX9X3Xe.R R R R W W T + o 6 b ` A.A.S.S.B.S.G.G.v.k.k.k.[ ' p ` D.M.[ [ [ [ ' [ [ v O * +XrXeXuXuX8X*., f.+Xw.w.w.r.r.r.t.t.t.t.t.r.r.t.w.8.O.+ 8 *.o.o.#.+.4 . sXmXNXNXBXBXAXHXHXKXPXPXPXPXPXPXPXPXPXPXPXPXPXPXPXPXPXPXPXPXPXPXPXPXPXPXPXPXPXPXPXPXPXPXPXPXPXPXPXPXPXPXPXPXPXPXPXPXPXPXPXPXPXPXPXPX",
"PXPXPXPXPXPXPXPXPXPXPXPXPXPXPXPXPXPXPXPXPXPXPXPXPXPXPXPXPXPXPXPXPXPXPXPXPXPXPXPXPXPXPXPXPXPXPXPXPXPXPXPXPXPXPXPXPXPXPXPXKXFXsXX w 8XxXuXzX8.@ 0.|.{.p.t.p.p.p.i.p.t.t.p.t.t.p.r.e.r.6.= * Y T T ^ ~ , o : J b z V M C V V V V V V C D.I.I.I.C.V.Z.N.N.G.V.N.N.M.h o 8 5XrX,X{.p.p.p.q.#.o.W #.o...T &   6 v v z V S V M [ Q.(.1 o E .XR.R.R.E.E.E.R.E.Y.A D.XXY.R.E.E.E.E.W.W.E.E.E.E.E.).).).).E.R.Y.R.R.R.R.I.R.Y.R.K.l.c.A l.Y.R.T.Y.R.L.Y.Y.Y.R.Y.Y.L.L.H.V.z.z.v.b.b.b.m.v.v.v.H.L.L.L.L.L.L.Y.L.L.L.Y.L.L.L.L.L.L.L.L.L.L.L.J.L.K.K.K.K.H.J.m M D.K.K.K.K.K.H.H.H.H.H.H.H.H.H.H.H.B.c.z.v.v.v.v.v.c.c.z.v.v.c.m V ).U.H.H.G.N.N.B.l.l.c.c.c.c.x.c.v.k.c.c./ ; - u k N N m V N Z ' J o & |.rXeXeX9X>Xe.R R R R W W T + o < b _ A.M.A.S.S.G.G.G.v.k.' ' ' ] m C F.M.[ [ l.[ [ l.} J O * +XrXeXuXuX8X*.> d.|.w.w.w.r.w.r.t.t.t.t.t.r.r.t.w.8.O.+ 8 #.o.o.+.+.4 . sXmXNXNXNXBXAXHXKXPXPXPXPXPXPXPXPXPXPXPXPXPXPXPXPXPXPXPXPXPXPXPXPXPXPXPXPXPXPXPXPXPXPXPXPXPXPXPXPXPXPXPXPXPXPXPXPXPXPXPXPXPXPXPXPXPX",
"PXPXPXPXPXPXPXPXPXPXPXPXPXPXPXPXPXPXPXPXPXPXPXPXPXPXPXPXPXPXPXPXPXPXPXPXPXPXPXPXPXPXPXPXPXPXPXPXPXPXPXPXPXPXPXPXPXPXPXPXKXFXsXX w 8XxXuXzX0.@ 0.|.{.t.t.p.p.i.p.t.t.t.t.t.t.p.r.e.r.6.= * T T T ^ ~ , o : J b c M M V C M V V V B C D.I.I.R.C.V.Z.N.N.G.V.V.N.M.h o 8 5XrX,X{.t.t.p.w.#.o...#.o...T &   6 v z z S S z z G Q.U.1 o E .XR.R.R.E.R.R.R.R.(.' ' XX).E.E.E.E.E.Q.Q.E.E.E.E.E.).).E.E.E.R.Y.E.E.R.R.I.I.I.R.K.z.c.A l.Y.R.T.R.R.E.Y.L.L.E.Y.L.L.L.G.B.z.v.v.b.b.b.m.v.z.v.J.L.L.L.L.L.E.Y.L.L.L.Y.L.L.L.L.L.L.L.L.L.L.L.J.J.K.K.K.K.K.H.' m A.L.H.H.J.K.H.H.H.H.H.H.K.H.G.G.G.B.l.c.v.v.v.v.v.c.c.v.v.z.c.m c ).Y.H.H.G.N.N.B.c.l.c.c.c.c.k.c.v.l.c.c./ ; - u k N N m V N Z ' J o & {.rXeXeX9X3Xe.R E R R E W T + o < v D A.M.M.S.G.G.S.G.v.l.' ' ' ] C B F.M.[ [ l.[ [ l.} J O * +XrXeXuXuX8X*.> d.|.w.w.w.r.w.r.t.t.t.t.t.r.r.t.w.8.O.+ 8 $.o.o...@., . sXmXNXNXNXBXAXHXKXPXPXPXPXPXPXPXPXPXPXPXPXPXPXPXPXPXPXPXPXPXPXPXPXPXPXPXPXPXPXPXPXPXPXPXPXPXPXPXPXPXPXPXPXPXPXPXPXPXPXPXPXPXPXPXPXPX",
"PXPXPXPXPXPXPXPXPXPXPXPXPXPXPXPXPXPXPXPXPXPXPXPXPXPXPXPXPXPXPXPXPXPXPXPXPXPXPXPXPXPXPXPXPXPXPXPXPXPXPXPXPXPXPXPXPXPXPXPXPXGXsXX w 3XxXxXzX8.@ 9.|.{.t.t.p.p.p.i.p.t.p.p.t.p.t.i.u.r.6.= * Y W W +.~ , o : J b b V V V V C V V V V V D.I.I.I.K.V.V.N.N.G.V.V.N.M.h o 8 5XrX,X{.e.p.p.q.#.o.o.^ Q X.T &   6 z z v z z z M [ Q.U.< O E .XY.R.R.L.R.R.R.R.).D.C XX.XY.R.E.R.E.Q.E.E.E.E.E.E.Q.E.E.E.R.E.E.E.E.R.I.R.R.Y.R.K.l.c.N l.Y.T.T.Y.R.R.L.L.L.E.E.L.L.L.Z.v.z.v.v.m.b.b.V.v.v.v.J.L.L.L.E.Y.L.L.L.L.E.Y.L.L.L.L.L.L.L.K.K.L.L.L.J.H.K.K.K.H.I.B.k [ J.H.H.J.J.J.J.J.L.J.H.G.Z.Z.G.G.B.z.c.c.v.v.v.v.c.c.z.z.z.c.M k ).(.H.G.G.G.H.G.z.l.c.c.c.x.k.k.k.l.l.} V ; - y k N N M V N A ' x o @ {.rXeXwX9X3Xe.R R R R E W T + o 6 v _ A.M.S.S.S.S.G.G.B.l.j.G G ' C k A.M.' ' [ ' [ [ } J O * +XrXeXeXeX8X*., {.+Xt.e.e.r.r.r.t.t.e.e.e.r.w.w.w.8.+.+ 8 $.o.o.o.+.4 . sXmXMXMXBXBXAXHXKXPXPXPXPXPXPXPXPXPXPXPXPXPXPXPXPXPXPXPXPXPXPXPXPXPXPXPXPXPXPXPXPXPXPXPXPXPXPXPXPXPXPXPXPXPXPXPXPXPXPXPXPXPXPXPXPXPX",
"PXPXPXPXPXPXPXPXPXPXPXPXPXPXPXPXPXPXPXPXPXPXPXPXPXPXPXPXPXPXPXPXPXPXPXPXPXPXPXPXPXPXPXPXPXPXPXPXPXPXPXPXPXPXPXPXPXPXPXPXKXGXsXX w 3XxXxXzX8.@ a. X{.t.t.p.p.p.p.p.t.i.p.t.p.t.i.u.r.6.= * T W W ^ ~ , o : J b b V V V V V V V V V C D.I.I.I.K.V.V.N.B.G.V.V.N.M.h o 5 5XrX,X{.e.p.p.q.#.o.o.^ Q ..U +   6 z z v z z z z [ Q.U.< O E .XY.R.R.Y.R.R.R.T.Y.J.m )..XE.R.E.Y.E.E.E.R.E.E.E.E.E.R.R.R.E.E.E.E.R.I.I.I.I.Y.R.K.l.c.Z l.Y.T.T.K.Y.R.Y.L.Y.L.Y.L.L.L.V.v.v.v.v.m.b.v.B.B.v.v.J.L.L.L.L.L.L.L.L.L.E.L.L.L.L.L.L.L.L.K.K.K.K.L.J.H.K.K.K.H.K.H.m C D.H.G.J.L.J.J.J.J.H.H.H.Z.H.H.H.B.z.c.v.v.v.v.z.c.l.z.z.z.c.V k ).).H.G.G.G.H.G.z.l.c.c.c.c.k.k.k.l.l.} V ; - y k N N M V N Z ' x o & {.rXeXwX6X>Xe.R E R R E W T + o 6 j _ A.M.S.S.B.B.S.B.B.l.j.G G ' ` d { A.[ ' ' [ [ [ } J O * +XrXeXeXeX8X*., {.+Xr.w.w.r.r.r.t.e.e.e.e.r.w.w.w.8.+.+ 8 %.o.o.o.+., . sXmXMXMXBXBXAXKXKXPXPXPXPXPXPXPXPXPXPXPXPXPXPXPXPXPXPXPXPXPXPXPXPXPXPXPXPXPXPXPXPXPXPXPXPXPXPXPXPXPXPXPXPXPXPXPXPXPXPXPXPXPXPXPXPXPX",
"PXPXPXPXPXPXPXPXPXPXPXPXPXPXPXPXPXPXPXPXPXPXPXPXPXPXPXPXPXPXPXPXPXPXPXPXPXPXPXPXPXPXPXPXPXPXPXPXPXPXPXPXPXPXPXPXPXPXPXPXKXFXsXX w 3XxXzXzX8.@ 9. X{.t.t.i.p.p.p.i.t.i.t.t.p.p.i.u.r.6.= * T ..+.+.~ : o - J b b V V V V M M V V M N D.U.Y.R.K.C.B.B.M.G.V.V.N.M.h o 5 5XrX,X{.e.t.p.q.o.o.o.#.o...I +   6 z z v z V z z [ E.U.< O E .XY.R.R.Y.R.E.R.R.Y.(.V P.XXE.R.E.Y.R.E.R.R.E.E.R.E.R.R.Y.R.E.E.R.R.I.I.R.R.I.Y.R.K.z.c.A l.Y.T.T.K.K.R.E.E.E.L.L.E.L.L.V.V.v.v.m.b.b.v.v.v.v.V.K.K.L.L.L.L.L.Y.L.L.L.L.L.L.L.L.L.L.K.K.K.K.K.K.K.L.L.L.K.J.J.H.` m M.H.H.J.L.L.L.J.H.H.H.H.G.G.G.G.S.v.v.v.v.v.c.c.c.l.z.z.z.c.C d ).).H.G.H.H.S.G.z.l.c.k.k.c.k.k.k.l.l.} V ; - y k N N M M N Z ' v o * {.rXeXwX9X3Xe.R E R R E W T + o < j _ A.M.M.S.S.B.B.B.M.l.k.G G ' ` m ` A.l.' [ } [ [ } J O * +XrXeXeXuX8X*., |.+Xr.w.w.w.q.w.w.r.w.w.w.r.w.q.w.r.+.+ 5 +.......+.4 . sXMXMXNXBXBXAXKXKXPXPXPXPXPXPXPXPXPXPXPXPXPXPXPXPXPXPXPXPXPXPXPXPXPXPXPXPXPXPXPXPXPXPXPXPXPXPXPXPXPXPXPXPXPXPXPXPXPXPXPXPXPXPXPXPXPX",
"PXPXPXPXPXPXPXPXPXPXPXPXPXPXPXPXPXPXPXPXPXPXPXPXPXPXPXPXPXPXPXPXPXPXPXPXPXPXPXPXPXPXPXPXPXPXPXPXPXPXPXPXPXPXPXPXPXPXPXPXKXFXsXX H 3XxXuXzX8.$ 9. X{.r.t.i.p.p.i.p.t.i.t.t.p.p.i.e.r.6.= * T W ..+.~ , o 2 J b b V V V V M M V V M C D.U.I.R.I.Z.B.B.B.B.V.N.N.M.h o 5 5XrX,X{.e.p.p.q.=.#.Q #.o...I +   6 v z z z V V M [ Q.U.< O E .XY.Y.Y.Y.E.E.R.R.E.(.` A.XXQ.R.E.R.R.E.E.E.E.E.E.E.E.E.R.R.E.E.R.R.I.I.R.R.I.Y.R.K.z.l.Z l.U.T.T.K.K.R.R.E.E.L.L.Y.L.K.V.v.v.v.m.b.v.v.v.v.v.V.K.K.L.L.L.L.L.L.L.L.L.L.L.L.L.L.L.L.K.K.K.K.K.K.J.L.L.L.L.J.G.J.c.m [ H.J.J.K.L.L.L.H.H.H.H.G.G.G.G.B.z.v.v.v.v.c.c.c.c.l.z.l.c.C d (..XH.G.H.H.N.S.v.l.c.l.k.c.k.l.l.l.l.} V ; - y k N N M M N Z ' x o * {.rXwXwX6X3Xe.R E E R R W T + o < j D A.B.M.N.S.B.B.B.B.l.l.G ' ' ' B ( A.[ [ k.[ [ [ { J O * +XrXeXeXeX8X*., d.+Xr.w.w.r.q.w.r.r.r.r.r.r.w.w.w.8.+.+ 5 +.o.....+., . sXMXMXVXNXBXAXKXKXPXPXPXPXPXPXPXPXPXPXPXPXPXPXPXPXPXPXPXPXPXPXPXPXPXPXPXPXPXPXPXPXPXPXPXPXPXPXPXPXPXPXPXPXPXPXPXPXPXPXPXPXPXPXPXPXPX",
"PXPXPXPXPXPXPXPXPXPXPXPXPXPXPXPXPXPXPXPXPXPXPXPXPXPXPXPXPXPXPXPXPXPXPXPXPXPXPXPXPXPXPXPXPXPXPXPXPXPXPXPXPXPXPXPXPXPXPXPXKXFXsX% H 4XuXuXzX8.$ 9.|.{.e.p.i.p.p.i.p.t.t.t.t.e.u.e.e.e.6.= * T W +.@.! 3   : J b c V V V M V V M M M C D.I.I.I.I.C.B.V.B.A.B.C.N.M.h o 8 5XrX4X{.e.u.p.q.#.#.Q ^ Q ..Y +   6 v v b z V z M [ Y.P.< O E .XY.Y.Y.Y.R.R.R.R.E.).} ] XX).R.R.R.R.E.).).).).E.E.Y.E.R.E.E.E.R.R.R.I.I.R.I.I.Y.K.l.l.Z l.Y.R.K.K.Y.Y.R.E.E.L.L.K.K.K.V.v.v.v.v.b.v.b.v.v.v.V.J.L.L.L.L.L.L.L.L.L.L.L.L.L.L.L.L.L.L.L.K.K.K.L.L.K.K.K.K.H.H.J.S.M S J.K.H.H.L.K.K.H.H.H.G.H.H.H.G.v.v.v.v.v.v.v.v.v.c.z.z.l.c.C i Y..XG.Z.H.H.N.S.M.l.c.c.l.c.k.l.l.l.l.} V ; - y k N N M M N Z ' J o & {.lXeXwX6X3Xe.R R R R R W T +   < j D A.B.B.N.B.S.S.S.B.l.[ ' ' ' ' M C M.[ l.l.' ' [ } J O * +XrXeXuXeX8X*.: d.+Xr.w.r.r.r.r.r.e.r.e.r.r.w.w.w.8.+.+ 5 $.o.....+., . sXmXMXVXNXNXAXKXKXPXPXPXPXPXPXPXPXPXPXPXPXPXPXPXPXPXPXPXPXPXPXPXPXPXPXPXPXPXPXPXPXPXPXPXPXPXPXPXPXPXPXPXPXPXPXPXPXPXPXPXPXPXPXPXPXPX",
"PXPXPXPXPXPXPXPXPXPXPXPXPXPXPXPXPXPXPXPXPXPXPXPXPXPXPXPXPXPXPXPXPXPXPXPXPXPXPXPXPXPXPXPXPXPXPXPXPXPXPXPXPXPXPXPXPXPXPXPXKXFXsX% H 4XxXuXzX8.@ 9.|.{.r.p.p.p.p.i.p.t.p.t.t.u.u.e.e.e.6.= 4 Y W +.@.! 3   : J b b V V V M V M M M M C D.I.I.I.I.K.V.B.B.B.Z.C.N.M.h o 8 5XrX4X{.e.u.p.7.#.=.Q Q Q ..Y +   6 v v z z V V M [ Y.P.< O E .XI.I.I.I.I.R.R.T.Y.).A.F XX_.R.R.I.R.E.).).).).E.E.E.E.E.E.E.E.R.R.R.I.R.I.I.I.Y.K.M.l.Z c.Y.R.K.K.Y.Y.Y.E.E.Y.Y.L.K.H.v.b.v.v.v.V.v.b.v.v.v.V.K.J.L.L.L.L.L.L.L.L.L.L.L.L.L.L.L.L.L.L.K.K.K.K.L.K.K.K.K.H.H.J.H.F m D.J.G.H.L.K.K.K.H.H.G.H.H.G.G.v.v.v.v.v.v.v.v.v.c.z.z.z.c.C i U.XXH.Z.H.H.N.S.M.l.c.c.l.c.k.l.l.l.l.} V ; - y k N N m M N Z ' x o * {.lXeXeX9X4Xe.R R R R R W Y + o < j _ A.B.M.N.B.B.B.B.B.B.[ ' ' ' [ C V } [ l.l.' ' [ } J O & +XrXeXuXeX8X*., d.+Xe.w.r.r.r.r.r.e.e.e.r.r.r.w.w.8.+.+ 8 #.o.o...+., X sXmXMXVXNXBXAXKXKXPXPXPXPXPXPXPXPXPXPXPXPXPXPXPXPXPXPXPXPXPXPXPXPXPXPXPXPXPXPXPXPXPXPXPXPXPXPXPXPXPXPXPXPXPXPXPXPXPXPXPXPXPXPXPXPXPX",
"PXPXPXPXPXPXPXPXPXPXPXPXPXPXPXPXPXPXPXPXPXPXPXPXPXPXPXPXPXPXPXPXPXPXPXPXPXPXPXPXPXPXPXPXPXPXPXPXPXPXPXPXPXPXPXPXPXPXPXPXKXFXsX% H 4XxXuXzX8.@ 9. X[.t.i.t.t.p.p.p.t.t.t.t.e.e.e.e.e.6.= = Y W @.@.! 3   : J b c V V V M V V V V M C D.I.I.I.I.K.Z.V.N.S.Z.C.N.M.h o 8 5XrX4X{.w.p.p.q.#.#.o.Q Q ..Y +   5 v z z V V M M [ Q.P.< O E .XI.I.I.I.I.R.I.K.T.).F.N .X.XY.I.R.W.E.).E.).E.L.E.).Y.).).).E.Y.E.Y.I.I.I.K.I.R.K.N.l.Z c.Y.R.K.K.Y.Y.L.E.E.Y.L.K.K.Z.v.V.v.v.v.G.v.b.v.v.v.V.L.J.L.Y.L.L.L.L.L.L.L.L.L.L.L.L.L.L.L.L.K.K.K.L.L.K.K.K.K.H.H.J.H.[ n } J.J.H.K.K.K.H.H.H.G.H.H.H.G.v.v.v.v.v.v.v.v.z.c.z.z.v.c.( i I.XXH.N.H.H.N.G.M.l.c.c.l.c.k.l.l.k.k.} V ; - y k N N m m N Z ' J o * {.lXeXwX9X4Xe.L R R R R E T + o < j D A.M.M.N.B.B.B.B.B.B.[ ' ' ' k.` C } [ l.[ ' ' l.{ J O @ +XrXeXuXeX8X*., d.+Xt.w.r.r.w.w.r.e.e.e.r.t.r.w.w.8.O.+ 8 #.o.o...+., . sXmXMXNXmXBXAXKXKXPXPXPXPXPXPXPXPXPXPXPXPXPXPXPXPXPXPXPXPXPXPXPXPXPXPXPXPXPXPXPXPXPXPXPXPXPXPXPXPXPXPXPXPXPXPXPXPXPXPXPXPXPXPXPXPXPX",
"PXPXPXPXPXPXPXPXPXPXPXPXPXPXPXPXPXPXPXPXPXPXPXPXPXPXPXPXPXPXPXPXPXPXPXPXPXPXPXPXPXPXPXPXPXPXPXPXPXPXPXPXPXPXPXPXPXPXPXPXKXGXsXX H ,XuXuXzX6.$ 9. X[.e.p.t.t.p.p.p.p.t.t.t.e.e.p.u.e.6.* = Y ..@.@.! 3 o : J b c V V V M V V V V M C D.I.Y.R.I.I.Z.V.N.S.Z.V.N.M.h o 5 5XrX4X{.e.p.p.q.:.#.o.Q Q ..Y +   5 z z z z V z z [ Y.P.< O Q .XI.Y.Y.Y.I.R.I.L.T.E.U.M (.XXI.R.E.R.E.Y.Y.).).L.E.E.Y.E.E.).E.E.E.L.I.I.I.I.R.Y.H.M.c.Z M.Y.E.T.I.R.R.L.Y.E.Y.L.K.K.G.v.G.b.v.v.V.b.v.v.v.v.V.L.L.L.Y.L.K.Y.L.L.L.L.L.L.L.L.L.L.L.L.L.K.K.K.L.L.K.L.L.K.H.G.J.H.N.N F D.H.J.H.H.H.H.H.H.H.H.H.H.G.B.v.v.v.v.v.v.v.z.l.z.z.z.c.( i I.XXG.N.G.G.N.G.M.c.l.l.c.c.k.l.l.k.l.} V ; - y k N N M m N Z ' J o * |.lXeXwX9X>Xe.R R R R R E Y + o < j ` A.v.S.N.B.B.B.B.B.M.c.[ ' ' ' ` A [ l.' [ ' [ ' } J O & +XrXeXuXuX8X*., f.+Xr.q.w.r.q.w.e.e.e.e.e.t.w.w.w.8.O.+ 8 +.o.o.o.+., . sXmXMXNXBXBXAXHXKXPXPXPXPXPXPXPXPXPXPXPXPXPXPXPXPXPXPXPXPXPXPXPXPXPXPXPXPXPXPXPXPXPXPXPXPXPXPXPXPXPXPXPXPXPXPXPXPXPXPXPXPXPXPXPXPXPX",
"PXPXPXPXPXPXPXPXPXPXPXPXPXPXPXPXPXPXPXPXPXPXPXPXPXPXPXPXPXPXPXPXPXPXPXPXPXPXPXPXPXPXPXPXPXPXPXPXPXPXPXPXPXPXPXPXPXPXPXPXKXGXsXX H <XuXuXzX8.$ 9. X[.w.p.t.t.t.p.p.p.p.t.t.e.e.p.u.e.6.* 3 Y W T @.! 4   : J b b V V M M V V V V M C D.U.I.I.R.I.G.V.N.S.Z.z.B.;.h o 6 5XrX,X{.e.p.p.q.:.:.o.^ Q ..Y +   5 v z z V V V M [ Y.P.< O ) .XU.Y.Y.Y.Y.E.Y.Y.T.R.Y.C D.XXE.I.R.R.R.E.E.E.E.E.E.E.E.E.).E.).).E.E.I.I.I.I.Y.Y.H.M.c.Z M.Y.E.T.I.Y.Y.L.L.Y.Y.L.K.K.G.v.b.b.v.v.B.V.b.v.v.v.V.L.L.Y.E.L.K.Y.L.L.L.L.L.L.L.L.L.L.L.L.L.K.K.K.L.L.K.L.K.K.J.H.J.H.H.A M A.H.J.K.K.K.H.G.H.H.H.H.G.G.v.z.v.v.v.v.v.v.v.c.z.z.z.c.C i H.XXG.N.G.G.N.S.S.c.l.l.c.v.k.l.l.l.l.} V ; - y k B N m m N Z ' J o * |.lXeXwX6X4Xt.R R R R R W Y + o < j ` A.M.S.S.B.B.V.B.B.B.l.[ ' ' ' ' ' [ k.[ [ [ [ ' } J O * +XrXeXuXuX8X*., f.+Xw.q.w.r.q.w.e.e.t.t.e.t.w.w.w.8.O.+ 8 +.o.o...+., . sXmXMXVXNXBXAXHXKXPXPXPXPXPXPXPXPXPXPXPXPXPXPXPXPXPXPXPXPXPXPXPXPXPXPXPXPXPXPXPXPXPXPXPXPXPXPXPXPXPXPXPXPXPXPXPXPXPXPXPXPXPXPXPXPXPX",
"PXPXPXPXPXPXPXPXPXPXPXPXPXPXPXPXPXPXPXPXPXPXPXPXPXPXPXPXPXPXPXPXPXPXPXPXPXPXPXPXPXPXPXPXPXPXPXPXPXPXPXPXPXPXPXPXPXPXPXPXKXGXsXX H <XuXuXzX0.$ 9. X'.w.t.t.t.t.t.t.p.p.t.t.u.e.p.u.e.6.* 3 Y W T @.! 3   2 J b b V V M V B V V V M C D.I.I.I.R.I.G.Z.N.S.Z.V.B.;.h o 8 5XrX,X{.e.p.p.q.:.#.o.#.Q o.Y +   5 v v z V V V M [ Y.P.< O ) }.Y.Y.Y.Y.Y.E.Y.Y.T.R.U.] M.XXQ.I.R.R.Y.E.E.E.E.E.E.).E.E.E.E.E.E.E.E.R.R.R.I.R.Y.H.B.c.Z A.Y.E.T.I.K.L.L.L.L.Y.L.L.K.Z.v.v.m.v.v.V.B.S.G.v.v.V.L.Y.Y.Y.L.K.Y.L.L.L.L.L.L.L.L.L.L.L.L.L.K.K.K.L.L.K.L.K.K.K.J.H.H.J.c.k ] H.K.L.L.L.G.G.H.H.G.G.H.G.v.v.v.v.v.v.v.v.v.c.z.z.z.c.C i H.XXG.N.G.G.N.G.S.c.l.l.c.c.k.l.l.l.l.} V ; - y k m m M m N Z ' J o * |.lXeX6X6X4Xt.R E R R R W Y + o 6 j ` A.A.S.B.B.B.V.V.N.B.l.[ ' ' ' ' ' k.k.[ } ' [ ' } J O * +XrXeXuXuX8X*., d.+Xw.q.r.r.q.r.t.t.e.e.e.t.w.w.w.8.O.+ 8 +.o.o...+., . sXBXNXVXNXNXAXKXKXKXPXPXPXPXPXPXPXPXPXPXPXPXPXPXPXPXPXPXPXPXPXPXPXPXPXPXPXPXPXPXPXPXPXPXPXPXPXPXPXPXPXPXPXPXPXPXPXPXPXPXPXPXPXPXPXPX",
"PXPXPXPXPXPXPXPXPXPXPXPXPXPXPXPXPXPXPXPXPXPXPXPXPXPXPXPXPXPXPXPXPXPXPXPXPXPXPXPXPXPXPXPXPXPXPXPXPXPXPXPXPXPXPXPXPXPXPXPXKXFXsXX H <XuXzXzX8.& a.|.'.w.t.t.t.t.t.e.t.t.t.e.u.u.p.u.e.6.* 3 Y +.+.@.! :   2 J b b V V V B B V V V M C D.I.Y.R.R.I.G.Z.B.S.V.V.N.M.h o 8 5XrX,X{.e.e.t.q.=.#.o.#.o.o.I +   6 J v b b V V M [ Y./.< O ) .XY.Y.E.E.E.E.Y.Y.R.R.U.l.} XXQ.I.R.R.T.E.).Y.Y.E.E.).E.E.E.E.E.E.E.Y.R.R.R.I.Y.R.H.B.l.Z A.Y.L.T.Y.L.L.L.L.L.R.L.R.K.Z.v.v.v.v.v.v.B.B.V.v.v.V.L.L.L.L.K.K.L.L.L.L.L.L.L.L.L.L.L.L.L.K.K.K.K.K.K.K.K.K.K.K.K.J.H.G.S.m C D.L.K.K.H.H.G.J.H.H.H.H.G.z.c.z.v.v.v.v.v.v.c.l.z.l.c.( i H.XXH.S.G.G.G.G.S.M.l.l.l.c.k.l.l.l.l.} V ; - y k m m M M N Z ' v o * {.rXeX6X9X4Xe.R R R R R W T + # 6 j ` A.A.A.M.B.B.V.V.M.M.M.[ ' ' ' ' ' [ [ } } ' ' [ } J O * +XrXeXeXuX9X*.> d.+Xw.q.w.r.q.w.r.r.e.e.r.r.w.w.7.8.O.+ 8 #.o.o...+., . ;XMXNXNXNXBXAXHXPXPXPXPXPXPXPXPXPXPXPXPXPXPXPXPXPXPXPXPXPXPXPXPXPXPXPXPXPXPXPXPXPXPXPXPXPXPXPXPXPXPXPXPXPXPXPXPXPXPXPXPXPXPXPXPXPXPX",
"PXPXPXPXPXPXPXPXPXPXPXPXPXPXPXPXPXPXPXPXPXPXPXPXPXPXPXPXPXPXPXPXPXPXPXPXPXPXPXPXPXPXPXPXPXPXPXPXPXPXPXPXPXPXPXPXPXPXPXPXKXFXsXX h <XuXzXzX8.& a.|.'.w.p.t.t.t.t.e.t.t.t.e.e.u.e.w.w.*.: : Y ^ +.+.! :   : J b b V V / / V V V V M C D.I.I.E.R.I.K.Z.V.S.V.V.B.;.h o 8 5XrX,X{.e.e.t.q.#.#.#.#.Q o.I +   6 J b b b V V M [ Y./.< O E .XY.E.E.R.Y.E.E.Y.R.I.U.B.] XX).I.K.R.E.).).E.L.E.E.E.E.).).E.E.E.E.Y.R.R.R.I.Y.Y.H.B.l.Z A.Y.L.L.L.L.L.L.Y.R.L.L.R.J.V.v.v.v.v.v.v.b.B.B.v.v.V.L.L.L.L.L.L.L.L.L.L.L.L.L.L.L.L.L.L.K.K.K.K.K.K.K.K.K.K.K.K.J.H.C.G.H.` n A.H.L.K.H.Z.H.J.H.H.H.H.S.c.c.z.v.v.v.v.v.v.c.l.z.l.c.( i H.XXK.S.G.G.G.G.G.M.l.l.l.l.k.l.[ l.l.} V ; - y k m m M M N A ' v o * {.eXeXeX6X4Xe.R R R L R W T + # 6 j ` A.M.M.M.M.B.V.V.B.M.c.l.' ' ' ' ' ' [ } } ' ' [ } J O * +XrXeXeXeX9X*.> d.+Xw.q.w.r.q.w.r.r.t.t.r.r.w.w.7.8.+.@ 8 #.o.o.#.+., . ;XMXNXNXNXBXAXHXPXPXKXKXKXPXPXPXPXPXPXPXPXPXPXPXPXPXPXPXPXPXPXPXPXPXPXPXPXPXPXPXPXPXPXPXPXPXPXPXPXPXPXPXPXPXPXPXPXPXPXPXPXPXPXPXPXPX",
"PXPXPXPXPXPXPXPXPXPXPXPXPXPXPXPXPXPXPXPXPXPXPXPXPXPXPXPXPXPXPXPXPXPXPXPXPXPXPXPXPXPXPXPXPXPXPXPXPXPXPXPXPXPXPXPXPXPXPXPXKXFXsXX H ,XuXzXzX6.& a.{.p.e.p.t.p.p.t.t.p.t.t.t.e.e.e.w.w.*.: * Y ^ +.+.O.:   : J b b V B / / V V V V M C D.I.I.R.R.R.K.Z.V.S.V.b.B.;.h o 8 5XrX,X{.e.e.t.7.#.#.#.#.Q Q I +   6 J b z b V V M [ Y.^.1 O E .XY.R.R.I.I.R.R.Y.R.I.Y.D.F .X.XI.K.R.E.).).).E.Y.E.E.E.E.).E.E.L.Y.E.R.I.I.I.Y.R.G.c.l.Z A.L.L.L.L.Y.Y.Y.E.Y.L.L.R.J.V.v.v.v.b.b.G.b.V.v.v.v.V.L.L.L.L.L.L.L.L.L.L.L.L.L.J.J.L.L.L.K.K.K.K.K.K.K.I.K.K.K.K.J.G.H.G.H.M.p [ J.J.H.H.Z.H.J.H.H.H.D.S.c.c.z.v.v.v.v.v.v.c.l.z.z.c._ i H.OXI.S.H.H.G.S.G.B.c.l.l.c.k.[ [ l.l.} S ; - y k m m M V N Z ' v o * {.eXeXrX9X4Xe.R R R R R W T + o 6 j ` A.v.M.M.M.B.V.V.B.M.M.c.' ' ' ' [ ' [ [ [ ' ' [ } J O * +XrXeXeXeX9X*.> {.+Xw.q.q.r.q.w.r.r.t.r.r.r.w.w.7.8.+.@ 8 #.o.o...+., . ;XMXNXBXBXBXAXHXPXPXKXKXKXPXPXPXPXPXPXPXPXPXPXPXPXPXPXPXPXPXPXPXPXPXPXPXPXPXPXPXPXPXPXPXPXPXPXPXPXPXPXPXPXPXPXPXPXPXPXPXPXPXPXPXPXPX",
"PXPXPXPXPXPXPXPXPXPXPXPXPXPXPXPXPXPXPXPXPXPXPXPXPXPXPXPXPXPXPXPXPXPXPXPXPXPXPXPXPXPXPXPXPXPXPXPXPXPXPXPXPXPXPXPXPXPXPXPXKXFXsXX H 4XuXxXzX6.+ 0.|.p.e.p.p.t.p.t.e.t.t.e.e.e.e.e.w.e.*.: * Y ^ +.+.! : o : J b b V B / / C V V M M C D.I.I.R.R.R.K.Z.V.G.V.b.B.;.h o 8 5XrX4X{.e.e.t.7.#.#.#.#.o.o.I +   6 v v b z V V z [ Y.^.1 - E .XI.R.R.E.E.R.R.Y.R.I.Y.H.F )..XI.R.R.E.E.E.).).Y.E.E.E.E.E.E.E.L.L.E.R.I.K.K.L.R.G.M.l.A M.L.L.K.L.E.E.L.L.Y.L.L.R.K.V.v.v.v.v.v.v.V.V.B.v.v.V.L.L.L.L.J.K.L.L.L.L.L.L.L.L.L.L.L.L.K.K.K.K.K.K.Y.I.K.K.H.J.J.H.Z.G.H.D.N N D.H.G.G.Z.G.J.H.H.H.H.S.c.c.v.v.v.v.v.v.v.v.v.z.z.c.` i H.OXI.S.H.H.G.S.S.B.c.l.l.c.k.l.[ l.l.} S ; - y k m m M V N Z ' v o * {.eXeXrX6X,Xe.R R R R R W T + o 6 j ` D.M.A.S.B.B.V.V.c.M.M.c.' ' ' ' ' ' [ [ [ [ ' [ } J O * +XrXeXeXeX9X*.> d.|.w.q.q.r.q.w.r.r.r.r.r.r.w.w.7.8.+.@ 8 #.o.o.+.+., . ;XMXNXNXNXBXAXHXPXPXKXKXKXPXPXPXPXPXPXPXPXPXPXPXPXPXPXPXPXPXPXPXPXPXPXPXPXPXPXPXPXPXPXPXPXPXPXPXPXPXPXPXPXPXPXPXPXPXPXPXPXPXPXPXPXPX",
"PXPXPXPXPXPXPXPXPXPXPXPXPXPXPXPXPXPXPXPXPXPXPXPXPXPXPXPXPXPXPXPXPXPXPXPXPXPXPXPXPXPXPXPXPXPXPXPXPXPXPXPXPXPXPXPXPXPXPXPXKXFXsXX K 4XiXxXzX8.@ 0.|.p.e.i.p.t.t.t.t.r.t.r.t.e.e.w.4.w.*.: : Y ^ @.@.! ,   : J b b V V / / V V V V M C D.I.I.R.R.R.Y.C.V.S.V.V.N.;.h o 8 5XzX,X{.e.u.p.7.:.#.o.^ o.o.I #   6 v v z z V z z [ Y.P.1 O E .XR.R.R.R.I.I.Y.Y.R.I.U.H.` (..XY.R.W.E.E.E.E.E.E.E.E.E.E.E.E.E.L.L.E.R.Y.Y.L.L.L.G.N.l.Z M.L.K.K.L.E.E.L.L.E.L.K.Y.K.V.z.v.v.v.v.b.V.V.V.v.v.G.L.L.L.L.L.L.L.L.L.L.L.L.L.L.L.L.L.L.J.K.K.J.K.K.K.K.K.J.J.J.J.J.G.G.H.H.c.p M.H.H.G.Z.G.H.H.H.H.H.G.z.l.z.v.v.v.v.v.v.v.v.z.z.c.( i H.XXI.N.G.G.D.S.G.S.c.l.l.c.c.l.[ k.c.{ ) ; - y k m m m N N Z ` b O * {.rXeXrX9X,Xe.P R L R P W T + o 6 j ` A.n.A.S.S.B.G.V.z.M.M.v.k.' ' [ ' ' [ [ [ [ ' ' } J O * +XrXeXeXeX8X*.> {.|.w.q.q.8.w.r.w.w.q.q.w.r.w.w.w.8.+.+ 5 #.o.o.#.+., . ;XMXVXVXNXNXAXHXPXPXKXKXKXPXPXPXPXPXPXPXPXPXPXPXPXPXPXPXPXPXPXPXPXPXPXPXPXPXPXPXPXPXPXPXPXPXPXPXPXPXPXPXPXPXPXPXPXPXPXPXPXPXPXPXPXPX",
"PXPXPXPXPXPXPXPXPXPXPXPXPXPXPXPXPXPXPXPXPXPXPXPXPXPXPXPXPXPXPXPXPXPXPXPXPXPXPXPXPXPXPXPXPXPXPXPXPXPXPXPXPXPXPXPXPXPXPXPXKXFXsXX K 4XiXzXzX8.@ a.|.p.t.t.p.t.t.t.r.8.,.W #.7.e.w.4.w.*.: : Y ^ +.@.! ,   : b b V V V / / V M M M M C D.U.I.I.R.R.Y.K.V.Z.V.z.N.;.h o 8 5XzX,X{.e.e.t.3.=.#.Q ^ o.o.I #   6 v z z z V M z [ Y.P.< O E .XL.Q.Q.Y.K.I.Y.Y.E.E.U.U.` (.XXE.R.R.R.Y.Y.Y.Y.Y.E.E.E.E.E.E.E.L.E.E.L.Y.E.E.E.R.G.M.l.Z B.U.K.K.L.E.E.E.Y.E.L.K.K.K.V.z.v.v.v.v.b.V.V.V.v.v.G.L.L.L.L.L.L.L.L.L.L.L.L.L.L.L.J.J.L.L.L.L.K.K.K.J.J.J.K.J.J.J.J.H.G.G.G.D.m ` D.D.G.Z.G.H.H.H.H.H.S.z.l.z.v.v.v.v.v.v.v.v.z.l.l.( i H.XXI.Z.G.G.D.S.G.S.c.l.k.k.k.l.[ ' k.{ V ; - y k m m m N N Z ` J o * {.rXeXeX9X,Xe.P R L L R W T + o 6 j ` A.n.A.S.S.S.G.G.c.z.M.v.k.' ' ' ' ' [ [ [ [ ' ' { J O * +XeXeXeXuX8X$.> {.+Xw.q.q.8.q.r.w.r.q.w.w.q.w.w.8.8.+.+ 8 #.W o.#.+., . ;XmXNXVXNXNXAXHXPXPXKXKXKXPXPXPXPXPXPXPXPXPXPXPXPXPXPXPXPXPXPXPXPXPXPXPXPXPXPXPXPXPXPXPXPXPXPXPXPXPXPXPXPXPXPXPXPXPXPXPXPXPXPXPXPXPX",
"PXPXPXPXPXPXPXPXPXPXPXPXPXPXPXPXPXPXPXPXPXPXPXPXPXPXPXPXPXPXPXPXPXPXPXPXPXPXPXPXPXPXPXPXPXPXPXPXPXPXPXPXPXPXPXPXPXPXPXPXKXFXsXX K 4XxXxXzX8.& a.|.p.r.t.p.t.t.e.8.P h U H P 3.4.4.w.*.: , O.+.+.+.! ,   2 J b V V V / / V M M M M C D.I.I.R.I.I.Y.K.V.N.V.N.N.M.h o 8 5XzX,X[.w.e.t.3.#.Q Q ^ Q o.I #   6 v z z M M M z [ Y.P.< O E .XY.E.E.Y.L.Y.R.E.E.E.Y.U.` J.XXE.R.R.R.K.L.L.L.L.E.Y.E.E.E.E.Y.L.Y.E.L.L.Y.R.Y.Y.Z.N.l.Z N.Y.R.K.L.E.E.E.E.E.L.K.L.K.V.v.v.v.v.v.b.V.V.b.v.v.G.L.L.L.L.L.L.L.L.L.L.L.L.L.L.L.J.L.L.L.J.J.L.L.K.J.J.K.K.J.L.L.L.H.G.G.K.H.` m M.D.H.G.G.H.H.G.H.H.V.z.z.v.v.v.v.v.v.v.v.v.z.z.l.( i G.XXI.N.G.G.S.G.G.S.c.l.l.c.k.[ [ ' k.{ V ; - y k m m m N N Z ` J O * {.eXeXeX6X,Xe.P R L L R W T + o 6 j ` A.n.A.S.S.S.G.S.z.M.B.v.c.k.[ k.' ' [ [ l.[ ' G ] v O & +XrXeXeXuX8X*.> d.+Xe.q.q.8.q.q.w.r.r.r.w.8.w.w.8.8.+.+ 8 #.W Q #.+., . ;XMXNXNXBXBXAXHXPXPXKXKXKXPXPXPXPXPXPXPXPXPXPXPXPXPXPXPXPXPXPXPXPXPXPXPXPXPXPXPXPXPXPXPXPXPXPXPXPXPXPXPXPXPXPXPXPXPXPXPXPXPXPXPXPXPX",
"PXPXPXPXPXPXPXPXPXPXPXPXPXPXPXPXPXPXPXPXPXPXPXPXPXPXPXPXPXPXPXPXPXPXPXPXPXPXPXPXPXPXPXPXPXPXPXPXPXPXPXPXPXPXPXPXPXPXPXPXKXGXsX. w 4XxXxXzX8.& a. Xp.e.t.p.t.t.r.#.h #.:.$.h ..w.4.w.*.* = Y ^ ..@.~ 3   : J J V V V V V M V V M M C D.I.I.I.K.I.Y.K.C.N.V.N.N.M.h o 8 8XrX4X[.e.e.t.3.o.Q Q Q o...U +   6 v z z M M M M ] Y.P.< O E .XY.R.Y.E.Y.Y.E.E.Q.R.R.U.[ D.XXY.I.R.I.Y.L.L.Y.E.L.L.).L.E.E.L.L.Y.E.E.E.Y.R.R.L.Z.M.G Z N.Y.R.K.L.E.E.E.E.E.L.K.Y.J.V.v.v.v.v.b.V.V.V.b.v.z.B.L.L.L.L.L.L.L.L.L.Y.Y.L.L.L.L.J.L.L.L.J.L.L.L.L.J.K.K.K.J.K.K.H.H.K.K.H.H.M.p ] D.H.G.G.H.H.G.G.H.S.z.c.c.c.c.c.v.v.v.c.z.z.l.c.C i H.OXU.G.H.G.S.G.S.N.l.l.c.c.[ l.l.[ [ { / ; - y k m m m N C Z ` b O * |.rXwXrX9X,Xe.R R L L W W T + o 6 j ` A.A.A.S.G.G.G.S.v.B.B.v.z.c.l.l.' ' [ [ [ [ ' G [ J + & +XrXeXeXuX8X*.: d.+Xw.q.q.q.q.w.q.r.r.w.w.w.w.w.8.8.O.+ 5 #.Q Q #.+.4 . ;XmXMXMXNXNXAXHXKXPXKXKXPXPXPXPXPXPXPXPXPXPXPXPXPXPXPXPXPXPXPXPXPXPXPXPXPXPXPXPXPXPXPXPXPXPXPXPXPXPXPXPXPXPXPXPXPXPXPXPXPXPXPXPXPXPX",
"PXPXPXPXPXPXPXPXPXPXPXPXPXPXPXPXPXPXPXPXPXPXPXPXPXPXPXPXPXPXPXPXPXPXPXPXPXPXPXPXPXPXPXPXPXPXPXPXPXPXPXPXPXPXPXPXPXPXPXPXKXGXdX. K 1XxXxXzX6.# a. Xt.w.t.t.r.i.w.K ..3.2.1.W 9 7.w.w.*.* * Y ^ ..@.~ 3 o : J J V V V V V M V V V M D D.U.I.I.I.I.Y.K.C.V.V.N.N.;.h o 8 8XrX,X[.e.e.e.3.o.o.Q Q o...Y +   6 v z z M V M z ] Q.(.< O E .XI.E.R.L.L.Y.E.E.Y.I.R.Y.[ M.XXY.I.W.R.R.E.E.E.L.L.L.).E.E.E.E.E.Y.L.L.Y.Y.R.R.L.G.M.[ Z N.Y.R.K.L.E.E.E.Y.E.K.K.Y.J.V.v.v.v.v.b.V.V.V.v.v.B.B.K.H.L.L.L.L.L.U.U.U.U.L.L.L.L.L.L.L.L.L.L.L.L.J.J.K.K.K.J.K.K.H.H.K.H.H.G.A.M V D.H.G.G.H.H.G.H.G.B.c.c.v.v.v.v.c.v.v.c.z.z.l.c.C i H.OXU.G.H.H.G.S.S.N.M.l.c.c.c.l.l.' [ { / ; - y k m m M M C C ` b O & {.eXwX6X6X>Xe.R R L L W W T +   6 j ` A.A.A.S.G.G.G.S.v.S.S.v.B.B.v.c.' k.[ [ [ [ [ l.} J + * +XrXeXuXuX8X%.: d.+Xw.q.q.w.q.r.q.r.w.w.w.w.w.w.8.8.O.# 5 #.Q Q #.+.4 . ;XmXMXMXNXNXAXHXHXHXPXPXPXPXPXPXPXPXPXPXPXPXPXPXPXPXPXPXPXPXPXPXPXPXPXPXPXPXPXPXPXPXPXPXPXPXPXPXPXPXPXPXPXPXPXPXPXPXPXPXPXPXPXPXPXPX",
"PXPXPXPXPXPXPXPXPXPXPXPXPXPXPXPXPXPXPXPXPXPXPXPXPXPXPXPXPXPXPXPXPXPXPXPXPXPXPXPXPXPXPXPXPXPXPXPXPXPXPXPXPXPXPXPXPXPXPXPXKXGXdX. K 1XxXxXzX6.+ a. Xu.w.t.r.r.r.3.9 1.3.2.2.$.9 ..e.w.*.= = Y ^ ..@.~ 3 o : J J V V V V V C V V V M D D.U.I.I.I.I.Y.I.Z.N.V.N.B.;.h o 8 8XzX,X[.e.e.e.3.:.o.o.Q o...Y +   6 v z z M V M z ] Q.(.< O E ).K.R.E.L.L.Y.E.Y.Y.Y.R.Y.M.[ XXY.I.W.Q.E.R.E.E.Y.L.L.E.E.E.E.E.E.Y.L.Y.Y.Y.R.R.L.G.M.[ Z N.Y.T.K.L.E.E.Y.Y.E.L.I.Y.J.v.v.v.v.v.b.V.V.V.v.v.B.B.K.H.L.K.K.L.L.U.U.U.U.L.L.L.L.L.L.L.L.L.L.L.L.J.L.K.K.K.J.K.K.H.G.H.H.H.G.D.] k M.H.H.G.G.H.G.H.H.B.z.v.v.v.v.v.c.c.c.c.l.z.l.c.C i H.OXU.G.H.G.G.S.S.N.B.l.l.c.c.c.l.' [ { / ; - y k m m M M C C ` b O & |.rXwX6X6X,Xe.R R L L L W T o   6 j ` A.A.M.S.G.G.G.S.v.B.S.v.v.v.v.z.k.k.[ [ [ [ [ l.} J O & +XrXeXuXuX8X%., d.|.w.q.q.w.q.r.q.r.w.w.w.8.w.w.8.8.O.+ 5 #.Q Q #.+.4 . ;XmXMXMXNXNXAXHXKXKXPXPXPXPXPXPXPXPXPXPXPXPXPXPXPXPXPXPXPXPXPXPXPXPXPXPXPXPXPXPXPXPXPXPXPXPXPXPXPXPXPXPXPXPXPXPXPXPXPXPXPXPXPXPXPXPX",
"PXPXPXPXPXPXPXPXPXPXPXPXPXPXPXPXPXPXPXPXPXPXPXPXPXPXPXPXPXPXPXPXPXPXPXPXPXPXPXPXPXPXPXPXPXPXPXPXPXPXPXPXPXPXPXPXPXPXPXPXHXGXsX. K 1XuXuXzX6.& a. Xp.e.p.i.r.r.#.K 7.2.3.3.3.P K 8.w.*., , Y ^ ..@.~ 3 o : J b V V M V V M V V M M D D.Y.I.I.I.Y.R.R.I.N.V.C.N.M.h o 8 fXzX,X{.w.e.e.3.:.#.#.#.o...Y +   6 v z z M M M M [ Q.(.< O E ).K.E.E.E.E.Y.Y.Y.Y.E.R.L.M.[ XXY.R.R.E.E.Y.Y.Y.E.L.L.E.E.E.E.E.L.L.E.E.E.E.R.E.L.G.M.G Z N.Y.R.K.L.Y.Y.E.Y.E.L.I.R.J.v.v.v.v.v.b.V.B.B.B.v.z.B.H.U.K.K.K.K.L.U.L.L.L.L.L.L.L.L.L.J.L.L.L.L.L.L.L.L.L.J.J.K.K.H.G.H.H.H.J.J.M.p ` H.H.G.G.G.H.H.G.B.z.v.v.v.v.v.c.c.c.l.l.z.l.c.C i H.OXU.G.H.S.S.S.S.Z.N.l.l.c.c.c.l.l.[ { / ; - y k m m M N C Z G b O & |.rXwX6X6X,Xe.R R L L L W T +   6 j ` A.M.M.A.G.G.G.G.v.B.S.B.B.v.z.z.' ' [ [ [ [ ' ' { J O & |.rXeXuXuX8X%., |.+Xw.q.q.q.q.w.r.r.w.w.w.r.w.w.w.8.O.# 8 $.o.Q o.+.4 . ;XmXMXMXNXNXAXKXKXKXPXPXPXPXPXPXPXPXPXPXPXPXPXPXPXPXPXPXPXPXPXPXPXPXPXPXPXPXPXPXPXPXPXPXPXPXPXPXPXPXPXPXPXPXPXPXPXPXPXPXPXPXPXPXPXPX",
"PXPXPXPXPXPXPXPXPXPXPXPXPXPXPXPXPXPXPXPXPXPXPXPXPXPXPXPXPXPXPXPXPXPXPXPXPXPXPXPXPXPXPXPXPXPXPXPXPXPXPXPXPXPXPXPXPXPXPXPXKXGXsX. K 4XuXuXzX6.# 0. Xe.e.p.i.r.r.P W 7.3.3.3.7.#.0 :.w.*.4 , Y ^ ..+.~ : o - J b V V V V V M V M M M D D.Y.I.I.I.I.R.I.I.Z.V.C.B.M.h o 8 fXzX,X{.e.e.t.3.:.=.#.#.o...I +   8 v z z z V M M [ Q.(.< O E ).I.E.E.E.E.Y.Y.Y.Y.E.T.Y.A.[ XXY.I.R.E.Y.K.K.R.L.L.L.L.E.E.E.E.L.L.L.Y.Y.Y.L.L.L.G.N.G Z N.Y.K.K.L.L.Y.Y.Y.E.K.I.R.J.v.v.v.v.v.v.v.B.B.v.v.v.M.H.K.H.K.K.K.U.Y.L.L.J.L.L.L.L.L.L.J.L.L.L.L.L.L.L.L.L.J.J.J.K.H.G.K.H.H.K.H.D.C N A.H.H.G.G.H.H.H.z.v.v.v.v.z.c.c.c.c.l.l.z.l.c.C i U.XXK.S.H.S.G.S.S.N.N.l.l.c.c.c.c.l.[ { / ; - 1 k m M M N V Z ' c O & |.rXwX6X6X,Xe.R R L L R W T + o 6 j ` A.A.A.A.S.G.G.S.v.B.B.B.v.B.v.v.k.' [ [ [ ' ' ' { J o $ |.rXeXuXeX8X*.: |.+Xw.w.q.q.q.8.r.r.w.w.w.r.w.w.w.8.+.# 5 $.o.Q W +.4 . *XmXMXMXMXNXAXKXHXHXKXPXPXPXPXPXPXPXPXPXPXPXPXPXPXPXPXPXPXPXPXPXPXPXPXPXPXPXPXPXPXPXPXPXPXPXPXPXPXPXPXPXPXPXPXPXPXPXPXPXPXPXPXPXPXPX",
"PXPXPXPXPXPXPXPXPXPXPXPXPXPXPXPXPXPXPXPXPXPXPXPXPXPXPXPXPXPXPXPXPXPXPXPXPXPXPXPXPXPXPXPXPXPXPXPXPXPXPXPXPXPXPXPXPXPXPXPXKXGXdX. w ,XuXuXzX7.@ 0. Xe.e.u.p.r.r.L #.7.3.3.3.7.1.9 P w.*.4 4 Y ^ ..+.~ 4 o : J b V V V M V M V V M M C D.Y.I.I.I.I.R.I.I.Z.V.C.V.M.0 o 5 fXuX,X[.e.e.t.3.o.o.Q #.o...U +   8 v z z z S M S [ Q.(.< O E ).K.R.R.T.Y.E.).Y.Y.Y.T.Y.D.[ XXY.L.R.E.L.L.K.R.K.Y.R.L.E.E.E.E.Y.L.L.Y.R.R.K.K.K.Z.M.G Z N.Y.K.K.L.L.L.E.E.E.L.K.L.J.m.v.v.v.v.v.v.B.V.V.B.v.v.H.K.K.K.K.K.K.L.L.L.L.L.L.L.J.J.L.L.L.L.L.L.L.L.L.L.L.L.L.J.J.J.G.G.K.K.K.J.H.[ n c.D.H.Z.G.H.H.H.z.c.z.z.z.c.c.c.c.c.l.l.z.l.c.C d U.XXK.N.H.S.S.S.S.N.N.l.l.c.c.c.c.l.[ { / ; - 1 k m M M N V Z ' b O & |.9XwX6X6X,Xe.R R L L P P T + o 6 j ` A.A.A.S.m.G.G.S.B.B.S.v.v.B.v.v.l.k.[ [ [ ' ' G [ v o @ |.rXeXuXeX8X*., |.+Xr.w.q.q.q.8.r.r.w.w.w.w.r.w.q.8.+.+ 5 #.Q o.W +.4 . *XmXMXMXMXBXAXKXHXHXPXPXPXPXPXPXPXPXPXPXPXPXPXPXPXPXPXPXPXPXPXPXPXPXPXPXPXPXPXPXPXPXPXPXPXPXPXPXPXPXPXPXPXPXPXPXPXPXPXPXPXPXPXPXPXPX",
"PXPXPXPXPXPXPXPXPXPXPXPXPXPXPXPXPXPXPXPXPXPXPXPXPXPXPXPXPXPXPXPXPXPXPXPXPXPXPXPXPXPXPXPXPXPXPXPXPXPXPXPXPXPXPXPXPXPXPXPXKXGXdX. w ,XuXuXzX7.+ 0. Xe.e.u.p.i.8.h #.7.q.4.4.7.8.Y H 3.*.4 4 ~ ^ ..+.~ : o : J b V V V M M M V V M M C D.Y.I.I.I.I.R.I.I.H.V.C.V.M.h o 5 8XzX,X[.w.w.e.3.:.#.o.#.o...I +   8 v z z z V M S ] Q.(.< O E (.K.R.E.R.E.Y.E.Y.Y.Y.T.Y.D.[ XX).L.R.L.Y.R.I.Y.K.Y.Y.L.E.E.E.E.L.L.L.Y.R.R.K.Y.K.Z.M.G N N.Y.K.K.K.L.L.E.E.E.L.K.L.H.v.v.v.v.v.v.v.B.V.V.S.m.v.G.K.K.K.K.K.K.L.L.L.L.L.L.L.L.L.L.L.L.L.L.L.L.L.L.L.L.L.L.L.J.J.G.G.K.K.K.J.H.D.N C D.H.Z.G.H.H.H.z.c.z.c.c.c.z.c.c.c.l.l.z.l.c.C d Y.XXL.Z.H.H.S.S.S.N.N.l.c.c.c.c.c.[ ' { / ; - y k m M M N V Z ' v O & |.eXwX6X6X,Xe.R R L L P P T + # 6 j ` A.D.D.S.m.v.v.B.B.B.B.v.v.B.v.B.c.' ' ' [ [ [ G [ v o $ +XrXeXuXeX8X*., |.+Xw.w.q.q.q.8.r.r.w.w.w.w.r.w.q.8.+.@ 8 #.o.o.W +.4 . *XmXMXMXMXBXAXKXHXHXPXPXPXPXPXPXPXPXPXPXPXPXPXPXPXPXPXPXPXPXPXPXPXPXPXPXPXPXPXPXPXPXPXPXPXPXPXPXPXPXPXPXPXPXPXPXPXPXPXPXPXPXPXPXPXPX",
"PXPXPXPXPXPXPXPXPXPXPXPXPXPXPXPXPXPXPXPXPXPXPXPXPXPXPXPXPXPXPXPXPXPXPXPXPXPXPXPXPXPXPXPXPXPXPXPXPXPXPXPXPXPXPXPXPXPXPXPXHXFXsX. h <XuXuXzX6.+ 0.+Xr.w.r.r.i.8.K $.1.7.4.q.3.7.W h 6.*., 4 ~ ^ ....O.= o : J J / V C C M M V V V M C N.I.I.I.I.I.R.I.I.Z.N.V.B.M.0 o 5 5XzX4X{.w.w.w.3.=.=.o.#.Q ..K +   8 b v z z S z M [ Q.U.< O ) .XH.Y.E.Y.E.).(.(.).E.L.U.D.[ .XE.L.T.L.L.Y.I.K.K.K.R.L.E.E.E.E.L.L.L.E.L.Y.L.L.K.V.l.' Z Z.U.K.K.L.L.Y.E.E.L.L.L.L.J.m.v.v.v.v.v.v.m.m.b.B.B.B.G.K.K.I.K.K.J.K.L.L.L.L.L.L.L.L.L.L.L.L.L.L.L.L.H.J.L.L.L.H.L.L.J.J.K.K.K.J.J.H.[ p A.D.G.C.H.J.J.z.v.z.k.x.c.v.v.c.c.l.l.z.l.c.V d ).XXU.N.H.H.S.B.N.N.N.c.l.[ k.[ [ k.k.{ V ; - y k m m M N N A ` x + & {.rXwX1X6X,Xe.R L R R R E W @ o 6 j _ A.D.S.A.M.v.B.B.v.m.S.v.v.v.v.v.z.[ ' ' ' [ [ ' [ v O $ |.rXeXeXrX8X$., {.+Xw.w.q.w.q.w.r.w.w.w.w.r.w.e.w.8.+.# 5 #.#.o.W +.4 . *XmXMXVXNXBXAXHXKXKXKXPXPXPXPXPXPXPXPXPXPXPXPXPXPXPXPXPXPXPXPXPXPXPXPXPXPXPXPXPXPXPXPXPXPXPXPXPXPXPXPXPXPXPXPXPXPXPXPXPXPXPXPXPXPXPX",
"PXPXPXPXPXPXPXPXPXPXPXPXPXPXPXPXPXPXPXPXPXPXPXPXPXPXPXPXPXPXPXPXPXPXPXPXPXPXPXPXPXPXPXPXPXPXPXPXPXPXPXPXPXPXPXPXPXPXPXPXHXFXsX. w <XuXuXzX6.+ 0.+Xr.w.r.e.i.8.K $.1.q.q.q.3.8.:.h %.&., 4 ~ ^ ....! = o * R J / / C C M M V V V M C N.I.I.I.I.K.I.K.I.Z.Z.C.B.;.0 o 5 5XzX4X{.w.e.e.4.=.o.Q ^ Q Q U +   8 b v z M S z z [ Q.(.< O ) .XU.Y.E.L.E.).(.Y.).E.L.U.D.[ .XE.L.T.L.L.I.I.K.K.K.L.L.R.E.E.Y.L.L.L.Y.Y.L.L.L.K.V.c.' Z N.U.K.T.L.L.Y.E.E.L.L.L.L.J.m.v.v.v.v.v.m.m.m.b.B.B.B.Z.H.K.I.K.K.K.K.L.L.L.L.J.L.J.J.L.L.L.J.J.J.L.J.H.L.L.J.H.H.H.L.K.K.K.K.J.J.G.Z.S.m V J.G.G.Z.G.G.z.v.z.c.c.c.c.c.c.c.c.l.z.l.c.B k ).XXI.N.Z.S.N.B.B.B.B.M.l.[ k.[ [ [ k.{ V ; - y k m m M M N A ` x O & |.rXwX1X6X,Xe.R L R R R E T + o 6 j _ A.A.D.M.M.M.M.B.m.m.S.v.v.v.v.v.z.[ ' ' ' [ [ ' [ v O $ |.rXeXeXrX8X$., {.+Xw.w.q.8.q.w.w.w.w.w.w.r.w.e.w.8.+.+ 5 #.#.Q W +.4 . h.mXMXVXNXBXAXHXKXKXPXPXPXPXPXPXPXPXPXPXPXPXPXPXPXPXPXPXPXPXPXPXPXPXPXPXPXPXPXPXPXPXPXPXPXPXPXPXPXPXPXPXPXPXPXPXPXPXPXPXPXPXPXPXPXPX",
"PXPXPXPXPXPXPXPXPXPXPXPXPXPXPXPXPXPXPXPXPXPXPXPXPXPXPXPXPXPXPXPXPXPXPXPXPXPXPXPXPXPXPXPXPXPXPXPXPXPXPXPXPXPXPXPXPXPXPXPXKXFXsXX H <XuXuXzX6.+ 0.+Xr.r.r.r.i.8.K *.1.q.w.q.q.w.,.K ^ &., , ! ^ ....! 3 o : J J / V C V M M M V V M C N.I.I.I.I.I.I.I.I.Z.Z.C.B.;.0 o 5 5XzX4X{.e.e.e.3.o.o.Q Q E E U +   0 b v z M S z z ] Q.(.< O ) .XU.Y.R.L.E.).Y.Y.E.E.L.L.H.l.).Y.K.T.R.Y.Y.K.K.L.Y.L.L.L.L.Y.L.L.L.Y.Y.L.L.L.L.K.V.c.' Z N.Y.R.R.Y.L.L.Y.E.Y.L.L.L.J.v.v.v.v.v.v.v.m.m.b.v.B.z.B.H.H.K.I.K.K.K.L.L.L.L.L.L.H.H.L.L.J.H.J.J.L.J.H.H.H.H.H.H.H.H.J.K.J.J.J.J.G.G.S.' p c.H.G.G.G.G.z.v.z.c.c.c.c.c.c.c.c.l.k.c.c.m c ).XXI.Z.G.G.N.B.B.B.B.M.l.l.k.[ [ ' k.{ V ; - y k m m M M N A ` x O * |.eXwXwX6X,Xe.R L R R R E P +   6 j _ A.A.A.M.M.M.M.v.m.S.S.v.v.v.v.v.v.l.' [ ' ' [ ' [ v O $ |.rXeXeXrX8X$., {.+Xw.q.q.r.q.w.w.w.w.w.w.r.w.w.w.8.O.+ 5 #.o.Q Q +.4 X h.mXMXVXNXBXAXKXKXKXPXPXPXPXPXPXPXPXPXPXPXPXPXPXPXPXPXPXPXPXPXPXPXPXPXPXPXPXPXPXPXPXPXPXPXPXPXPXPXPXPXPXPXPXPXPXPXPXPXPXPXPXPXPXPXPX",
"PXPXPXPXPXPXPXPXPXPXPXPXPXPXPXPXPXPXPXPXPXPXPXPXPXPXPXPXPXPXPXPXPXPXPXPXPXPXPXPXPXPXPXPXPXPXPXPXPXPXPXPXPXPXPXPXPXPXPXPXKXFXsX% h <XuXuXzX6.+ 0.+Xr.r.r.r.i.8.h *.3.q.q.q.q.q.7.U Y O., , ! ^ ....~ : o : J J J V V V M M M V V M C N.I.I.I.I.I.I.I.I.Z.Z.C.B.;.0 o 5 5XzX4X[.w.e.e.3.o.o.Q #.Q E U +   0 b z z M M z z ] Q.(.< O E (.H.Y.R.L.Y.Y.Y.Y.E.E.L.L.J.B.).Y.K.R.R.Y.L.L.L.L.E.Y.E.L.L.Y.L.L.Y.Y.Y.L.L.L.L.J.V.c.' Z N.Y.R.R.R.L.L.L.E.Y.L.K.L.H.v.v.v.v.v.v.v.m.m.b.v.B.z.B.H.K.K.K.K.K.L.L.L.L.L.L.L.J.H.L.L.J.H.H.J.L.J.H.H.H.H.H.H.J.G.H.K.G.H.H.H.G.G.H.D.m A D.H.H.H.Z.z.v.z.c.c.c.c.c.c.c.c.l.k.c.c.m c ).XXI.Z.H.H.S.S.S.S.S.M.l.c.k.[ [ ' k.{ V ; - y k m m m N N A ` x O * |.rXwXwX6X,Xe.R R R L R E P + o 6 j _ A.M.M.M.M.M.M.B.m.S.S.B.M.B.v.v.v.c.' [ [ ' [ [ [ v O $ |.rXeXeXrX8X$., g.+Xw.q.w.8.q.w.w.q.w.w.w.r.r.w.w.8.O.+ 8 #.Q Q Q +.4 X h.mXMXNXMXBXAXKXKXKXPXPXPXPXPXPXPXPXPXPXPXPXPXPXPXPXPXPXPXPXPXPXPXPXPXPXPXPXPXPXPXPXPXPXPXPXPXPXPXPXPXPXPXPXPXPXPXPXPXPXPXPXPXPXPXPX",
"PXPXPXPXPXPXPXPXPXPXPXPXPXPXPXPXPXPXPXPXPXPXPXPXPXPXPXPXPXPXPXPXPXPXPXPXPXPXPXPXPXPXPXPXPXPXPXPXPXPXPXPXPXPXPXPXPXPXPXPXKXFXsX% h <XuXuXzX6.+ 0.+Xr.r.r.i.i.8.h $.,.7.q.q.4.3.8.W I O., , Y ^ W ..! : o - J J b V V V V M V b V M D Z.I.I.I.I.I.I.I.I.H.I.C.B.M.0 o 8 5XzX4X[.e.e.e.3.#.#.#.#.Q ..U +   0 b z z z M z z ] Q.(.< + J (.H.Y.R.R.Y.Y.Y.E.E.E.L.L.L.H.Y.L.L.R.R.Y.Y.L.Y.Y.Y.Y.Y.Y.Y.Y.L.L.E.Y.L.Y.Y.L.L.J.V.c.G Z N.I.R.T.L.L.L.L.E.E.L.K.L.H.v.v.v.V.v.v.b.m.m.b.S.B.z.N.H.K.K.K.K.K.L.L.L.L.L.L.L.L.L.L.L.L.L.L.L.H.H.H.H.H.H.H.H.H.G.H.G.G.G.G.H.H.G.H.H.' m } D.H.H.N.l.v.v.z.v.v.v.c.c.c.l.k.k.k.c.m c _.XXK.Z.H.G.G.H.H.H.S.M.c.c.l.[ [ k.k.{ V ; - y k m M m V N Z ` x O * {.rXwXwX6X,Xe.R L R L R E P o o < j D A.M.A.S.M.M.B.S.v.S.S.S.S.M.v.v.v.c.' [ [ ' [ ' [ v O $ |.rXeXeXrX8X#., g.+Xr.q.q.q.q.q.q.q.q.w.w.r.r.w.w.8.O.+ 8 #.Q Q Q +.4 X h.mXVXVXNXNXAXKXPXPXPXPXPXPXPXPXPXPXPXPXPXPXPXPXPXPXPXPXPXPXPXPXPXPXPXPXPXPXPXPXPXPXPXPXPXPXPXPXPXPXPXPXPXPXPXPXPXPXPXPXPXPXPXPXPXPX",
"PXPXPXPXPXPXPXPXPXPXPXPXPXPXPXPXPXPXPXPXPXPXPXPXPXPXPXPXPXPXPXPXPXPXPXPXPXPXPXPXPXPXPXPXPXPXPXPXPXPXPXPXPXPXPXPXPXPXPXPXKXFXsX% h <XuXuXzX0.+ 0.+Xr.r.r.e.r.8.K $.,.q.q.q.q.4.8.#.K ~ , , ! ^ W ..! : o : J J b V C V M M V V V M C Z.I.I.I.I.I.R.I.I.H.I.C.B.M.0 o 8 5XzX4X[.t.e.e.3.#.#.#.#.Q ..K +   8 z z z z z z z ] Q.(.< O J (.H.Y.E.R.Y.Y.E.E.E.E.L.L.Y.E.R.L.Y.R.R.R.R.Y.Y.Y.E.E.E.Y.Y.E.R.L.L.E.L.L.Y.L.L.J.V.c.G Z N.I.R.T.L.E.L.L.Y.Y.Y.K.K.H.v.v.v.V.v.v.b.m.m.m.B.B.v.B.G.I.K.K.K.K.L.L.L.L.L.L.L.L.L.J.H.L.L.L.L.H.H.H.H.H.H.H.G.G.Z.H.H.H.G.K.H.H.H.J.H.D.m _ A.D.H.H.l.v.v.v.v.v.v.z.v.c.c.l.l.k.c.m c .XXXK.Z.Z.G.N.G.G.H.S.B.c.l.l.[ [ k.k.{ V ; - y k m M m N N Z ` x O * {.rXwXwX6X,Xe.L L L L R E P o o < j D A.M.A.S.B.M.B.B.A.v.A.S.S.M.v.v.v.c.' ' ' [ [ ' [ v O & |.rXeXeXrX8X#., d.+Xr.q.q.q.q.q.w.w.w.w.w.r.w.w.w.8.O.+ 8 #.Q Q Q +.4 X @XmXVXNXNXNXAXHXPXPXPXPXPXPXPXPXPXPXPXPXPXPXPXPXPXPXPXPXPXPXPXPXPXPXPXPXPXPXPXPXPXPXPXPXPXPXPXPXPXPXPXPXPXPXPXPXPXPXPXPXPXPXPXPXPXPX",
"PXPXPXPXPXPXPXPXPXPXPXPXPXPXPXPXPXPXPXPXPXPXPXPXPXPXPXPXPXPXPXPXPXPXPXPXPXPXPXPXPXPXPXPXPXPXPXPXPXPXPXPXPXPXPXPXPXPXPXPXKXFXdX# h ,XuXuXzX0.+ 0.+Xr.r.e.w.e.w.K $.,.q.q.e.w.w.7.*.K ~ , , ! ^ #...~ : o - J J b V V V V M V V V M S Z.I.I.I.I.I.R.I.H.H.I.C.N.M.0 o 8 5XrX4X].t.w.r.7.#.#.#.Q Q Q K +   8 z z z z z z z [ Q.U.< O J (.H.I.R.R.Y.E.E.E.).Y.L.Y.L.R.T.T.L.L.T.R.E.R.E.E.).).).E.E.E.E.L.L.E.L.L.Y.L.L.J.V.c.G Z N.I.R.R.E.Y.Y.Y.L.L.R.K.K.G.v.v.v.V.v.v.b.b.b.b.S.B.v.B.G.K.K.K.K.K.L.L.L.L.L.L.L.L.L.L.H.L.L.L.L.H.H.H.H.G.G.G.Z.N.N.Z.Z.Z.G.K.H.K.H.H.K.J.] k } D.H.S.l.l.v.v.v.v.v.v.v.v.c.l.l.k.c.m c .XXXK.B.N.G.N.G.G.G.S.B.c.k.l.[ [ k.k.[ V ; - y k m M m V N Z ` x + * {.rXwXwX6X>Xe.R L L L R E P o o < j D A.M.M.D.M.v.M.B.A.v.M.S.S.M.v.z.M.c.[ ' ' [ [ [ [ v O $ +XrXeXeXuX8X#.: d.+Xw.q.q.q.q.w.w.w.w.q.w.8.8.w.w.8.O.+ 8 #.Q Q W +.4 X h.mXNXNXNXNXAXHXPXPXPXPXPXPXPXPXPXPXPXPXPXPXPXPXPXPXPXPXPXPXPXPXPXPXPXPXPXPXPXPXPXPXPXPXPXPXPXPXPXPXPXPXPXPXPXPXPXPXPXPXPXPXPXPXPXPX",
"PXPXPXPXPXPXPXPXPXPXPXPXPXPXPXPXPXPXPXPXPXPXPXPXPXPXPXPXPXPXPXPXPXPXPXPXPXPXPXPXPXPXPXPXPXPXPXPXPXPXPXPXPXPXPXPXPXPXPXPXKXGXsX. w ,XxXuXzX8.@ 9.+Xw.r.w.r.w.8.H o.3.3.q.q.w.8.3.1.K Y : , Y +.+.+.T :   $ J J V V V V V M S S V V C D.I.I.I.I.I.R.I.I.I.I.K.V.M.h o 8 5XlX4X{.t.t.t.3.#.#.#.o.Q E U +   8 b v z z z z z [ ).(.1 - J (.H.Y.I.I.R.E.).).).E.Y.L.Y.E.L.L.L.L.L.R.L.E.R.L.L.E.E.L.Y.Y.E.R.R.L.K.L.Y.Y.K.H.V.z.G Z N.K.K.K.L.Y.L.Y.Y.E.R.Y.K.G.V.v.V.v.v.v.b.m.b.m.m.v.v.v.B.H.H.H.K.H.U.L.L.L.L.L.L.L.L.J.J.H.H.H.H.H.J.G.C.H.D.{ / d d v | D.H.H.Z.Z.H.G.C.G.M.m _ F.D.C.z.z.v.v.v.v.v.v.c.c.c.k.l.k.c.k c .XXXH.V.Z.S.S.Z.G.G.G.S.v.k.l.l.l.' ' ` V ; - y k N m m N N A ' x O * {.eXeXrX9X,Xe.R R L L R E P o o < x C A.M.B.S.S.v.v.A.v.v.S.S.v.v.M.M.c.c.' G ' [ G G ] J O @ |.rXeXrXuX8X%., |.+Xw.q.q.w.q.q.w.w.q.w.w.8.w.w.w.8.+.+ 8 +...Q Q +.4 X ;XmXNXNXBXBXAXHXPXPXPXPXPXPXPXPXPXPXPXPXPXPXPXPXPXPXPXPXPXPXPXPXPXPXPXPXPXPXPXPXPXPXPXPXPXPXPXPXPXPXPXPXPXPXPXPXPXPXPXPXPXPXPXPXPXPX",
"PXPXPXPXPXPXPXPXPXPXPXPXPXPXPXPXPXPXPXPXPXPXPXPXPXPXPXPXPXPXPXPXPXPXPXPXPXPXPXPXPXPXPXPXPXPXPXPXPXPXPXPXPXPXPXPXPXPXPXPXKXGXsX. w ,XxXuXzX8.@ 9.+Xw.r.r.r.w.r.K ..3.7.w.q.w.8.3.3.U Y , , T +.+.+.T :   $ J J V V V V V M V V V V C D.I.I.I.I.I.I.I.I.I.I.K.Z.M.h o 8 5XzX,X{.t.t.t.3.#.#.^ +.Q E U +   0 v v z z z z z [ (.(.1 - J (.H.Y.I.I.R.E.).E.E.E.Y.Y.Y.Y.L.Y.L.L.L.L.Y.Y.Y.L.Y.Y.L.L.L.L.L.L.L.L.L.L.Y.L.L.G.V.z.' Z N.I.I.K.L.L.L.Y.Y.E.Y.K.L.G.V.v.V.v.v.v.b.m.m.m.m.v.v.v.B.H.K.K.K.H.L.L.L.L.L.L.J.L.L.J.J.H.H.H.H.H.H.G.Z.M.C p p k k i i D D.H.G.K.G.G.H.G.S.] m A.D.Z.z.z.z.z.c.c.v.v.v.c.c.k.l.l.c.k B .XXXK.Z.Z.S.S.Z.G.G.G.G.v.k.l.l.l.' ' ` V ; - y k N m m N N A ' x O * {.eXeXeX9X,Xe.R R L L R E T o o < x C A.A.B.M.B.v.A.A.M.v.A.A.M.v.M.M.z.c.[ G ' ' G G ] J O @ |.rXrXeXuX8X%., |.+Xw.w.q.w.q.q.w.w.q.w.w.w.w.w.w.8.+.@ 8 +...Q E +.4 . ;XmXNXNXBXBXAXHXPXPXPXPXPXPXPXPXPXPXPXPXPXPXPXPXPXPXPXPXPXPXPXPXPXPXPXPXPXPXPXPXPXPXPXPXPXPXPXPXPXPXPXPXPXPXPXPXPXPXPXPXPXPXPXPXPXPX",
"PXPXPXPXPXPXPXPXPXPXPXPXPXPXPXPXPXPXPXPXPXPXPXPXPXPXPXPXPXPXPXPXPXPXPXPXPXPXPXPXPXPXPXPXPXPXPXPXPXPXPXPXPXPXPXPXPXPXPXPXKXGXsX. w 4XxXuXzX8.@ 9.+Xe.r.r.r.r.i.P P 3.7.w.w.w.w.w.8.T Y 5 , Y +.+.+.T :   $ J J V V V V V V V V V V C D.I.I.I.I.I.K.I.I.I.I.K.Z.A.h o 8 8XzX4X{.t.t.t.3.#.#.^ #.Q E U +   0 z z z z z z z [ ).(.1 O J (.H.Y.I.I.R.E.).E.E.E.L.L.L.L.Y.E.L.L.L.L.L.L.L.Y.E.Y.L.L.Y.L.K.L.L.L.L.L.Y.L.K.G.B.z.' Z Z.I.Y.K.L.L.L.Y.Y.E.R.K.K.J.V.v.V.v.v.v.b.m.m.m.m.v.v.v.B.H.L.K.K.H.K.L.L.L.L.L.J.J.J.J.J.L.H.H.H.H.H.H.A.C p M { c.c.{ m p ` D.J.K.G.G.H.G.H.A.m D D.B.z.z.z.c.c.c.v.v.v.c.c.k.l.l.c.p V .XXXK.Z.Z.S.S.G.G.N.B.G.B.k.k.[ [ ' ' ] / ; - y k N m m N N A ' x O * {.eXeXeX6X,Xe.R R L L W E T o # < x C A.A.M.M.B.S.S.S.A.v.A.v.v.A.M.M.M.M.l.' ' ' G G ] J O @ |.uXrXuXuX8X%.: f.+Xw.w.q.w.q.q.w.w.q.w.w.w.w.w.w.8.+.$ 8 +.o.X.Q +.4 . ;XmXNXNXBXBXAXHXPXPXPXPXPXPXPXPXPXPXPXPXPXPXPXPXPXPXPXPXPXPXPXPXPXPXPXPXPXPXPXPXPXPXPXPXPXPXPXPXPXPXPXPXPXPXPXPXPXPXPXPXPXPXPXPXPXPX",
"PXPXPXPXPXPXPXPXPXPXPXPXPXPXPXPXPXPXPXPXPXPXPXPXPXPXPXPXPXPXPXPXPXPXPXPXPXPXPXPXPXPXPXPXPXPXPXPXPXPXPXPXPXPXPXPXPXPXPXPXKXGXsX% w ,XxXuXzX8.: 9.+Xr.r.t.r.r.i.W L 3.3.w.w.w.w.4.w.W I 5 , Y +.+...T : o $ J J b V V V V V z b V V C D.I.I.I.I.I.K.I.I.I.I.K.Z.A.0 o 8 8XrX4X].e.w.e.3.#.#.#...Q E K +   0 z z z z z z z ] (.(.1 - J (.H.Y.R.K.R.E.E.E.E.E.E.E.Y.Y.R.R.Y.R.L.L.Y.L.L.L.Y.Y.Y.L.Y.L.L.L.L.L.L.L.E.L.L.G.B.z.G Z N.K.Y.K.L.L.L.E.Y.E.L.K.L.J.V.v.v.v.v.v.m.m.m.m.v.v.v.B.M.H.L.K.K.H.K.L.L.J.J.L.J.J.J.J.J.U.K.K.G.G.H.D._ i C M.D.M.M.n.} B d } H.J.H.G.G.Z.G.D.] m M.M.z.l.c.c.c.c.c.v.v.v.c.l.z.l.c.p V .XXXK.Z.G.G.S.G.G.S.S.G.G.l.k.l.[ ' ' ] / ; - y d N m M N N Z ' x o * {.eXwXeX9X,Xe.L R L R W E T + # < j V A.M.M.v.B.G.S.S.v.v.v.v.A.S.B.B.B.v.l.' ' G G G ] J O @ |.rXrXeXuX8X%., [.+Xw.q.q.8.w.q.w.q.q.w.w.r.w.w.8.6.O.@ 8 +...Q ..+.4 . *XmXNXNXBXBXAXHXKXPXPXPXPXPXPXPXPXPXPXPXPXPXPXPXPXPXPXPXPXPXPXPXPXPXPXPXPXPXPXPXPXPXPXPXPXPXPXPXPXPXPXPXPXPXPXPXPXPXPXPXPXPXPXPXPXPX",
"PXPXPXPXPXPXPXPXPXPXPXPXPXPXPXPXPXPXPXPXPXPXPXPXPXPXPXPXPXPXPXPXPXPXPXPXPXPXPXPXPXPXPXPXPXPXPXPXPXPXPXPXPXPXPXPXPXPXPXPXKXGXsX% w ,XxXxXzX8.: 9.+Xr.r.r.r.r.i...H 7.3.w.w.w.w.4.w.+.I 4 , ! +.+...T : o $ J J b V V V V V b b V V C N.I.I.I.K.I.I.R.I.I.I.K.Z.A.0 o 5 5XrX4X].w.w.w.3.#.#.^ ..E P K +   0 z z z z z z z ` Y.(.1 - J (.H.Y.R.K.R.).E.E.E.E.E.E.R.I.R.E.R.E.L.Y.).L.L.L.Y.Y.R.L.L.L.L.Y.L.L.L.L.E.L.L.G.v.z.G N Z.I.Y.R.Y.R.R.E.L.R.K.K.L.J.V.v.v.m.v.v.m.m.m.b.v.v.v.B.M.H.L.H.K.H.H.H.H.J.J.J.J.J.J.J.J.L.K.K.C.G.J.n.k c } D.Z.V.V.B.v.{ p m D.J.H.G.G.Z.Z.G.M.m F v.l.l.c.c.c.c.c.c.v.v.c.l.z.k.c.p c .XXXK.Z.G.G.G.G.G.G.G.B.V.z.k.l.[ ' ' [ V ; - y d N N M N N Z ' x o * {.eXwXeX6X>Xe.L R L R W E T + # < j M A.M.B.v.v.G.S.S.v.v.v.v.S.S.B.v.v.v.c.' ' ' G G ] J O @ |.rXeXeXuX8X%.: {.#Xw.q.w.8.r.w.q.q.q.w.w.r.w.w.8.6.~ @ 8 +.Q Q ..+.4 . h.mXNXNXBXBXAXHXKXPXPXPXPXPXPXPXPXPXPXPXPXPXPXPXPXPXPXPXPXPXPXPXPXPXPXPXPXPXPXPXPXPXPXPXPXPXPXPXPXPXPXPXPXPXPXPXPXPXPXPXPXPXPXPXPXPX",
"PXPXPXPXPXPXPXPXPXPXPXPXPXPXPXPXPXPXPXPXPXPXPXPXPXPXPXPXPXPXPXPXPXPXPXPXPXPXPXPXPXPXPXPXPXPXPXPXPXPXPXPXPXPXPXPXPXPXPXPXHXGXsX% 0 ,XxXxXzX8.@ 6.+Xr.w.r.r.r.r.$.9 1.3.w.w.w.w.w.e.*.w 8 , ! +.+...T : o : J J b b V V V V b b V V C N.I.I.I.I.I.R.R.I.I.I.K.K.D.0 o 5 8XrX4X].e.w.w.3.#.#.^ ..E E K +   6 z z z z z z z ` Y.P.1 - J (.H.I.R.K.Y.Y.E.E.E.E.E.Y.Y.R.R.R.I.Y.Y.Y.).L.L.L.Y.Y.R.E.L.Y.Y.L.L.L.L.L.L.L.L.G.v.z.G Z N.H.K.K.L.L.L.E.Y.Y.K.K.L.J.v.v.v.v.v.v.m.b.b.b.m.v.v.z.z.G.H.H.H.H.H.H.H.J.L.L.L.L.L.L.L.L.K.K.C.G.F.C i ] M.Z.V.V.V.B.v.n.( i } D.H.G.G.Z.Z.G.S.` m c.c.c.c.v.c.c.c.c.c.c.c.l.z.k.c.k c .X_.K.Z.G.G.G.G.G.G.S.B.B.z.k.[ [ ' ' [ V ; - y k N m M M N Z ' x o * {.eXwXeX9X,Xe.L R L R W E T + # < j M A.M.B.v.v.b.m.S.v.v.v.v.v.v.v.v.v.v.c.' ' ' G G ] J O @ {.rXeXrXrX8X%.: |.#Xw.q.w.8.w.w.q.q.w.w.w.r.w.w.8.6.~ @ 8 +.Q Q Q +.4 . h.mXNXNXBXBXAXKXKXPXPXPXPXPXPXPXPXPXPXPXPXPXPXPXPXPXPXPXPXPXPXPXPXPXPXPXPXPXPXPXPXPXPXPXPXPXPXPXPXPXPXPXPXPXPXPXPXPXPXPXPXPXPXPXPXPX",
"PXPXPXPXPXPXPXPXPXPXPXPXPXPXPXPXPXPXPXPXPXPXPXPXPXPXPXPXPXPXPXPXPXPXPXPXPXPXPXPXPXPXPXPXPXPXPXPXPXPXPXPXPXPXPXPXPXPXPXKXHXGXsXX 0 ,XxXxXzX8.@ 6.+Xr.w.r.w.r.r.1.0 1.3.w.e.e.w.w.r.,.q 8 , O.+.+...T : o : J J b b V V V V b b V V C N.I.I.I.I.I.R.R.I.I.I.T.I.F.h o 5 8XzX9X{.r.w.r.3.#.#.#.W E E K +   6 z z z z z z z ` Y.P.1 - J (.Z.I.E.K.Y.Y.E.E.E.E.R.K.L.R.R.R.I.L.E.E.).).L.L.Y.I.R.E.L.Y.Y.L.L.L.L.L.L.L.L.G.v.z.G Z Z.I.K.K.L.L.L.E.Y.Y.J.K.L.J.v.v.v.v.v.v.m.b.b.b.m.v.v.z.z.G.H.H.H.H.H.H.H.J.L.L.L.L.L.L.L.L.K.C.C.G.A.i m A.B.V.V.C.V.B.v.m.m.p M F.H.H.H.V.G.G.S.} m ` c.c.l.c.c.c.v.c.x.x.c.l.z.l.c.k c .X_.H.Z.G.G.G.S.G.G.S.B.B.B.k.[ [ ' ' [ V ; - y k N m m M N Z ' x o * |.eXeXeX9X,Xe.L R L R W E T + # < j M A.M.B.v.v.v.m.S.v.v.v.v.v.v.v.v.v.v.c.' ' ' G G ] J O @ |.rXeXrXrX8X%.: |.#Xw.q.w.8.w.w.q.q.w.r.w.r.w.w.8.6.~ @ 8 #...Q Q +.4 . h.mXNXNXBXBXAXKXKXKXKXKXPXPXPXPXPXPXPXPXPXPXPXPXPXPXPXPXPXPXPXPXPXPXPXPXPXPXPXPXPXPXPXPXPXPXPXPXPXPXPXPXPXPXPXPXPXPXPXPXPXPXPXPXPXPX",
"PXPXPXPXPXPXPXPXPXPXPXPXPXPXPXPXPXPXPXPXPXPXPXPXPXPXPXPXPXPXPXPXPXPXPXPXPXPXPXPXPXPXPXPXPXPXPXPXPXPXPXPXPXPXPXPXPXPXPXPXKXHXsX% 0 ,XxXxXxXw.* 6.+Xr.w.w.w.w.i.6.9 1.3.w.w.w.w.q.e.1.0 8 4 ! +.....~ =   : J b b V V b b b b b V V C D.U.I.R.T.K.I.I.I.U.I.K.I.D.0 o 6 8XzX4X[.e.e.r.6.#.o...W Q Q U +   0 z z z z z z z ` Y.P.1 O J (.Z.U.Y.Y.Y.Y.L.L.E.E.E.Y.Y.E.E.E.L.E.E.E.).L.L.R.Y.I.K.K.L.L.L.L.L.L.L.L.L.L.K.V.V.z.' Z Z.I.K.L.L.L.L.Y.Y.Y.L.L.L.J.V.v.v.b.b.b.b.b.b.b.v.v.v.v.m.G.J.H.H.L.L.L.K.K.L.J.J.J.J.J.J.H.G.J.H.F.{ u ` D.N.Z.Z.G.G.B.v.B.M.C p <.H.H.H.H.G.J.G.B.N V } c.c.k.v.v.z.x.v.v.c.k.l.l.c.k c .XXXG.V.B.N.Z.V.V.V.G.B.B.M.[ l.l.' [ ] V ; - y d N N m M N Z ' x o * |.rXeX6X6X>Xe.R R L R R E U + o < x V <.M.M.v.v.v.m.m.v.v.v.v.v.v.S.v.v.z.c.' ' ' ' G ] J @ & |.rXeXeXeX8X*., d.#X4.q.q.w.w.w.w.r.w.w.w.8.r.w.w.7.@.@ 8 +.Q E ..+.5 . h.mXNXNXBXNXAXJXKXPXKXKXPXPXPXPXPXPXPXPXPXPXPXPXPXPXPXPXPXPXPXPXPXPXPXPXPXPXPXPXPXPXPXPXPXPXPXPXPXPXPXPXPXPXPXPXPXPXPXPXPXPXPXPXPXPX",
"PXPXPXPXPXPXPXPXPXPXPXPXPXPXPXPXPXPXPXPXPXPXPXPXPXPXPXPXPXPXPXPXPXPXPXPXPXPXPXPXPXPXPXPXPXPXPXPXPXPXPXPXPXPXPXPXPXPXPXPXKXGXsX% 0 ,XxXxXxXw.& 5.+Xr.w.w.w.w.i.8.0 ,.3.w.w.w.w.q.e.7.w 5 4 ! +.W ..~ =   : J b b V V b b b b b V V C D.I.I.R.R.K.I.I.I.U.I.I.I.F.h o 6 5XzX4X[.e.e.r.6.#.....W Q Q U +   0 z z z z z z z ` Y.P.1 - J (.H.U.U.U.Y.Y.L.Y.E.E.E.Y.Y.E.E.E.L.L.L.L.L.L.L.Y.Y.K.K.L.L.L.L.L.L.L.L.L.L.L.K.V.V.z.' Z N.I.I.L.L.L.L.Y.Y.Y.L.L.L.J.V.v.v.b.b.b.b.b.b.b.v.v.v.v.m.G.J.H.K.L.L.L.K.H.J.J.J.J.J.J.J.H.G.G.G.D./ i } M.N.Z.Z.G.G.V.B.B.M.[ p ` H.H.H.H.G.H.G.B.` V } c.c.c.v.v.z.x.v.v.c.k.z.l.c.p c .XXXG.V.B.N.N.G.G.G.G.B.B.M.l.l.l.' [ ] V ; - y d N N m M N Z ' x o * |.rXeX6X6X>Xe.R R L R R E Y + o < x V <.M.M.v.v.v.m.m.v.v.v.v.v.v.v.v.v.z.c.' ' ' ' G ] J @ & |.rXeXeXrX8X*., d. X4.q.q.w.w.q.w.w.w.w.w.9.w.w.8.7.~ @ 8 +.Q E ..+.5 . h.mXNXNXBXNXAXHXKXPXPXPXPXPXPXPXPXPXPXPXPXPXPXPXPXPXPXPXPXPXPXPXPXPXPXPXPXPXPXPXPXPXPXPXPXPXPXPXPXPXPXPXPXPXPXPXPXPXPXPXPXPXPXPXPXPX",
"PXPXPXPXPXPXPXPXPXPXPXPXPXPXPXPXPXPXPXPXPXPXPXPXPXPXPXPXPXPXPXPXPXPXPXPXPXPXPXPXPXPXPXPXPXPXPXPXPXPXPXPXPXPXPXPXPXPXPXPXHXGXsXX 0 ,XxXxXzXq.& 6.+Xr.r.w.w.w.i.0.9 $.3.w.w.w.w.q.e.8.q 5 4 Y +.Q ..~ 3   : R b b V V b b b b b V V C D.I.I.R.R.K.I.I.I.U.I.R.I.F.0 o 6 5XzX4X[.e.e.r.7.#.o...W Q Q U +   6 z z z z z z z ] Y.P.1 O J (.H.I.Y.K.Y.Y.L.L.E.E.E.Y.Y.Y.Y.L.L.L.L.L.L.L.L.L.L.K.I.L.L.Y.Y.L.L.Y.Y.L.L.L.K.V.B.z.' Z N.I.I.L.L.L.Y.Y.Y.Y.L.L.L.J.V.v.v.m.m.b.b.b.b.m.v.v.v.v.m.G.J.K.K.L.L.L.H.H.J.J.L.L.L.L.L.H.H.K.H.D.k c M.M.V.Z.Z.G.G.Z.Z.B.M.M.m B D.H.H.G.G.H.G.N.c.C ' c.z.v.v.z.z.k.z.z.l.k.l.k.c.k c .XXXG.V.B.N.N.G.G.G.G.B.B.M.c.k.l.' [ ] / ; - y d N N m M N Z ' x o * |.rXeX6X6X>Xe.R R L L R E Y + o < g B <.M.M.M.v.v.m.n.v.v.v.v.v.v.v.n.v.z.M.[ ' ' ' G ] J @ & |.rXeXeXrX8X&., d.#X4.q.q.w.w.q.q.w.w.w.w.8.8.w.7.7.T @ 8 +.Q E W +.5 . h.mXNXNXBXNXAXHXKXPXPXPXPXPXPXPXPXPXPXPXPXPXPXPXPXPXPXPXPXPXPXPXPXPXPXPXPXPXPXPXPXPXPXPXPXPXPXPXPXPXPXPXPXPXPXPXPXPXPXPXPXPXPXPXPXPX",
"PXPXPXPXPXPXPXPXPXPXPXPXPXPXPXPXPXPXPXPXPXPXPXPXPXPXPXPXPXPXPXPXPXPXPXPXPXPXPXPXPXPXPXPXPXPXPXPXPXPXPXPXPXPXPXPXPXPXPXPXHXGXsXX 0 ,XxXuXzXw.@ 6.+Xr.w.w.w.w.i.i.h ..1.w.e.w.w.q.r.8.I 3 4 ! +.Q Q T 3   - J v b V V V V b b b b M C D.I.I.R.T.K.K.I.I.U.I.I.I.F.0 o 5 8XlX4X[.e.t.r.7.#.o...#.Q Q U + o 6 v z z z z z z F Y.P.1 O J (.Z.K.Y.Y.Y.E.Y.E.E.E.E.E.Y.L.L.E.L.E.E.Y.E.Y.L.L.L.L.L.L.L.Y.E.Y.Y.Y.Y.L.L.L.J.B.v.l.' Z N.I.I.L.L.L.L.L.L.L.L.L.L.J.V.v.v.m.v.v.b.b.b.b.v.v.v.v.m.v.G.K.K.K.K.L.H.H.J.J.L.L.J.L.J.H.J.K.H.M.i / M.B.Z.Z.Z.G.G.G.Z.N.B.M.V k A.H.G.G.G.G.H.N.M.F [ v.v.c.v.v.z.k.k.x.k.l.k.k.c.k c XX.XG.Z.G.G.Z.G.G.G.G.B.B.B.c.[ l.' ' ] / ; - y d N N m M N Z ( x o & |.rXeX6X6X>Xw.R R L L L P Y + o < x B <.M.M.M.B.S.S.S.S.B.v.v.v.v.v.v.v.z.B.l.' ' ' G ] J @ & |.rXeXeXrX8X*., d.|.4.q.q.q.7.q.q.q.w.q.w.r.8.8.3.1.~ @ 8 +.Q Q W +.5 . h.BXNXBXBXNXAXHXKXPXPXPXPXPXPXPXPXPXPXPXPXPXPXPXPXPXPXPXPXPXPXPXPXPXPXPXPXPXPXPXPXPXPXPXPXPXPXPXPXPXPXPXPXPXPXPXPXPXPXPXPXPXPXPXPXPX",
"PXPXPXPXPXPXPXPXPXPXPXPXPXPXPXPXPXPXPXPXPXPXPXPXPXPXPXPXPXPXPXPXPXPXPXPXPXPXPXPXPXPXPXPXPXPXPXPXPXPXPXPXPXPXPXPXPXPXPXPXHXGXsXX 0 ,XxXuXzXq.@ 5.+Xr.w.w.w.w.i.i.L P 3.w.w.e.e.e.p.8.Y 3 4 O.+.Q E T 3   - J v b V V V V V V b b V C D.I.Y.I.T.K.K.I.I.U.I.I.I.F.h o 5 5XrX4X[.e.t.r.7.#.o...#.Q Q U +   6 z z z z z z z F Y.P.1 - J (.G.H.Y.Y.E.E.Y.Y.Y.E.E.E.L.L.Y.E.E.E.Y.Y.E.Y.L.L.Y.E.Y.L.L.L.E.Y.Y.E.R.L.L.L.J.v.v.l.' Z N.I.I.L.L.L.L.L.L.L.L.L.L.J.V.v.b.m.v.v.V.V.V.v.v.v.v.v.v.v.G.H.J.H.L.L.L.H.J.J.L.L.J.L.J.J.G.K.H.} p _ M.B.V.Z.Z.Z.G.Z.Z.N.B.D.` k } H.G.C.G.H.H.N.M.' [ v.c.k.v.v.v.v.z.c.l.l.l.k.c.k c XX.XG.N.G.G.B.G.G.G.G.B.B.B.c.k.k.' ' ] / ; - y d N N m M N Z ( x o & |.rXeX6X4X>Xw.R R L L L P Y + o < x V ;.M.M.c.B.S.S.S.S.S.S.m.v.v.v.v.v.c.M.l.' ' ' G ] J @ & |.eXeXeXeX8X*.: d.|.4.q.q.7.7.q.q.w.q.w.w.r.8.7.2.1.+.@ 8 +.Q ..W +.5 . h.MXNXBXNXNXAXHXHXPXPXPXPXPXPXPXPXPXPXPXPXPXPXPXPXPXPXPXPXPXPXPXPXPXPXPXPXPXPXPXPXPXPXPXPXPXPXPXPXPXPXPXPXPXPXPXPXPXPXPXPXPXPXPXPXPX",
"PXPXPXPXPXPXPXPXPXPXPXPXPXPXPXPXPXPXPXPXPXPXPXPXPXPXPXPXPXPXPXPXPXPXPXPXPXPXPXPXPXPXPXPXPXPXPXPXPXPXPXPXPXPXPXPXPXPXPXPXHXGXsXX 0 ,XxXuXzXw.@ 5.+Xr.w.w.w.w.i.i.W L 3.7.w.w.e.e.t.w.+.* 4 ! +.....P :   - J v b V V V V V V b b V C D.Y.Y.R.T.K.K.I.I.U.I.I.I.F.h o 5 5X9X4X].e.t.e.7.#...Q Q Q Q U +   6 z z z z z z z F Y.P.1 - J U.Z.H.Y.L.T.E.E.Y.Y.E.E.E.L.L.Y.E.E.E.E.E.E.E.Y.Y.E.).).Y.L.L.E.Y.Y.E.L.K.K.J.J.v.v.z.' Z Z.I.Y.Y.Y.E.Y.L.L.L.L.J.K.J.G.v.b.m.v.v.V.V.V.v.v.v.v.v.v.v.V.H.H.H.H.K.K.K.J.J.L.L.J.J.J.J.H.H.H.` p { B.V.Z.C.Z.Z.Z.Z.Z.N.l.M.{ k ] D.G.Z.G.H.H.G.v.[ c.c.x.v.v.v.v.v.v.v.l.l.l.k.c.k c XX.XG.B.Z.Z.B.G.G.G.G.B.B.B.n.k.k.' ' { / ; - y d N N m M N Z ( x o & |.rXeX6X4X>Xw.R R L L P T Y + o 6 x V ;.M.M.M.M.S.S.S.v.S.S.S.v.v.v.v.c.l.c.l.[ ' G G ] J + @ {.eXeXeXeX8X*.: d.|.4.q.q.7.q.q.q.q.q.w.w.8.8.3.:.1.#.@ 8 +.Q Q W +.5 . h.MXNXBXNXNXAXHXHXKXKXPXPXPXPXPXPXPXPXPXPXPXPXPXPXPXPXPXPXPXPXPXPXPXPXPXPXPXPXPXPXPXPXPXPXPXPXPXPXPXPXPXPXPXPXPXPXPXPXPXPXPXPXPXPXPX",
"PXPXPXPXPXPXPXPXPXPXPXPXPXPXPXPXPXPXPXPXPXPXPXPXPXPXPXPXPXPXPXPXPXPXPXPXPXPXPXPXPXPXPXPXPXPXPXPXPXPXPXPXPXPXPXPXPXPXPXPXHXGXsX. 0 ,XiXuXzXw.@ 5.+Xr.w.e.w.w.i.i...H 7.3.w.w.w.e.e.w.%.* 4 Y +...Q T :   - J v b V V V V V V b b b V D.Y.Y.R.K.K.K.I.I.U.I.Z.I.F.h o 6 5XrX,X].e.t.r.7.#.W Q W Q Q U +   6 v z z z z z z F Y.U.1 - J P.N.H.L.L.L.Y.E.E.E.E.E.E.L.L.Y.E.L.E.E.E.E.E.E.E.Y.L.L.Y.Y.Y.Y.Y.R.R.L.L.L.L.J.v.v.z.' Z N.H.I.L.L.L.L.L.L.L.K.J.L.L.G.v.b.v.v.v.V.V.B.B.v.v.v.m.v.v.V.H.H.H.H.K.H.L.J.J.L.L.J.J.L.J.H.H.D.C k } B.V.Z.C.Z.Z.H.Z.Z.Z.B.M.c.m ( D.G.Z.G.G.N.Z.c.[ c.c.x.v.v.v.v.v.v.v.l.l.k.k.} k c XX.XG.B.Z.Z.B.G.G.G.G.B.B.S.A.c.k.[ ' { / ; - y d N N m M N Z ( x o * |.rXeX6X9X>Xq.R R L L U T Y + o 6 x V <.M.M.M.S.S.S.S.v.B.S.S.v.v.B.B.c.l.l.l.[ ' G G ] J + @ {.eXeXeXeX8X*.: d.|.4.q.q.q.w.w.7.7.7.w.q.8.7.1.:.3.#.@ 8 +.Q E Q +.5 . h.MXNXBXNXNXAXHXHXKXPXPXPXPXPXPXPXPXPXPXPXPXPXPXPXPXPXPXPXPXPXPXPXPXPXPXPXPXPXPXPXPXPXPXPXPXPXPXPXPXPXPXPXPXPXPXPXPXPXPXPXPXPXPXPXPX",
"PXPXPXPXPXPXPXPXPXPXPXPXPXPXPXPXPXPXPXPXPXPXPXPXPXPXPXPXPXPXPXPXPXPXPXPXPXPXPXPXPXPXPXPXPXPXPXPXPXPXPXPXPXPXPXPXPXPXPXPXKXGXsXX 0 <XiXuXzX8.$ 6.+Xr.w.w.w.w.i.r.+.h 7.3.w.w.4.w.e.w.*.* 4 Y +.o...~ 3   : J v b b b J J b b J J V V D.I.I.I.I.K.K.I.I.T.R.K.H.D.h o 5 5XrX,X].r.r.r.7.o.o.W Q Q E K +   5 l z z z z z z F Y.H.1 O v P.B.H.Y.L.Y.Y.Y.E.E.E.E.L.L.L.Y.E.L.L.E.E.Y.Y.Y.L.Y.Y.Y.L.E.Y.L.L.L.L.L.L.L.L.J.v.v.l.G Z N.H.K.K.K.L.L.K.L.L.K.K.K.K.G.v.v.v.v.v.b.B.B.B.v.v.v.v.v.v.V.G.H.H.H.H.J.J.H.H.H.L.L.L.H.H.Z.K.D.V k c.B.B.Z.G.Z.Z.G.H.G.G.B.B.c.C C D.H.G.H.G.Z.Z.z.c.c.c.c.c.c.v.v.c.k.l.l.l.l.l.} m B .XXXG.B.Z.Z.B.G.G.G.G.S.S.G.M.l.[ [ ' ] / ; - y k N m M N N Z ( x o * +XrXwX6X8X>X4.R L U L U P Y + o 6 j V <.M.M.M.S.S.S.A.S.S.S.S.S.B.B.v.c.c.c.l.[ ' ' ' ' J @ @ |.rXeXuXeX8X*., d.+Xw.3.q.q.q.w.q.7.7.q.q.6.6.o.2.8.+.& 8 +.Q Q ..#.5 . h.mXMXNXNXNXAXHXHXHXKXPXPXPXPXPXPXPXPXPXPXPXPXPXPXPXPXPXPXPXPXPXPXPXPXPXPXPXPXPXPXPXPXPXPXPXPXPXPXPXPXPXPXPXPXPXPXPXPXPXPXPXPXPXPXPX",
"PXPXPXPXPXPXPXPXPXPXPXPXPXPXPXPXPXPXPXPXPXPXPXPXPXPXPXPXPXPXPXPXPXPXPXPXPXPXPXPXPXPXPXPXPXPXPXPXPXPXPXPXPXPXPXPXPXPXPXPXKXGXsXX 0 <XiXuXcX0.$ 6.+Xw.w.w.w.w.i.r.*.9 1.7.w.w.4.w.e.e.6.4 4 T +.Q ..~ 3   : J v b b b / / b b J J V V D.I.I.I.R.I.I.I.I.T.K.K.I.D.h o 6 5XrX4X].r.t.r.7.o.....Q Q E K +   8 l z z z z z z ` Y.U.1 O v P.B.H.L.L.E.Y.Y.R.R.E.E.L.L.L.E.E.Y.Y.E.Y.Y.Y.Y.L.Y.Y.Y.L.E.E.Y.K.K.K.L.L.L.L.J.v.v.l.G Z N.K.K.K.K.L.L.K.L.L.K.K.K.K.G.v.v.v.v.v.v.v.v.v.v.v.v.v.v.v.v.H.H.G.K.K.K.J.H.H.J.H.H.K.K.J.H.H.D.c B v.B.B.Z.G.G.G.G.G.G.G.Z.B.M.` M A.H.H.G.G.Z.Z.z.c.c.c.c.c.v.v.v.c.k.l.l.l.l.l.} m B .XXXG.B.B.B.B.G.G.G.S.S.S.S.M.c.[ [ [ ] V ; - t k N M M M N Z ( x O * #XeXwX6X8X>Xq.R L L L L P Y +   < j V <.M.M.M.S.S.S.A.m.m.m.v.v.v.v.v.v.c.c.c.l.' G G ' J @ @ |.rXeXuXeX9X*., d.+Xw.q.q.q.q.q.q.q.q.q.q.8.*.$.3.6.@.@ 8 +...Q ..#.5 . h.mXNXNXNXNXAXHXHXHXKXPXPXPXPXPXPXPXPXPXPXPXPXPXPXPXPXPXPXPXPXPXPXPXPXPXPXPXPXPXPXPXPXPXPXPXPXPXPXPXPXPXPXPXPXPXPXPXPXPXPXPXPXPXPXPX",
"PXPXPXPXPXPXPXPXPXPXPXPXPXPXPXPXPXPXPXPXPXPXPXPXPXPXPXPXPXPXPXPXPXPXPXPXPXPXPXPXPXPXPXPXPXPXPXPXPXPXPXPXPXPXPXPXPXPXPXPXKXGXsXX 0 ,XiXuXcX0.$ 6.+Xe.w.w.w.w.i.r.6.0 1.3.w.w.4.8.w.e.6.4 4 T ^ Q Q ~ 3   - J v b b b J / b b J J V V A.U.K.I.R.I.I.I.R.T.K.K.H.D.h o 5 5XrX>X[.r.t.r.7.o.....Q E E K +   8 z z z z z z z ` Y.U.a O h P.B.H.K.L.Y.Y.Y.R.R.E.Y.L.E.E.E.E.Y.E.E.Y.Y.L.L.L.Y.Y.Y.L.E.E.L.K.K.K.L.L.L.L.J.v.v.c.' Z Z.U.K.K.K.L.L.K.L.L.K.K.K.K.G.v.v.v.v.v.v.v.v.v.v.v.v.v.v.v.v.G.H.G.K.J.J.J.H.J.J.H.H.J.K.J.H.H.D.k V c.B.B.G.G.G.H.G.G.G.G.Z.B.M.] m v.H.H.G.H.Z.Z.z.c.c.c.c.c.c.v.v.c.k.l.l.l.l.l.} m B .X.XG.N.N.N.B.B.B.S.G.G.S.S.M.c.k.[ ' ] V ; - y k N M M m N Z ( x O * +XrXwX6X8X>Xe.R R L L L P U +   < j V <.M.B.S.S.S.S.A.m.m.m.v.v.v.v.v.v.c.c.c.[ ' ' G ' J @ @ |.rXeXuXeX9X*., d.+Xw.q.q.q.q.7.7.7.q.q.7.8...2.3.6.+.& 8 +.......#.5 . h.mXMXNXNXNXAXHXHXHXKXPXPXPXPXPXPXPXPXPXPXPXPXPXPXPXPXPXPXPXPXPXPXPXPXPXPXPXPXPXPXPXPXPXPXPXPXPXPXPXPXPXPXPXPXPXPXPXPXPXPXPXPXPXPXPX",
"PXPXPXPXPXPXPXPXPXPXPXPXPXPXPXPXPXPXPXPXPXPXPXPXPXPXPXPXPXPXPXPXPXPXPXPXPXPXPXPXPXPXPXPXPXPXPXPXPXPXPXPXPXPXPXPXPXPXPXPXKXFXsXX H ,XiXuXcXr.$ 5.+Xr.w.w.w.w.i.r.6.0 1.3.w.w.4.8.w.w.6.4 4 T ^ Q Q ~ 3 o - J J b b b V V V / J J V V D.U.I.I.K.K.K.I.I.K.K.I.H.D.h o 5 5XrX>X].r.i.t.7.o.....Q E P K +   8 v z z z z z z ` Y.P.1 O h P.B.S.L.K.L.L.K.Y.E.E.Y.L.Y.).).E.E.E.R.Y.Y.K.Y.Y.Y.Y.Y.E.E.R.L.K.K.K.K.K.K.L.H.v.v.z.G Z S.U.K.K.K.L.L.L.L.L.K.H.H.H.G.v.v.v.v.v.b.b.b.m.m.v.v.z.v.z.v.G.H.G.H.H.H.J.H.H.H.H.J.K.H.J.H.K.D.d C c.B.B.G.G.G.G.G.H.K.H.G.B.M.' m M.G.H.G.G.Z.Z.z.c.c.c.c.k.x.c.c.k.x.l.l.k.l.l.c.m B _..XH.N.Z.Z.Z.Z.Z.Z.V.S.G.S.M.v.l.[ ' ] / ; - y d m m M m N Z ( x o * +X6XwX6X9X>Xq.R R W L R E U +   < j c { M.B.B.G.G.S.A.v.v.v.B.v.v.v.v.c.l.c.c.c.' ' G ' J @ & |.rXrXuXuX9X*., d.+Xw.7.w.w.8.7.7.7.7.7.7.$.+.8.3.6.+.@ 8 #...Q Q +.5 . h.mXNXNXNXNXAXHXHXHXKXPXPXPXPXPXPXPXPXPXPXPXPXPXPXPXPXPXPXPXPXPXPXPXPXPXPXPXPXPXPXPXPXPXPXPXPXPXPXPXPXPXPXPXPXPXPXPXPXPXPXPXPXPXPXPX",
"PXPXPXPXPXPXPXPXPXPXPXPXPXPXPXPXPXPXPXPXPXPXPXPXPXPXPXPXPXPXPXPXPXPXPXPXPXPXPXPXPXPXPXPXPXPXPXPXPXPXPXKXKXPXPXPXPXPXPXPXKXFXsXX H ,XiXuXcXr.$ 5.+Xr.w.e.w.w.i.i.8.0 1.3.w.w.4.8.w.w.6.5 4 T ^ o...~ 4 o : J J b b b V V V / J J V V D.U.K.I.K.K.K.I.I.I.T.I.I.F.h o 5 5XrX<X].t.i.p.7.o.....Q E P K +   8 v z z z z z z ` Y.P.y o l P.M.N.L.K.L.L.Y.Y.L.Y.Y.L.Y.).).).E.Y.Y.R.Y.K.K.K.Y.Y.Y.Y.Y.Y.K.K.K.K.H.H.K.K.G.v.v.z.' Z S.L.L.K.K.L.L.L.L.L.K.K.K.J.G.v.v.v.v.v.b.b.b.m.m.v.z.z.v.v.v.B.H.H.H.H.H.J.H.H.J.H.H.L.K.J.H.K.A.d C c.B.B.G.H.H.H.H.H.K.G.G.B.M.} m v.G.G.G.G.Z.B.z.c.c.c.c.c.c.c.x.k.k.l.l.k.l.k.c.B B .XXXG.N.Z.B.B.V.B.B.B.S.G.S.M.M.l.[ ' ] / ; - y d m M M m N Z ( x o * +X6XwX6X9X>Xq.R R L L R E U +   < j c { M.M.B.G.G.S.A.v.B.B.B.v.v.v.v.v.c.c.c.c.[ ' G ' J @ & |.rXrXuXuX9X*., d.+X8.7.8.0.8.7.7.7.7.7.3.W *.w.3.6.+.@ 0 #...Q Q +.5 . h.mXNXNXNXNXAXHXHXKXKXPXPXPXPXPXPXPXPXPXPXPXPXPXPXPXPXPXPXPXPXPXPXPXPXPXPXPXPXPXPXPXPXPXPXPXPXPXPXPXPXPXPXPXPXPXPXPXPXPXPXPXPXPXPXPX",
"PXPXPXPXPXPXPXPXPXPXPXPXPXPXPXPXPXPXPXPXPXPXPXPXPXPXPXPXPXPXPXPXPXPXPXPXPXPXPXPXPXPXPXPXPXPXPXPXPXPXKXKXKXPXPXPXPXPXPXPXKXFXsXX H 4XiXuXzXr.$ 5.+Xr.w.w.w.w.i.i.8.0 ,.3.w.w.w.8.w.w.6.5 4 Y ^ o.o.~ = o : J v b b b b b V J J J V M D.U.K.I.K.K.K.I.I.R.T.I.I.F.h o 5 5XlX,X[.t.i.i.7.o.Q Q E E P w +   8 v z z z z z z F Y.U.a O l P.B.N.L.K.Y.Y.Y.Y.L.L.R.L.Y.).).).Y.L.L.I.Y.K.I.K.Y.Y.Y.Y.L.I.K.K.K.K.K.H.J.K.G.v.v.v.' Z S.L.L.K.K.L.L.L.L.L.K.K.L.J.J.v.b.v.m.m.b.b.b.b.m.v.v.z.v.v.v.v.H.H.G.H.H.J.H.H.J.H.H.J.L.J.H.H.M.d C c.B.B.G.H.H.H.H.H.G.G.G.G.v.} M c.G.G.G.G.Z.B.z.c.c.c.c.v.v.c.x.k.k.c.l.l.l.l.c.B k _.XXG.V.B.N.B.V.N.N.B.N.G.B.D.M.l.[ ' ] / ; - y d m N M m N Z ' x o * #XeXwX6X9X>Xe.E R L L R E U + o < j c { M.M.M.G.G.S.S.S.m.n.S.v.v.v.v.M.z.c.c.c.[ ' G ' J @ & |.rXrXuXuX8X&., d.+Xw.7.8.8.8.7.7.7.7.7.:.W 6.w.3.1.+.@ 8 #...Q W +.5 . h.mXNXNXNXNXAXHXHXHXKXPXPXPXPXPXPXPXPXPXPXPXPXPXPXPXPXPXPXPXPXPXPXPXPXPXPXPXPXPXPXPXPXPXPXPXPXPXPXPXPXPXPXPXPXPXPXPXPXPXPXPXPXPXPXPX",
"PXPXPXPXPXPXPXPXPXPXPXPXPXPXPXPXPXPXPXPXPXPXPXPXPXPXPXPXPXPXPXPXPXPXPXPXPXPXPXPXPXPXPXPXPXPXPXPXPXPXKXKXKXPXPXPXPXPXPXPXKXFXsX. w 4XxXuXzXr.@ 5.+Xr.w.w.w.w.r.r.8.0 ,.3.w.w.w.8.w.w.6.5 4 Y ^ Q o.T :   : J v b b b b b V b J b b V A.U.K.I.K.K.K.I.I.I.R.I.I.F.h o 5 5XlX4X[.r.t.t.7.o.Q Q P E E K +   6 v v z z z z z F Y.J.a O l P.B.N.I.K.Y.E.E.R.R.E.Y.Y.Y.(.(.L.L.T.K.I.Y.K.Y.Y.I.I.I.Y.L.K.I.K.K.K.H.H.K.K.G.v.v.z.' Z S.L.L.K.L.L.L.L.L.L.K.K.L.J.J.v.b.v.m.v.b.m.b.m.m.v.v.v.z.v.v.z.H.H.H.H.H.H.H.L.L.J.J.H.J.H.H.Z.M.d C v.B.S.G.H.H.H.H.G.G.Z.Z.H.c.c.V [ G.G.G.G.Z.Z.z.c.c.c.c.v.v.v.c.c.c.c.l.k.l.l.c.M k ).XXZ.B.B.Z.Z.Z.Z.Z.Z.Z.G.V.D.B.l.' ' ] / ; - y d m N M M N A ' x o * #XrXeX6X4X>Xq.R R R L R E U + o < g k | M.M.M.S.G.S.S.S.v.v.M.v.v.M.M.v.B.c.c.c.' ' G ] J @ @ |.rXrXuXuX8X*., {.+Xw.7.7.8.8.7.7.7.7.7.#.#.8.w.3.1.+.& 8 #...Q W +.5 . h.mXMXMXNXNXAXHXHXHXKXPXPXPXPXPXPXPXPXPXPXPXPXPXPXPXPXPXPXPXPXPXPXPXPXPXPXPXPXPXPXPXPXPXPXPXPXPXPXPXPXPXPXPXPXPXPXPXPXPXPXPXPXPXPXPX",
"PXPXPXPXPXPXPXPXPXPXPXPXPXPXPXPXPXPXPXPXPXPXPXPXPXPXPXPXPXPXPXPXPXPXPXPXPXPXPXPXPXPXPXPXPXPXPXPXPXPXPXKXPXPXPXPXPXPXPXPXPXGXsX. w 4XxXuXzXw.@ 6.+Xr.8.r.r.r.r.r.8.0 $.3.w.w.e.8.w.w.6.8 4 ~ ..W +.~ :   : J v b b b b b b b b b b V A.U.H.K.K.K.K.I.I.I.K.T.I.F.0   5 8XlX,X[.i.p.p.7.^ W W P R E U +   6 v z z z M z z F E.L.s o h /.B.Z.K.K.Y.E.E.Y.Y.L.L.Y.Y.Y.L.L.L.L.Y.I.Y.Y.R.Y.I.I.I.L.L.L.Y.K.K.K.K.K.K.K.Z.v.v.l.' N D.L.L.T.K.K.L.L.L.L.L.L.L.J.J.v.V.v.V.V.b.b.b.b.v.v.v.v.v.v.v.z.H.H.H.H.H.H.H.L.H.J.J.J.H.H.H.H.M.d C M.B.B.G.H.G.G.G.Z.Z.Z.C.H.z.v.Z [ H.G.G.Z.G.G.z.v.z.z.z.c.c.v.v.c.c.c.l.l.l.k.c.C c ).XXZ.B.M.A.N.B.B.B.S.B.B.N.D.B.l.l.' ' / ; - y d m N M M N A ' x o * #XgX6X6X4X>Xq.R R L L R E U +   < g k ;.M.M.M.S.S.S.A.v.v.v.M.M.v.B.B.v.v.c.c.l.' ' G ] J @ @ |.rXrXuXrX9X*., {.+Xq.7.7.8.7.7.7.7.7.,.W 6.r.w.3.1.@.@ 8 #...Q W +.4 . h.mXMXMXBXNXAXKXKXKXPXPXPXPXPXPXPXPXPXPXPXPXPXPXPXPXPXPXPXPXPXPXPXPXPXPXPXPXPXPXPXPXPXPXPXPXPXPXPXPXPXPXPXPXPXPXPXPXPXPXPXPXPXPXPXPX",
"PXPXPXPXPXPXPXPXPXPXPXPXPXPXPXPXPXPXPXPXPXPXPXPXPXPXPXPXPXPXPXPXPXPXPXPXPXPXPXPXPXPXPXPXPXPXPXPXPXPXPXPXPXPXPXPXPXPXPXPXKXGXsX. w ,XxXuXzXw.@ 6.+Xr.w.r.r.r.i.i.0.9 $.3.w.w.w.8.w.w.6.8 4 ~ ..W +.~ :   : J v b b b b b b b v z b V A.H.H.K.K.K.K.I.I.I.K.T.I.F.0   < 8XzX,X[.p.s.s.q.Q W W P E E K +   8 z z M M M M z F R.J.h o H ^.v.V.K.K.Y.U.Y.Y.Y.L.L.Y.Y.L.L.L.L.L.R.R.R.K.K.Y.Y.Y.Y.L.L.L.L.K.K.K.K.K.K.K.Z.v.v.l.' N D.L.L.T.J.J.L.L.L.L.L.L.K.J.J.V.v.v.V.V.b.b.b.b.v.v.v.v.v.v.v.v.G.H.H.H.H.H.H.H.H.J.L.J.H.H.K.H.M.d C M.V.V.G.G.G.G.G.Z.Z.Z.Z.G.v.v.A [ H.G.G.Z.Z.G.v.v.l.v.x.c.v.v.c.c.c.c.l.l.l.k.c.C d ).XXZ.B.A.A.N.B.B.B.B.S.B.B.N.Z.c.l.[ ] / ; - 1 d m N M M N A ' x o : #XgX6X6X1X>Xw.R L L L R E U +   < g c ;.M.M.M.S.S.m.v.v.M.B.M.M.v.v.v.M.c.c.c.c.' ' G ] J @ @ |.rXrXuXrX9X*.> +X+Xq.3.7.8.7.7.7.7.1.#...8.r.w.3.1.@.@ 0 +...Q W +.4 . h.mXMXMXBXNXAXKXKXKXPXPXPXPXPXPXPXPXPXPXPXPXPXPXPXPXPXPXPXPXPXPXPXPXPXPXPXPXPXPXPXPXPXPXPXPXPXPXPXPXPXPXPXPXPXPXPXPXPXPXPXPXPXPXPXPX",
"PXPXPXPXPXPXPXPXPXPXPXPXPXPXPXPXPXPXPXPXPXPXPXPXPXPXPXPXPXPXPXPXPXPXPXPXPXPXPXPXPXPXPXPXPXPXPXPXPXPXPXPXPXPXPXPXPXPXPXPXKXFXsX. w ,XiXuXzXw.@ 6.+Xi.8.w.r.w.r.i.r.9 #.3.7.w.w.8.w.w.6.8 4 T o.....T :   $ J b b b b b b b b b z V V D.I.I.I.I.I.I.I.I.U.I.R.I.F.0 o 5 8XlX4X[.i.p.p.q.o.Q W T E E Y +   5 z z M M M M M F U.J.h o 5 | | } G.K.R.U.I.L.L.K.L.L.L.K.Y.E.L.L.Y.I.I.I.K.K.Y.L.L.L.L.L.L.L.K.L.L.L.K.L.Z.v.v.l.' N D.L.L.T.L.L.L.L.L.L.L.L.L.K.J.V.v.v.V.V.b.b.b.b.b.v.v.v.v.v.v.v.V.H.H.H.H.H.J.H.H.H.H.J.L.J.K.H.A.d C M.V.V.G.H.H.H.H.Z.Z.Z.Z.G.M.v.G k.G.G.G.Z.Z.V.z.v.l.v.c.c.c.v.v.c.c.c.l.l.z.l.c.( d (.XXZ.B.S.S.N.B.B.B.S.S.S.S.D.N.B.[ [ ` c ; - 1 j m N M M N A ' x o , #XgX6X6X1X>Xe.R L L L R E U +   < g z | M.M.M.v.S.S.A.B.B.M.B.B.v.v.v.M.c.c.c.c.' ' [ ] J @ @ |.rXrXuXrX9X*., d.+X8.3.w.w.8.7.7.7.1...#.r.r.w.3.1.@.+ 8 +...o...+., . h.mXNXNXBXBXAXKXKXKXPXPXPXPXPXPXPXPXPXPXPXPXPXPXPXPXPXPXPXPXPXPXPXPXPXPXPXPXPXPXPXPXPXPXPXPXPXPXPXPXPXPXPXPXPXPXPXPXPXPXPXPXPXPXPXPX",
"PXPXPXPXPXPXPXPXPXPXPXPXPXPXPXPXPXPXPXPXPXPXPXPXPXPXPXPXPXPXPXPXPXPXPXPXPXPXPXPXPXPXPXPXPXPXPXPXPXPXPXPXPXPXPXPXPXPXPXPXKXFXsX. w ,XiXuXzX8.@ 6.+Xr.w.w.r.r.i.i.r.K #.3.7.w.w.8.w.w.6.8 : Y #.....T :   $ J J b b b b J b b b z V M A.I.I.Y.R.Y.Y.I.I.Y.I.R.I.P.6 o 6 8XzX4X[.t.p.p.7.o.W W Y W L 0 +   8 S z z M M M M F U.U.j - O - < x ` G.L.J.K.U.L.K.K.K.K.K.Y.E.L.L.Y.I.K.I.I.K.K.L.L.L.K.L.L.L.L.L.L.L.L.J.V.v.v.z.' N D.L.L.T.L.K.L.L.L.L.L.L.L.L.K.V.v.v.v.v.v.b.b.b.b.m.b.m.v.m.m.v.B.H.H.H.H.H.J.H.H.H.H.J.L.J.G.Z.A.d ( M.v.V.Z.G.G.K.Z.Z.Z.Z.Z.G.B.v.' ' G.G.G.G.Z.B.z.z.l.l.c.l.c.c.c.c.c.c.l.l.z.l.c.( d (.XXZ.B.D.S.N.B.M.N.S.S.S.G.N.B.c.{ _ z u - - 1 d m N M m N A ' x o , #X9X6X6X4X>Xw.R L L L L E K o   < g z | M.M.M.v.m.v.v.B.B.B.M.B.B.v.v.M.v.c.c.c.' ' ' ] J @ @ |.rXeXuXrX9X*.> f.|.3.3.w.w.w.w.q.7.,.W ,.r.w.7.1.1.@.+ 8 +.....o.+.4 . h.mXNXMXBXBXAXKXKXPXPXPXPXPXPXPXPXPXPXPXPXPXPXPXPXPXPXPXPXPXPXPXPXPXPXPXPXPXPXPXPXPXPXPXPXPXPXPXPXPXPXPXPXPXPXPXPXPXPXPXPXPXPXPXPXPX",
"PXPXPXPXPXPXPXPXPXPXPXPXPXPXPXPXPXPXPXPXPXPXPXPXPXPXPXPXPXPXPXPXPXPXPXPXPXPXPXPXPXPXPXPXPXPXPXPXPXPXPXPXPXPXPXPXPXPXPXPXKXFX;X. K ,XuXuXzX8.@ 5.+Xr.8.w.w.w.r.i.r.H ..3.7.w.w.w.w.w.6.8 3 Y #.....~ :   $ J J b b b b b V b z z M C B.I.I.Y.R.Y.Y.I.K.U.I.R.Y.P.6 o 6 8XlX4X[.w.p.p.w.#...+.I > - o     = h R J V V M m F I.H.` y - - O O ; d } U.J.U.U.I.K.K.K.R.L.L.L.L.K.I.I.I.I.I.L.K.L.L.L.L.L.L.L.L.L.L.L.J.V.v.v.z.' N M.J.K.K.K.K.K.J.L.L.L.L.L.L.J.V.v.v.v.v.v.m.m.m.m.v.b.m.m.m.m.v.v.H.H.H.H.H.H.H.H.H.H.H.H.H.G.Z.A.d C v.v.V.Z.G.G.K.C.H.Z.Z.Z.Z.B.B.z.z.G.G.G.G.G.B.l.z.l.l.v.k.x.c.c.l.k.c.c.v.z.k.c.` p L.XXZ.M.S.A.B.M.M.N.D.S.S.S.M.A.` c y ; ; - - y d m N M m N Z ' x o * #X9X6X1X,X>Xw.R L L L L R K + X < g z | M.B.M.S.m.m.v.M.B.M.M.S.B.v.v.M.v.c.c.c.' ' ' ] J @ @ |.rXeXuXrX9X*., |.|.3.4.w.q.7.7.3.3.$.P 6.r.w.3.1.1.@.+ 8 +.Q ..o.+.4 . h.mXNXMXBXBXAXKXKXPXPXPXPXPXPXPXPXPXPXPXPXPXPXPXPXPXPXPXPXPXPXPXPXPXPXPXPXPXPXPXPXPXPXPXPXPXPXPXPXPXPXPXPXPXPXPXPXPXPXPXPXPXPXPXPXPX",
"PXPXPXPXPXPXPXPXPXPXPXPXPXPXPXPXPXPXPXPXPXPXPXPXPXPXPXPXPXPXPXPXPXPXPXPXPXPXPXPXPXPXPXPXPXPXPXPXPXPXPXPXPXPXPXPXPXPXPXPXKXFX;X. w ,XiXuXzX8.@ 5.+Xw.8.w.w.w.i.i.i.K ..7.7.w.w.r.w.w.6.8 4 Y +...+.@., o $ J J b b b b V V b z z M N B.I.I.Y.R.Y.Y.I.I.U.I.R.Y.P.a o 6 4XlX4X].w.p.s.8.+.T w , > ^ +.= X   @ < h b V M m A H.Z.M.{ / g < - O - < v <.H.H.U.K.K.K.K.K.L.L.L.L.R.R.I.I.Y.L.L.L.L.L.L.L.L.L.L.L.L.L.J.V.z.v.l.l.N M.J.L.K.K.L.K.J.L.L.L.L.L.J.J.V.v.v.v.v.m.m.m.m.m.v.m.m.m.m.v.z.z.G.H.H.H.H.H.H.L.L.L.H.H.J.G.Z.D.k M M.v.V.Z.H.C.K.C.G.Z.Z.Z.Z.B.B.G.G.H.G.G.G.G.B.l.l.l.l.c.k.l.c.c.c.k.c.c.l.z.k.l.` p J.OXZ.M.S.A.B.M.M.S.S.S.B.M.c.C s ; - - - ; ; y d m N m m m Z ' x o * #X9X6X1X,X>Xw.R L L L L R K # X < g z | M.B.N.S.v.m.n.M.B.B.M.v.v.v.v.M.v.c.c.c.[ ' ' ] J - @ {.eXeXuXrX9X*.> |.[.3.4.q.q.3.3.3.3...+.r.r.8.3.1.1.@.+ 8 +.......+.4 . h.mXNXMXNXNXAXKXKXPXPXPXPXPXPXPXPXPXPXPXPXPXPXPXPXPXPXPXPXPXPXPXPXPXPXPXPXPXPXPXPXPXPXPXPXPXPXPXPXPXPXPXPXPXPXPXPXPXPXPXPXPXPXPXPXPX",
"PXPXPXPXPXPXPXPXPXPXPXPXPXPXPXPXPXPXPXPXPXPXPXPXPXPXPXPXPXPXPXPXPXPXPXPXPXPXPXPXPXPXPXPXPXPXPXPXPXPXPXPXPXPXPXPXPXPXPXPXKXGXsXX K ,XuXuXzX8.@ 6.+Xw.8.8.w.0.r.i.i.K W 3.3.w.e.r.w.w.6.8 : Y ^ ....+., o $ J J b b b b V z b z z M V B.I.Y.Y.R.I.R.R.I.U.I.R.Y.F.h o 6 8XlX4X[.q.p.s.9.Y 5 & q r.|.|.9.~ , X   : 6 l b z N N.V.B.c.} { / s - O O - y _ F.U.I.K.K.K.K.L.L.L.Y.I.I.K.K.K.L.L.L.L.L.L.L.L.L.L.L.L.L.J.V.z.v.l.l.N M.L.L.L.K.L.K.J.L.L.J.K.K.K.K.Z.v.v.v.v.v.m.m.m.v.v.m.m.v.v.v.v.z.S.J.H.H.H.H.H.L.K.H.L.J.H.Z.Z.D.k M M.v.V.Z.H.C.C.Z.Z.Z.Z.Z.G.B.S.G.G.G.G.G.G.G.B.z.c.l.l.v.c.c.c.c.c.c.c.c.k.z.z.k.` p H.OXH.M.A.A.B.M.B.B.B.M.c.F d t ; - - ; y a u u d m N m m m Z ' x o : #X9X6X1X,X>Xe.R R L L L R I + X 6 g z | M.M.M.B.v.v.A.B.M.B.M.v.z.z.z.M.v.c.c.c.l.' G ] E - @ |.eXrXeXrX9X*., +Xd.3.3.4.q.7.3.3.1.P ,.r.r.7.1.1.1.+.+ 8 +.o.o...+.4 . h.mXNXBXBXBXAXKXPXPXPXPXPXPXPXPXPXPXPXPXPXPXPXPXPXPXPXPXPXPXPXPXPXPXPXPXPXPXPXPXPXPXPXPXPXPXPXPXPXPXPXPXPXPXPXPXPXPXPXPXPXPXPXPXPXPX",
"PXPXPXPXPXPXPXPXPXPXPXPXPXPXPXPXPXPXPXPXPXPXPXPXPXPXPXPXPXPXPXPXPXPXPXPXPXPXPXPXPXPXPXPXPXPXPXPXPXPXPXPXPXPXPXPXPXPXPXPXHXFXaXX H <XuXuXzX8.@ 5.+Xw.7.8.8.w.0.0.r.L ..3.3.w.w.r.e.e.6.8 : Y ^ ..X.@.3 o @ v J b b b b b z z z z M C D.U.Y.Y.Y.I.R.I.I.U.Y.R.Y.F.h o 6 4XlX4X{.e.p.r.Y : & Y s.|.|. X|.|.t.O.8 + o - h l V ;.N.V.z.z.c.{ _ v a < - O - g <.H.K.K.K.K.Y.L.L.L.I.I.K.K.K.K.K.L.L.L.L.L.L.L.L.L.L.L.H.B.z.z.l.[ N M.L.K.K.K.K.K.J.K.L.K.K.K.K.K.G.v.v.v.v.v.m.v.v.v.v.v.v.v.v.v.v.v.S.H.H.H.H.J.J.K.K.K.L.J.J.G.Z.D.m m c.B.V.Z.H.Z.Z.Z.Z.Z.Z.G.G.G.G.G.G.G.G.G.G.G.B.z.z.v.v.v.c.c.c.c.c.c.c.c.l.k.k.k.` p G.XXH.M.M.M.M.B.B.z.l.` c u ; - - ; 1 u i u u u j m N m m N Z [ v o * +XgX4X1X,X>Xe.R R L L L W I +   6 g z { M.M.M.v.v.v.v.B.v.B.B.v.z.z.z.v.z.c.c.c.[ ' G ` J - $ |.rXrXeXrX9X*., @X|.7.7.q.7.7.7.7.$.P 6.r.r.3.1.1.,.+.@ 8 +.......+.4 . h.mXMXMXBXBXAXHXPXPXPXPXPXPXPXPXPXPXPXPXPXPXPXPXPXPXPXPXPXPXPXPXPXPXPXPXPXPXPXPXPXPXPXPXPXPXPXPXPXPXPXPXPXPXPXPXPXPXPXPXPXPXPXPXPXPX",
"PXPXPXPXPXPXPXPXPXPXPXPXPXPXPXPXPXPXPXPXPXPXPXPXPXPXPXPXPXPXPXPXPXPXPXPXPXPXPXPXPXPXPXPXPXPXPXPXPXPXPXPXPXPXPXPXPXPXPXPXHXFXaXX H <XuXuXzXw.@ 5.+Xw.8.w.w.8.r.0.r.L Q 3.3.w.w.r.e.e.6.8 : Y ^ ....T 3   @ v J b b V b b z z b z M C D.I.U.Y.Y.K.K.I.I.U.Y.T.I.F.h o 6 4XrX1X{.t.r.T & * 0 Y $.2.u. X X X#X X'.o., o o : 1 ) <.M.z.z.z.c.} _ c v a - + - a ) D.H.K.K.T.L.T.L.K.K.K.K.K.K.K.L.L.L.L.L.L.L.L.L.L.L.H.B.z.z.l.[ N M.L.L.J.K.K.K.K.K.L.K.K.K.K.K.G.v.v.v.v.v.v.v.v.v.v.v.v.v.v.v.v.z.B.H.H.H.H.J.J.H.K.H.H.J.J.G.Z.S.V m c.V.V.V.H.G.Z.Z.Z.Z.G.G.G.G.G.G.G.G.G.G.G.G.N.z.z.z.z.v.c.c.c.c.l.l.c.c.l.k.k.k.' p B.XXH.B.M.B.S.M.c.} M u ; ; - - ; a s i i s u u j k m m m N A } H   + @.-X9X6X1X>Xe.R L L L P W I +   6 g z { M.M.M.v.v.v.v.B.v.v.B.v.v.v.z.z.v.c.c.c.[ ' G ` J - @ |.rXrXeXrX9X*.: g.d.3.q.q.q.7.3.3.T T 0.i.8.1.1.1.1.+.@ 8 +.......+.4 . h.BXMXMXBXBXAXHXPXPXPXPXPXPXPXPXPXPXPXPXPXPXPXPXPXPXPXPXPXPXPXPXPXPXPXPXPXPXPXPXPXPXPXPXPXPXPXPXPXPXPXPXPXPXPXPXPXPXPXPXPXPXPXPXPXPX",
"PXPXPXPXPXPXPXPXPXPXPXPXPXPXPXPXPXPXPXPXPXPXPXPXPXPXPXPXPXPXPXPXPXPXPXPXPXPXPXPXPXPXPXPXPXPXPXPXPXPXPXPXPXPXPXPXPXPXPXPXHXFXaXX H <XuXuXcXw.@ 5.+Xr.w.w.r.w.r.r.r.L Q 3.3.w.w.w.w.e.6.8 : Y W Q ..@.3   & v J b b V J b z z b z M V D.U.U.Y.Y.L.K.I.I.U.Y.R.I.F.h o 6 3XrX4X#X6.6 @ , K +.T L H l E 2.[. XoXoX X[.+.*   o > v <.M.l.l.z.z.x.A k v J < O O - c D.K.K.T.T.T.K.K.K.K.K.K.J.K.L.L.L.L.L.L.L.L.L.L.L.H.B.z.z.l.[ N M.L.L.L.K.K.K.L.K.L.J.K.K.K.K.G.v.v.v.v.v.v.v.m.v.v.v.v.v.m.m.v.c.z.G.L.H.H.J.H.H.K.H.G.H.J.G.C.D.C m c.V.V.V.G.G.G.G.H.H.H.G.V.V.G.H.H.H.H.G.G.G.B.l.l.z.z.v.c.c.c.c.c.c.c.c.k.k.k.c.' p M.XXH.B.B.S.M.} ] d t ; - - ; a s s p p p c i u c M M m m M V g -     X 8 >.>X8X>Xe.L L L L L W I +   6 g z { M.B.M.B.v.B.M.v.v.v.v.v.v.B.v.c.v.c.c.c.[ ' G ` J @ @ |.rXrXeXuX9X*.: g.d.3.3.7.7.7.3.1.U #.r.i.8.1.2.1.1.+.@ 8 +.......+.4 . h.BXMXMXBXBXAXHXPXPXPXPXPXPXPXPXPXPXPXPXPXPXPXPXPXPXPXPXPXPXPXPXPXPXPXPXPXPXPXPXPXPXPXPXPXPXPXPXPXPXPXPXPXPXPXPXPXPXPXPXPXPXPXPXPXPX",
"PXPXPXPXPXPXPXPXPXPXPXPXPXPXPXPXPXPXPXPXPXPXPXPXPXPXPXPXPXPXPXPXPXPXPXPXPXPXPXPXPXPXPXPXPXPXPXPXPXPXPXPXPXPXPXPXPXPXPXPXHXFXsXX H <XuXuXzXr.@ 5.+Xr.w.w.r.8.w.r.r.L W 3.3.w.w.r.w.e.6.8 : Y W ..X.@.3   @ v J b b V J b z b b z M C D.H.L.K.K.K.K.I.I.U.I.R.I.F.h o > 5X9X>X,.< > h #.#.#.#.#.W L H h L Q e.|. X X|.s.K $ @ - 1 ) ;.c.v.v.v.k.C f B J 6 $ O - g ;.H.K.K.T.T.K.K.K.K.K.K.L.L.L.L.L.L.L.L.L.L.L.L.G.B.z.N.l.[ N M.L.L.K.K.K.K.L.K.K.K.K.H.J.K.G.V.v.v.v.b.v.v.m.v.v.v.v.v.v.v.v.v.c.G.H.H.G.H.K.K.K.K.G.H.H.Z.C.S.` n l.B.V.V.G.H.H.J.C.J.G.H.G.b.G.G.G.H.H.G.G.G.B.l.l.z.v.v.v.c.c.c.v.v.c.l.k.k.z.c.' p l.XXH.v.A.c.} ) u ; ; - - < a d d d p m m k p p B V V x h < - O # % = I 0 > 0 7.#Xr.H L L L L W I +   > g k | M.M.M.B.v.z.v.v.v.B.B.B.B.B.v.z.v.v.c.c.c.' G [ J - & |.rXrXuXuX8X*., @Xd.7.q.q.7.7.7.$.U ,.a.r.6.1.3.1.1.O.& 0 #.o.....+.4 . h.mXMXBXBXBXAXHXKXKXKXPXPXPXPXPXPXPXPXPXPXPXPXPXPXPXPXPXPXPXPXPXPXPXPXPXPXPXPXPXPXPXPXPXPXPXPXPXPXPXPXPXPXPXPXPXPXPXPXPXPXPXPXPXPXPX",
"PXPXPXPXPXPXPXPXPXPXPXPXPXPXPXPXPXPXPXPXPXPXPXPXPXPXPXPXPXPXPXPXPXPXPXPXPXPXPXPXPXPXPXPXPXPXPXPXPXPXPXPXPXPXPXPXPXPXPXPXHXFXsXX H <XuXuXzXw.@ 5.+Xr.q.q.w.8.w.r.r.L W 3.3.w.w.r.e.e.6.8 * Y W ....T :   @ v J b b V J b b v z z M C D.J.U.L.L.L.L.I.I.U.K.T.I.F.h o , 5X>Xo.> 1 =.e.^.4.>.>.:.:.#.W W R h h Q e.{. X#X#X6.8 - O - v <.n.v.v.k.' N f B / 6 - O @ y ] D.H.K.K.K.K.K.J.J.L.L.L.L.L.L.L.L.L.J.L.L.J.G.B.z.z.l.[ N M.Y.L.K.K.K.K.L.L.K.K.K.H.J.J.G.V.v.v.v.v.v.v.v.m.m.m.m.v.v.v.v.z.c.G.H.H.H.H.H.K.K.K.K.H.H.Z.C.H.{ n l.B.V.V.J.J.J.J.H.J.H.H.G.V.G.G.G.H.H.G.G.G.B.l.z.z.v.v.v.c.c.c.v.v.c.l.k.k.z.l.} p [ XXJ.A.n.{ V ; ; ; ; ; y s d d d m m m m m p d / J h > + o o $ 0 6.#X>X2X3.6 > ! 6.K K L U L R U +   < g k { M.M.B.z.v.z.B.v.B.v.v.B.B.B.v.z.z.v.c.c.c.[ G [ J - $ |.rXrXuXuX8X*., g.f.7.3.7.7.7.3...P 6.r.8.6.1.3.1.1.O.& 8 +.......+.4 . h.mXNXBXBXBXAXHXKXKXKXKXPXPXPXPXPXPXPXPXPXPXPXPXPXPXPXPXPXPXPXPXPXPXPXPXPXPXPXPXPXPXPXPXPXPXPXPXPXPXPXPXPXPXPXPXPXPXPXPXPXPXPXPXPXPX",
"PXPXPXPXPXPXPXPXPXPXPXPXPXPXPXPXPXPXPXPXPXPXPXPXPXPXPXPXPXPXPXPXPXPXPXPXPXPXPXPXPXPXPXPXPXPXPXPXPXPXPXPXPXPXPXPXPXPXPXPXHXFXsXX H <XuXuXzXw.@ 6.+Xr.q.w.w.w.r.r.r.L W 1.3.w.w.r.e.e.6.8 * Y W ..X.T 3   @ v J b b / J b z z z z M C D.U.U.L.L.L.L.I.I.U.K.K.I.F.a o 8 #XX.> r e.}.}.}.}.^.4.<.>.=.#.Q W E P L l ) q.{.#X X|.%.8 + - 6 / } c.l.' ' N p c J h - O - ; _ D.K.K.K.K.K.K.J.L.L.L.L.L.L.L.L.L.L.L.L.K.H.B.N.z.l.[ N v.L.K.K.K.K.K.L.L.L.L.K.K.K.J.H.V.v.v.v.v.v.v.v.m.m.v.v.v.v.v.v.v.c.B.H.H.H.G.H.H.H.H.G.G.H.C.H.H.n.p ' B.V.V.H.H.J.J.H.J.H.G.G.V.G.G.G.H.H.G.G.G.B.l.z.l.c.v.v.c.c.c.v.v.c.l.c.z.z.l.} p ' XXJ.n.{ x ; ; - - 1 s d p d m N N N M V b d s a > +   X = O.a.-X,X,X,X,X3X{.w $ 4 q K H L L L K o   6 g k | M.M.M.B.v.z.B.B.v.v.v.B.B.B.v.z.z.c.c.c.} [ ' [ J - $ |.rXrXuXuX8X*.: g.f.7.3.3.7.3.3.P ..0.8.6.6.1.3.1.1.O.& 8 +.......+.4 . h.mXNXBXBXBXAXHXKXKXKXKXPXPXPXPXPXPXPXPXPXPXPXPXPXPXPXPXPXPXPXPXPXPXPXPXPXPXPXPXPXPXPXPXPXPXPXPXPXPXPXPXPXPXPXPXPXPXPXPXPXPXPXPXPXPX",
"PXPXPXPXPXPXPXPXPXPXPXPXPXPXPXPXPXPXPXPXPXPXPXPXPXPXPXPXPXPXPXPXPXPXPXPXPXPXPXPXPXPXPXPXPXPXPXPXPXPXPXPXPXPXPXPXPXPXPXPXPXGXsX. K ,XuXuXzXw.@ 5.+Xw.q.w.r.w.w.r.r.L W 1.3.w.w.w.w.e.7.8 * Y W W ..T :   $ J J b b / / b z z z z M C D.U.L.K.K.L.L.I.I.I.I.K.U.F.h O = q > R |.oXoXoXoX}.}.}.(.P.<.>.=.o.o.E P P L l Q w.}. X#Xi.L - - - g ] } } } A m k z ) J ; - O ; / A.H.K.K.L.L.L.L.L.L.J.L.L.L.L.L.L.L.K.K.Z.z.z.N.l.l.N c.J.K.K.K.K.K.K.L.L.K.K.J.J.J.G.V.v.v.B.B.v.v.m.v.v.v.v.v.v.v.v.v.z.v.G.G.G.G.G.G.H.H.H.G.G.G.H.G.M.m ` M.V.V.C.J.H.H.H.H.H.G.G.G.G.G.G.H.H.H.G.G.B.c.c.l.c.c.c.c.c.c.c.c.c.x.c.z.k.c.{ k C .XP._ s ; - ; ; y s d d f N N Z A C / / h < : o o o , $.{.2X8X,X1X,X>X>X X{.i.I : @ 5 q K L L I + o 6 g k | M.M.M.B.v.v.v.v.v.v.M.M.M.v.v.v.v.v.c.v.c.' G [ J - & |.rXeXuXuX9X*., g.f.7.3.7.7.3.,.P $.8.8.7.1.1.3.1.1.+.@ 8 +.o.Q W +., . h.BXNXNXBXBXAXHXKXHXHXKXPXPXPXPXPXPXPXPXPXPXPXPXPXPXPXPXPXPXPXPXPXPXPXPXPXPXPXPXPXPXPXPXPXPXPXPXPXPXPXPXPXPXPXPXPXPXPXPXPXPXPXPXPXPX",
"PXPXPXPXPXPXPXPXPXPXPXPXPXPXPXPXPXPXPXPXPXPXPXPXPXPXPXPXPXPXPXPXPXPXPXPXPXPXPXPXPXPXPXPXPXPXPXPXPXPXPXPXPXPXPXPXPXPXPXPXPXGXsX. w 4XiXuXzXr.@ 5.+Xw.8.q.w.q.w.r.r.L Q 1.3.w.w.w.e.e.6.8 * Y ..W ..T : o $ J J b b V J b b v v z z V A.U.K.K.K.L.L.I.I.K.K.I.U.F.h o . $ Q oX$XoXoXXXXXXXXXXXoX}.`.P.<.>.>.:.....Q P L H X.'. X X#X7.> + O 1 / } k.' A C k c ) ) ; - - ; J D.J.K.K.K.K.J.L.L.L.L.L.L.L.L.L.L.K.K.N.z.z.N.z.l.N c.J.L.K.K.K.K.L.L.L.L.K.J.K.J.H.V.v.v.z.v.v.v.n.v.v.v.v.v.v.v.v.v.v.z.H.G.H.K.H.H.H.H.K.G.G.G.H.G.M.N C v.G.V.C.C.H.H.G.H.H.G.G.G.G.G.G.H.H.H.G.G.v.c.v.k.c.c.c.c.x.x.x.x.x.x.c.z.k.x.' k B }.| y ; - - ; u j k f B N N Z A ` | E 1 @       4 6.-X5X9X9X9X8X<X Xe.4.=.o...*.~ : o 4 q T P I + o 6 j k | M.M.B.B.v.m.v.v.v.B.B.M.M.n.n.c.v.c.c.c.[ ' G [ J @ & |.rXeXuXuX8X*.: @Xf.3.3.7.7.3.,.P ,.8.6.7.1.1.1.1.1.+.+ 8 +...Q Q ^ , . h.BXNXBXBXNXAXHXKXHXKXKXPXPXPXPXPXPXPXPXPXPXPXPXPXPXPXPXPXPXPXPXPXPXPXPXPXPXPXPXPXPXPXPXPXPXPXPXPXPXPXPXPXPXPXPXPXPXPXPXPXPXPXPXPXPX",
"PXPXPXPXPXPXPXPXPXPXPXPXPXPXPXPXPXPXPXPXPXPXPXPXPXPXPXPXPXPXPXPXPXPXPXPXPXPXPXPXPXPXPXPXPXPXPXPXPXPXPXPXPXPXPXPXPXPXPXPXPXGXsX. w 4XiXuXzXr.@ 6.+Xw.8.q.w.q.w.w.r.L Q 1.3.w.e.r.e.e.6.8 * Y ..W ..T : o $ J J b b b J J z z z z z V A.J.K.K.K.L.L.I.I.K.K.I.U.F.h     Y #XOXOXOXOXOXoXXXXXXXoXoXoX}.}.^.<.>.>.=...Q W P K L 2. X#X-Xf.0 + O < V [ ' ' ( B d k ) ) y - - ; V D.K.K.K.K.K.L.L.J.J.L.L.L.L.L.U.K.K.B.z.z.z.l.l.N c.U.L.K.L.L.L.L.L.L.L.K.J.K.K.J.V.v.v.z.z.v.v.n.v.c.v.v.v.v.z.v.v.z.z.Z.G.H.K.G.G.G.H.H.G.G.G.H.G.B.Z N v.B.V.C.C.H.H.H.H.G.G.G.G.G.S.G.G.H.H.G.G.z.l.c.k.c.c.l.l.k.k.l.k.k.k.k.z.z.k.} c B <.a ; - ; ; u j k p N Z Z F F ` | R - o   + , *.:X8X9X9X9X3X>Xu.2.>.>.1.,.,.,.,.*.%.0 + & 0 Y Y +   6 j k | M.B.B.B.v.m.n.v.M.B.B.M.M.n.v.v.c.c.c.c.l.[ l.[ J - & |.rXeXuXuX8X*.: @Xf.3.3.7.7.1.#.L 1.8.7.7.1.1.1.1.1.+.+ 8 +...Q Q ^ , . h.BXBXBXBXNXDXKXPXPXKXKXPXPXPXPXPXPXPXPXPXPXPXPXPXPXPXPXPXPXPXPXPXPXPXPXPXPXPXPXPXPXPXPXPXPXPXPXPXPXPXPXPXPXPXPXPXPXPXPXPXPXPXPXPXPX",
"PXPXPXPXPXPXPXPXPXPXPXPXPXPXPXPXPXPXPXPXPXPXPXPXPXPXPXPXPXPXPXPXPXPXPXPXPXPXPXPXPXPXPXPXPXPXPXPXPXPXPXPXPXPXPXPXPXPXPXPXKXGXsX. w 4XiXuXzXr.@ 5.+Xw.7.q.w.q.w.w.r.L W 1.3.w.e.r.e.e.6.8 : Y ..W ..T : o $ J J b V b b / b b z z z V A.H.I.I.K.L.L.I.K.K.K.K.U.D.h o # @X>X$XOXOXOXOXoXoXoXoXoXoXoXoXoXoX}.^.4.2.>.#.#.+.T P L Q '.#X X|.Y $ O - v ` ` ( C m k V ` | a - - ; ) D.K.K.K.T.K.L.J.J.J.K.L.L.L.U.K.K.B.z.z.z.l.l.N } U.L.K.L.L.L.L.L.L.L.K.J.K.K.K.Z.v.z.z.z.c.v.n.v.c.v.v.v.c.c.c.v.z.z.B.G.G.K.H.G.G.H.H.Z.G.G.H.G.B.A m c.B.V.G.G.H.H.H.G.G.V.G.G.G.B.G.G.H.H.G.G.z.l.l.k.c.c.c.c.c.c.v.c.k.k.z.z.k.k.{ c y ; - - - ; i k m m N Z A ( D ] | 0 @ + X : T -XgX9X9X6X>X X4.:.:.,.,.,.6.6.6.,.,.:.$.*.U : & 0 r X   6 j k | A.B.N.v.v.m.S.n.B.B.B.M.M.n.v.v.c.c.v.M.l.[ l.[ J - & |.rXeXuXuX8X*.: @Xf.7.2.3.7.1.+.L 1.8.7.6.1.1.1.1.1.+.+ 8 +...Q Q ^ , . h.BXMXBXBXNXDXKXPXPXPXPXPXPXPXPXPXPXPXPXPXPXPXPXPXPXPXPXPXPXPXPXPXPXPXPXPXPXPXPXPXPXPXPXPXPXPXPXPXPXPXPXPXPXPXPXPXPXPXPXPXPXPXPXPXPX",
"PXPXPXPXPXPXPXPXPXPXPXPXPXPXPXPXPXPXPXPXPXPXPXPXPXPXPXPXPXPXPXPXPXPXPXPXPXPXPXPXPXPXPXPXPXPXPXPXPXPXPXPXPXPXPXPXPXPXPXPXKXGXsX. w ,XiXuXzXr.@ 6.+Xw.7.q.w.q.w.w.0.K W 1.3.w.w.w.w.e.6.8 * Y W W ..~ : o : J J b V b J J b b z z z V A.H.K.K.K.K.L.Y.I.K.K.I.K.H.J - o @ 0 >.s. X$X$X$X$XoXoXoXoXoXoXoXoXoXoX}.^.4.2.>.$.+.^ W R h 2.}.>X X$.4 O @ h ) _ C C m c m _ | a - - ; _ H.K.K.K.K.K.J.J.K.K.J.L.L.K.H.G.B.z.z.z.l.[ C [ J.H.J.L.J.J.J.L.L.L.K.K.K.K.K.G.v.z.z.z.v.v.v.v.v.v.c.c.v.v.v.v.z.c.z.G.H.K.H.H.H.H.H.H.G.K.H.Z.G.' f [ M.Z.Z.G.H.H.G.G.G.V.G.H.G.G.G.G.G.G.G.G.v.v.c.c.c.l.l.l.l.l.k.k.k.k.z.z.k.[ { j ; - - - 1 s f p f N Z G ' { | E > + + & Y d.fXgX8X3X>X`.2.=.>.3.3.6.6.6.6.,.,.:.:.:.#.o.$.T 8 @ * X   6 g k { A.B.M.B.S.m.S.v.B.B.B.B.M.v.v.n.v.c.c.c.c.[ l.[ J - & |.rXeXuXeX8X*., @Xd.w.3.3.3.,.W P 1.7.7.1.1.1.1.1.1.O.@ 8 +.....Q +., . h.BXNXBXBXBXAXKXPXPXPXPXPXPXPXPXPXPXPXPXPXPXPXPXPXPXPXPXPXPXPXPXPXPXPXPXPXPXPXPXPXPXPXPXPXPXPXPXPXPXPXPXPXPXPXPXPXPXPXPXPXPXPXPXPXPX",
"PXPXPXPXPXPXPXPXPXPXPXPXPXPXPXPXPXPXPXPXPXPXPXPXPXPXPXPXPXPXPXPXPXPXPXPXPXPXPXPXPXPXPXPXPXPXPXPXPXPXPXPXPXPXPXPXPXPXPXPXKXGXsX. w ,XiXuXzXw.@ 6.+Xw.7.q.w.q.w.w.8.K ..3.3.w.w.w.e.e.6.8 * Y W W +.~ : o : J J J V b J J z b z z z V A.H.K.K.K.K.L.L.K.K.I.I.K.U.D./ < - @ + * H >.t.#X>X$XoXoXoXoXoXoXoXoXoXoX}.`.4.4.3.:.#.#.W U L o.`.#X#X6.8 + @ a J ) C M m k c _ ] g - - y ] H.H.K.K.K.H.H.K.K.J.J.L.J.H.G.B.z.z.z.l.[ C [ J.H.K.K.K.K.K.K.K.K.K.K.K.K.J.G.v.z.z.z.z.v.v.v.v.v.c.c.c.z.c.c.c.l.z.Z.G.K.H.G.H.H.H.H.G.G.H.Z.H.c.n [ M.B.Z.G.H.G.G.G.G.G.G.G.G.G.G.G.G.G.G.G.v.c.l.c.l.l.l.l.l.l.l.k.k.k.k.l.k.] V y - - ; y s d f f N A G ` | | h : + + 5 6.5XgX9X8X>X[.4.:.:.>.1.6.,.6.,.,.,.:.$.#.#.Q Q Q o.Q ^ 0 +     < s k { M.M.M.B.S.S.A.v.B.B.B.B.M.v.v.n.v.c.c.c.c.[ l.[ E @ & {.rXeXuXeX8X$., +Xd.w.3.3.3.,.P W 7.7.7.6.1.1.1.1.6.@.+ 8 +.....Q +., . h.BXBXBXmXBXAXKXKXPXPXPXPXPXPXPXPXPXPXPXPXPXPXPXPXPXPXPXPXPXPXPXPXPXPXPXPXPXPXPXPXPXPXPXPXPXPXPXPXPXPXPXPXPXPXPXPXPXPXPXPXPXPXPXPXPX",
"PXPXPXPXPXPXPXPXPXPXPXPXPXPXPXPXPXPXPXPXPXPXPXPXPXPXPXPXPXPXPXPXPXPXPXPXPXPXPXPXPXPXPXPXPXPXPXPXPXPXPXPXPXPXPXPXPXPXPXPXKXGXsX. w <XiXuXzXw.@ 5.+Xw.7.q.w.q.w.w.0.K ..3.3.w.w.r.e.e.6.8 * Y W W ..~ : o : J J J V b J J z z z z z M A.H.I.I.K.K.Y.K.K.K.I.K.K.L.I.D.<.E 1 > - + + > h >. X>X>X>X$X$XoXoXoXoXoXoXoX}.`.4.2.>.$.+.+.Y K W e. X Xp.9 + O 1 b V V V c k m F ] a - - y ;.K.K.T.K.H.H.K.K.J.K.L.H.K.G.z.z.z.z.l.[ C [ J.H.H.K.K.K.K.I.K.K.K.K.K.K.G.G.B.z.z.z.v.v.v.v.v.v.v.c.c.c.c.v.z.c.l.Z.G.K.H.G.H.H.H.G.G.Z.H.H.H.M.m F B.B.Z.G.H.G.G.G.G.G.H.G.G.G.G.G.G.G.G.G.z.l.l.c.l.k.k.l.l.l.l.k.k.k.' l.' B u ; > - t d d f m N A G [ ;.) 1 O   & r @XgX9X6X<X`.4.,.6.6.1.1.1.1.6.3.:.=.o.Q Q W W W E E E E W ^ r X   < s p { M.M.M.B.S.S.A.v.B.B.B.B.M.v.v.n.v.c.c.c.c.[ l.[ ) @ @ {.rXeXeXeX8X$.> +Xs.7.3.3.3.,.L ..7.7.1.1.1.1.1.1.6.@.+ 8 +.....Q +., . h.BXMXMXmXNXAXKXKXPXPXPXPXPXPXPXPXPXPXPXPXPXPXPXPXPXPXPXPXPXPXPXPXPXPXPXPXPXPXPXPXPXPXPXPXPXPXPXPXPXPXPXPXPXPXPXPXPXPXPXPXPXPXPXPXPX",
"PXPXPXPXPXPXPXPXPXPXPXPXPXPXPXPXPXPXPXPXPXPXPXPXPXPXPXPXPXPXPXPXPXPXPXPXPXPXPXPXPXPXPXPXPXPXPXPXPXPXPXPXPXPXPXPXPXPXPXPXPXFXsXX H ,XuXuXcXr.@ 6.|.8.7.w.q.7.w.w.r.h #.3.3.w.w.w.e.w.6.5 : Y W W +.+.:   $ J J b V b J b V b b z M N M.U.U.Y.K.K.L.K.K.K.I.K.K.K.K.H.U.F.A./ u 1 - - @ @ 5 *. X$X>X$XoXoXoX$XoXoXoXoXoX X4.2.>.:.*.+.@.I H 3.{. X`.h @ O < J _ C B k c V ) ) t - - l <.J.J.K.J.J.K.J.J.K.K.G.K.G.z.z.z.z.l.l.N [ J.H.H.H.K.K.K.K.K.K.G.K.H.H.H.G.B.z.z.z.z.z.z.z.v.v.v.v.v.v.c.c.c.c.c.B.H.G.G.G.H.G.G.G.Z.Z.H.G.G.D.N Z M.B.G.G.G.G.G.G.G.G.G.G.G.G.G.G.G.G.G.S.v.l.l.l.k.k.k.k.k.l.k.k.k.k.' ` c 1 ; ; ; t i f f f C A F { =.R - o + 8 0.5X9X9X9X X4.2.2.2.7.6.1.,.1.,.$.$.o.Q Q E E R R L U U P K 0 5 *   X 6 g k { M.M.M.v.v.m.n.v.z.l.l.l.z.v.v.M.c.c.c.c.[ [ l.[ J @ @ {.rXeXuXuX9X$., g.s.7.3.3.3.$.L #.7.7.3.6.6.1.1.1.6.+.@ 8 +........., . h.BXMXMXBXNXAXKXPXPXPXPXPXPXPXPXPXPXPXPXPXPXPXPXPXPXPXPXPXPXPXPXPXPXPXPXPXPXPXPXPXPXPXPXPXPXPXPXPXPXPXPXPXPXPXPXPXPXPXPXPXPXPXPXPXPX",
"PXPXPXPXPXPXPXPXPXPXPXPXPXPXPXPXPXPXPXPXPXPXPXPXPXPXPXPXPXPXPXPXPXPXPXPXPXPXPXPXPXPXPXPXPXPXPXPXPXPXPXPXPXPXPXPXPXPXPXPXKXFXaXX H <XuXeXcXr.@ 6.|.8.7.w.8.7.w.w.r.h #.3.3.w.w.w.e.w.6.5 * Y W W +.+.:   $ J v b b b b b V V b b M N B.U.U.Y.K.K.K.K.K.K.K.K.K.K.K.K.U.U.P.(.F._ s 1 > - O O > #.{.>X>XoXoX$XoXoXoXoXoXoX X`.4.2.1.*.+.@.U K :.{.oX{.K @ O 1 J ( V M k d J ) b - - - s ] A.S.S.S.G.G.H.G.J.H.H.Z.N.z.B.B.l.M.N [ U.H.H.K.K.K.K.K.K.K.H.K.H.H.H.H.M.c.c.c.z.z.z.z.l.l.l.v.v.v.c.c.c.c.c.B.H.H.H.H.H.H.H.H.Z.Z.G.G.H.D.F N M.S.G.N.G.N.S.N.N.G.S.S.G.S.S.S.S.N.N.N.c.c.c.l.l.l.l.l.k.k.k.k.k.' ( k ; ; ; ; t d d f f N A [ { | h @   X e g.jX9X8X>Xu.>.>.2.2.3.3.1.1.,.#.+.W W W E E W ^ ~ U w 8 & + o o o o   # < g k { M.M.B.v.v.m.v.v.c.l.l.l.c.v.v.v.c.M.c.c.[ [ k.l.E @ @ |.rXeXuXuX8X$., g.s.7.3.3.3.$.L #.7.7.3.6.6.1.1.1.6.O.@ 8 +...X....., . h.MXMXMXBXBXDXKXPXPXPXPXPXPXPXPXPXPXPXPXPXPXPXPXPXPXPXPXPXPXPXPXPXPXPXPXPXPXPXPXPXPXPXPXPXPXPXPXPXPXPXPXPXPXPXPXPXPXPXPXPXPXPXPXPXPX",
"PXPXPXPXPXPXPXPXPXPXPXPXPXPXPXPXPXPXPXPXPXPXPXPXPXPXPXPXPXPXPXPXPXPXPXPXPXPXPXPXPXPXPXPXPXPXPXPXPXPXPXPXPXPXPXPXPXPXPXPXKXFXaXX H <XuXeXzXr.@ 6.|.8.7.8.w.7.8.w.r.h #.1.3.w.w.w.e.w.6.8 * Y W W +.+.:   $ J v b b b b b b b b z z M M.U.I.I.K.K.I.K.K.I.K.K.K.K.K.K.K.K.J.J.J.U.F.] g 1 < - + o > $. X$X$X$XoXoXoXoXoXoXoXoX}.4.>.>.*.+.+.U h o.`. X{.K + O 6 / C V M k d V <.J - - - ; ; y i k m M V C C A F A A F F F C C k M { ] ] [ [ ` [ [ ' ' ` [ ' ' ' ' ` C C C C C C D C A A A A ` ` A A A A A ` ` ` ` ` ` ` ` ] ` ' ` ] ` V k C ` ` ` ] ` ' ' ' [ [ [ [ [ [ [ ` ` ` ` C C C V V V M M m m m m k d u ; ; ; ; 1 i d d f N A F } | 1 O   & O.:XjXgX<X|.2.:.2.2.3.3.3.3.,.*.#.W P P P W ^ ^ K 0 4 & o o o O - > 5 6 o o 6 s k { M.M.M.v.v.v.v.v.c.B.l.l.c.v.c.c.c.c.c.c.[ [ j.l.E @ @ |.rXrXuXrX8X#.: g.s.7.3.3.1.#.L $.7.7.7.6.1.3.3.3.6.~ @ 8 +...X...W , . h.MXMXMXBXBXDXKXPXPXPXPXPXPXPXPXPXPXPXPXPXPXPXPXPXPXPXPXPXPXPXPXPXPXPXPXPXPXPXPXPXPXPXPXPXPXPXPXPXPXPXPXPXPXPXPXPXPXPXPXPXPXPXPXPXPX",
"PXPXPXPXPXPXPXPXPXPXPXPXPXPXPXPXPXPXPXPXPXPXPXPXPXPXPXPXPXPXPXPXPXPXPXPXPXPXPXPXPXPXPXPXPXPXPXPXPXPXPXPXPXPXPXPXPXPXPXPXKXFXaX. H <XuXeXzXr.@ 6.|.w.7.7.w.7.8.w.r.h o.1.3.w.w.w.e.e.6.8 * Y W W +.+.:   $ J v b b b J b b b b b c M M.H.I.K.R.I.I.I.L.Y.L.L.L.L.I.I.I.I.K.K.K.K.K.J.<./ s y > - + + 0 7.#X>XoXoXoXoXoXoXoXoXoX X`.>.>.*.#.+.Y h W `. X[.0 @ @ 6 V C V B m d _ <.v ; - - - - - - ; ; ; ; ; ; ; t t t t t ; ; ; ; 1 t ; t y t t t t t u u u u u u t ; ; 1 t t t ; ; t t t t t u t t t t t t ; t ; ; ; ; ; t t u u t 1 1 ; 1 ; ; ; t t t t t t t t t t t t t t t y 1 ; ; ; ; ; ; ; ; ; ; ; ; ; ; ; ; ; u i d d p m N _ ] J < $ # = a.5XjX8X#Xe.2.2.3.4.4.3.2.3.,.#.W P L U U U I q 5 : + o + - < 6 6 h l v H O o < s k { M.M.M.v.v.v.v.v.c.B.B.M.c.c.c.c.c.c.c.c.[ [ l.l.E @ $ |.rXrXuXrX8X#., g.d.7.3.3.1.#.L ,.7.7.6.3.1.7.3.3.6.~ @ 8 +........., . h.MXMXMXBXBXAXKXPXPXKXKXPXPXPXPXPXPXPXPXPXPXPXPXPXPXPXPXPXPXPXPXPXPXPXPXPXPXPXPXPXPXPXPXPXPXPXPXPXPXPXPXPXPXPXPXPXPXPXPXPXPXPXPXPXPX",
"PXPXPXPXPXPXPXPXPXPXPXPXPXPXPXPXPXPXPXPXPXPXPXPXPXPXPXPXPXPXPXPXPXPXPXPXPXPXPXPXPXPXPXPXPXPXPXPXPXPXPXPXPXPXPXPXPXPXPXPXKXFXsX. H ,XuXuXcXr.@ 6.|.w.7.w.w.7.w.w.w.h $.1.3.3.w.r.e.e.6.8 * Y W W ..@.:   $ J v b b b b b b b b z z M B.I.K.K.K.K.I.Y.L.L.L.J.K.L.I.I.I.I.K.K.K.K.K.K.J.D.{ B g a < : + : I '. X>X>XoXoXoXoXoXoXoX X^.2.:.$.*.+.U 0 Q `. Xs.0 O @ h V V N B d d ) 4.<.J a 1 ; > - - - - - - - - - - - - - - - - - - - - - - - - - - - - - ; ; ; ; - - - - - - - - - - - - - - - - - - - - ; - - - ; - ; - - ; ; ; ; - - - - - - - - - - - - - - - - - - - - - - - - - - - - - - - - - - - - - ; ; ; u d p d p f N _ | v * + # e @XgXlX<X|.3.>.3.7.7.3.3.>.>.#.Q L K K K U K 0 : + + + - < a s j j z k k k h - o < s p { M.M.c.v.v.n.n.v.z.B.B.M.c.c.c.v.c.c.c.c.[ [ j.l.E @ * {.rXrXeXeX9X#., g.d.7.3.3.1...L :.7.6.3.3.6.3.3.2.1.~ @ 8 +...o....., . h.mXMXNXBXBXAXKXPXKXKXPXPXPXPXPXPXPXPXPXPXPXPXPXPXPXPXPXPXPXPXPXPXPXPXPXPXPXPXPXPXPXPXPXPXPXPXPXPXPXPXPXPXPXPXPXPXPXPXPXPXPXPXPXPXPX",
"PXPXPXPXPXPXPXPXPXPXPXPXPXPXPXPXPXPXPXPXPXPXPXPXPXPXPXPXPXPXPXPXPXPXPXPXPXPXPXPXPXPXPXPXPXPXPXPXPXPXPXPXPXPXPXPXPXPXPXPXKXFXsXX H <XuXuXcXr.@ 5.|.8.7.w.w.7.8.8.8.9 $.1.3.3.w.r.e.e.6.8 * Y W Q ..@.:   $ J J b b b b b b b b b z M D.I.K.K.K.K.K.L.L.L.L.L.L.L.K.K.K.K.K.K.K.H.J.K.L.L.J.D._ z s a > @ + > W {.$X$XoXoXoXoXoXoX X X`.2.>.*.%.+.I h o.{. Xp.6 + - h ) V B B d m A.(././.A.] / x s a y y 1 ; 1 a y y y y 1 1 1 1 1 1 1 1 1 1 1 1 1 1 ; ; ; ; 1 ; ; ; ; ; ; ; ; ; ; ; ; ; ; ; ; ; ; ; ; ; ; ; ; 1 1 ; ; ; ; ; ; ; ; ; ; ; ; ; ; ; ; ; ; ; ; ; ; ; ; ; ; ; ; ; ; ; ; ; ; ; ; ; ; ; ; ; ; ; 1 1 t u d k B m B f m / | h - X & O.#XgXgX>Xp.3.3.3.3.7.3.2.>.=.W L L L K U K 0 - O + @ > 6 s d c k k k c p d d s - O < s k { M.M.M.v.v.n.n.v.z.B.B.M.c.c.c.c.c.c.c.c.[ [ k.l.E @ $ |.rXeXeXrX8X#., g.d.7.3.3.,...U ,.7.6.3.6.6.3.3.2.1.~ @ 8 +...o....., . h.mXMXNXBXBXAXKXPXKXKXPXPXPXPXPXPXPXPXPXPXPXPXPXPXPXPXPXPXPXPXPXPXPXPXPXPXPXPXPXPXPXPXPXPXPXPXPXPXPXPXPXPXPXPXPXPXPXPXPXPXPXPXPXPXPX",
"PXPXPXPXPXPXPXPXPXPXPXPXPXPXPXPXPXPXPXPXPXPXPXPXPXPXPXPXPXPXPXPXPXPXPXPXPXPXPXPXPXPXPXPXPXPXPXPXPXPXPXPXPXPXPXPXPXPXPXPXKXFXsXX H <XuXuXcXw.@ 6.|.w.7.w.w.7.8.8.8.9 ,.3.3.7.e.r.w.w.6.5 * Y W ..+.@.:   $ J J b b z b b b b b b z M A.H.K.L.K.K.L.L.L.L.L.L.L.L.J.K.L.L.K.K.K.H.K.J.K.K.K.H.F.;.V i h 0 : # @ 0 e.$X$X$XoXoXoXoX X X X`.2.:.$.#.+.Y H =.}.}.w.5 + > v _ C C B k ` U.U.Y.K.G.H.D.A.A.} _ _ ) V _ _ _ _ _ _ _ ) S ) / / ) ) ) ) ) ) ) V V V ) / b z z z z c k k k z z z k c c k j c c c c c c V V V V V V V V B B V V b z u c c c c b c c b b b b b b b b x x x x j j j i j j z k k k k c c b / / / / C N N m N { l - + = &.2X8X5X|.0.3.7.q.q.7.3.,.o.Q R L H L L I 0 : O O : < a g s j k k c z k k c c J x - O < s k { M.M.M.v.S.S.A.v.M.B.B.B.c.c.c.c.c.c.c.c.[ [ j.l.E + $ |.rXeXeXrX8X+., g.d.3.3.3.,...U ,.7.3.3.6.6.3.3.1.6.@.@ 8 +.o......., . h.mXMXNXBXBXAXKXPXKXKXKXKXPXPXPXPXPXPXPXPXPXPXPXPXPXPXPXPXPXPXPXPXPXPXPXPXPXPXPXPXPXPXPXPXPXPXPXPXPXPXPXPXPXPXPXPXPXPXPXPXPXPXPXPXPX",
"PXPXPXPXPXPXPXPXPXPXPXPXPXPXPXPXPXPXPXPXPXPXPXPXPXPXPXPXPXPXPXPXPXPXPXPXPXPXPXPXPXPXPXPXPXPXPXPXPXPXPXPXPXPXPXPXPXPXPXPXPXJXsX. H <XuXuXzXw.& 5.|.w.7.7.7.7.8.8.7.0 ,.3.3.q.w.r.e.e.6.5 * I W E Q W *   @ v v b b b b b b b v b b V A.H.I.I.K.K.H.K.K.L.L.L.L.J.J.L.L.L.L.L.L.K.K.K.K.K.K.H.G.H.M.F k j g < - o , +.#X>X=XoXoXXXoXoX XoX`.>.#.#.#.^ K 0 >.{.`.=.> + > H ) C C C M } D.D.J.J.D.D.A.A.M.M.M.] D { ] ] [ ' { ] ] ` ] { { ' { ' { ' ] ' ' ' ' ' ` ( C C N C N N N V N N V N V V B V V C V V V C ` ' ' ' } } [ [ [ [ ' [ [ ` m ` ' ' { ' ' [ } } } } [ [ [ [ [ ' ` ` A A A Z A A A C A C C C A A A A A ( ( C Z m / R - + # 3.5X8X<X[.3.3.8.8.q.,.>.:.Q E J J H H Y 8 = + @ < 1 s d j j j z c k k m C ` ' } } ) - O 1 s k { M.M.M.B.v.v.M.c.v.c.c.v.A.c.M.c.M.c.c.c.[ l.j.[ E + $ |.rXeXeXeX8X#., g.d.3.3.1.:...P ,.7.1.7.7.7.7.3.1.1.@.+ 8 +...Q ..+., . *XBXMXMXBXBXAXKXPXKXKXKXKXPXPXPXPXPXPXPXPXPXPXPXPXPXPXPXPXPXPXPXPXPXPXPXPXPXPXPXPXPXPXPXPXPXPXPXPXPXPXPXPXPXPXPXPXPXPXPXPXPXPXPXPXPX",
"PXPXPXPXPXPXPXPXPXPXPXPXPXPXPXPXPXPXPXPXPXPXPXPXPXPXPXPXPXPXPXPXPXPXPXPXPXPXPXPXPXPXPXPXPXPXPXPXPXPXPXPXPXPXPXPXPXPXPXPXPXJXsX. H ,XuXuXzXw.& 5.|.w.7.7.q.7.8.8.6.9 1.3.3.q.w.r.e.e.6.5 * I W E Q W *   & v v v b b b b b b v b b C A.H.I.K.K.K.U.K.K.K.K.Y.L.L.L.K.J.J.L.L.L.K.K.K.K.C.H.K.K.G.H.D.] k p x 1 - O @ 0 |.>XoXoXXXoXoXoXoX X`.:.#.#.#.T K h >.`.`...: O - v / C D C C [ M.M.M.B.M.M.M.M.M.M.] D [ [ [ [ [ ] ] ] ` ] [ [ [ [ [ } [ [ [ [ ' [ [ ` A C C V C C V V V V V V C C C M N V C V C V C ` [ } } [ [ [ k.k.k.[ ' ' ] m ` [ ' { ' } x.c.} c.} } } } } [ ' ' ` ` A A C C C C C A A C C C C A C C A ( / N V J - @ * 0.5X5X-Xu.2.w.w.7.7.3.:.Q Q E H R R W K , o O , 6 h g d d k k c c k M ` { c.M.v.M.c.) - O 1 s k { M.M.M.v.v.v.M.v.M.v.c.v.A.c.c.c.M.c.c.c.[ [ j.[ E + $ |.rXeXeXeX8X+., g.d.3.3.2.:...P ,.7.1.7.7.7.7.3.2.6.O.@ 8 +.Q Q ..+., . *XmXMXMXBXBXAXKXKXPXKXKXPXPXPXPXPXPXPXPXPXPXPXPXPXPXPXPXPXPXPXPXPXPXPXPXPXPXPXPXPXPXPXPXPXPXPXPXPXPXPXPXPXPXPXPXPXPXPXPXPXPXPXPXPXPX",
"PXPXPXPXPXPXPXPXPXPXPXPXPXPXPXPXPXPXPXPXPXPXPXPXPXPXPXPXPXPXPXPXPXPXPXPXPXPXPXPXPXPXPXPXPXPXPXPXPXPXPXPXPXPXPXPXPXPXPXPXPXJXsX. H ,XuXrXzXr.+ 5.|.8.3.7.q.3.8.8.,.9 1.7.3.q.w.r.e.e.6.5 * I +.Q ..W *   & v v v b b b v b b v b b V A.H.I.I.K.K.U.Y.K.K.K.L.L.L.L.L.L.L.L.L.L.I.I.I.I.K.K.K.U.K.G.H.J.c.N p j a > o o 5 i.#X XoXoXXXoXoX X Xp.#.#.#.+.W h h 4.`.{.L - @ < E / C C C C F [ [ [ M.;.} [ [ [ ] D ] [ [ [ ' ] ] ] F ] [ ] [ [ [ [ [ [ [ [ [ [ [ ` F N C C N N N N V V V C C C C N N N N N N N N F [ [ l.l.' ' l.l.[ [ ' [ ] m F [ [ [ [ x.x.x.x.c.c.x.} } } [ [ [ ' ` ( ( ( ( ( A A F F A C C C A A C A ( / C J > + & 0.gX8X-X4.3.w.w.w.3.:.=.Q E R R L U I 5 + O - 1 a h j j j k k k k M _ { } v.c.z.c.v.v.) - O 1 s k { M.M.M.B.v.v.M.v.M.M.v.v.A.v.c.c.c.c.c.c.[ [ j.[ E @ $ |.rXeXeXeX8X+., g.d.3.3.2.,...P ,.1.1.7.6.6.3.3.1.6.O.$ 8 +.Q Q ..+., . *XmXNXBXBXBXAXKXKXPXPXPXPXPXPXPXPXPXPXPXPXPXPXPXPXPXPXPXPXPXPXPXPXPXPXPXPXPXPXPXPXPXPXPXPXPXPXPXPXPXPXPXPXPXPXPXPXPXPXPXPXPXPXPXPXPX",
"PXPXPXPXPXPXPXPXPXPXPXPXPXPXPXPXPXPXPXPXPXPXPXPXPXPXPXPXPXPXPXPXPXPXPXPXPXPXPXPXPXPXPXPXPXPXPXPXPXPXPXPXPXPXPXPXPXPXPXPXPXJXaX. H ,XuXrXzXr.+ 5.|.8.3.q.w.3.w.8.*.h 1.7.3.7.w.r.e.e.6.5 * I +.Q ..^ *   & v v v b b b v z b v b b C D.H.I.I.K.K.U.K.K.K.K.K.K.K.J.J.K.L.L.L.K.K.K.K.K.K.K.K.H.G.G.G.H.H.v.Z m j h > o + 5 6. XoXoXXXoXoX X X Xe.o.o.+.+.P h l 4.{.`.0 + @ 6 J / z V V V S S _ ] ] ] ] ` ] ` D ] { { [ ' [ ` ` ` [ [ [ [ [ [ [ [ [ [ [ [ [ [ ' F C C C N V V C C C C C N V V C C C C V C C N ` [ [ [ [ [ [ l.l.l.[ [ [ [ m F [ ' [ [ c.c.x.l.l.l.x.c.c.c.[ [ [ ' ` A A A A A A A A A A A C C A ( ( ( ( / ) 6 + = 5.5X<X-Xw.2.w.w.4.>.o.E Q E E R E U 0 * X + > a d d d k k k k k m C ` [ } c.c.z.v.z.z.c.) - O 1 s k | M.M.M.B.v.v.M.M.M.v.v.v.A.v.c.c.c.c.} } [ [ j.[ E @ $ |.rXeXuXeX8X#., +Xd.7.3.3.,...P ,.1.1.7.1.6.3.3.1.6.@.@ 8 +.Q E ..+., . *XBXNXBXBXBXAXKXPXPXPXPXPXPXPXPXPXPXPXPXPXPXPXPXPXPXPXPXPXPXPXPXPXPXPXPXPXPXPXPXPXPXPXPXPXPXPXPXPXPXPXPXPXPXPXPXPXPXPXPXPXPXPXPXPXPX",
"PXPXPXPXPXPXPXPXPXPXPXPXPXPXPXPXPXPXPXPXPXPXPXPXPXPXPXPXPXPXPXPXPXPXPXPXPXPXPXPXPXPXPXPXPXPXPXPXPXPXPXPXPXPXPXPXPXPXPXPXPXJXaX. H ,XuXrXzXr.+ 5.|.8.3.q.w.3.w.8.#.K 1.7.3.3.w.r.e.e.6.5 & I +.Q o.^ *   & v v v c b b v z v v v b V D.H.I.K.K.K.K.K.K.K.K.K.J.K.J.J.J.K.L.L.L.K.K.K.K.K.K.K.K.H.G.Z.G.K.H.V.' m x h < O o > :.#XoXoXoXoXoXoX X X4.o.Q +.W U 9 Q `.{.6.8 + O < h h h a g h h g l l l l v J b b / _ _ _ _ ) ) ) ) / _ ) ] ) ) ] | | | | | | | ) _ V V V V V V V V V V V V V V V V / V V V V V _ ] ` ` ` ` ` ` ` ` { { { | V _ { ` { { { { { { { { { } { { { { { ` _ _ _ _ _ _ / / _ _ / / / / / / / / / J h @ + 5.;X8X Xw.2.w.4.2.:.o.E E E E L W U 5 + o @ 6 h s d d d k k k m C ` ] ] ' } v.c.z.z.z.z.v.) - O 1 g k ] A.M.M.B.v.v.M.A.n.v.v.v.A.v.c.c.c.c.c.c.[ l.j.[ E + $ {.rXeXeXeX5X#., @Xd.7.2.3.1...T ,.1.1.7.1.6.1.3.1.1.@.$ 5 +.Q E ..+., . *XBXNXMXBXBXAXKXPXPXPXPXPXPXPXPXPXPXPXPXPXPXPXPXPXPXPXPXPXPXPXPXPXPXPXPXPXPXPXPXPXPXPXPXPXPXPXPXPXPXPXPXPXPXPXPXPXPXPXPXPXPXPXPXPXPX",
"PXPXPXPXPXPXPXPXPXPXPXPXPXPXPXPXPXPXPXPXPXPXPXPXPXPXPXPXPXPXPXPXPXPXPXPXPXPXPXPXPXPXPXPXPXPXPXPXPXPXPXPXPXPXPXPXPXPXPXPXPXJXaX. H <XuXuXzXr.+ 5.|.8.3.7.q.3.w.8...U 7.7.3.7.w.r.e.e.6.5 & Y +.Q o.+.*   & v v v b b b b b v b b b V A.H.H.K.K.K.L.K.K.K.L.L.K.L.L.L.L.L.K.L.L.I.K.I.I.K.K.K.K.K.Z.Z.Z.H.H.H.G.' m c x 1 @ O : $.>XoXoXoXoXoXoX X{.2.o.Q ..+.K 0 >.e.8.Y $   o o o + o + @ @ @ @ @ @ - - - - - - - - > > - - - - > > > < < > > > > < < < < < < < < < < < ; < < ; ; ; ; ; < < < < < < < < ; - < < < < < < < < < < < < < < < < < < 1 1 1 1 1 < < < < < < < < < < < < < < < < < > 2 < < < < < < > > > > - - +   8 ;XfX-X3.3.w.3.>.o.Q Q E E E W ^ K , o o : 6 h x j k c k k m V ( ` ' ' ' ' } c.M.M.z.B.c.v.) - O < j k ] A.M.M.B.v.v.M.A.n.n.v.v.A.v.c.c.c.c.M.M.[ l.j.[ E + $ {.rXeXeXeX8X#., g.d.3.2.3.1.#.W ,.1.1.7.1.6.1.3.1.1.@.@ 8 +...E ..+., . ;XBXNXmXBXBXAXKXPXPXPXPXPXPXPXPXPXPXPXPXPXPXPXPXPXPXPXPXPXPXPXPXPXPXPXPXPXPXPXPXPXPXPXPXPXPXPXPXPXPXPXPXPXPXPXPXPXPXPXPXPXPXPXPXPXPX",
"PXPXPXPXPXPXPXPXPXPXPXPXPXPXPXPXPXPXPXPXPXPXPXPXPXPXPXPXPXPXPXPXPXPXPXPXPXPXPXPXPXPXPXPXPXPXPXPXPXPXPXPXPXPXPXPXPXPXPXPXPXJXaXX H <XuXuXzXr.+ 5.|.w.7.7.q.3.w.8.P U 7.7.3.q.w.r.e.e.6.5 $ Y +...o.+.*   & v v b b b b b b b b b b V D.U.I.K.I.I.Y.K.K.K.L.L.L.L.L.L.L.L.K.L.L.K.I.I.I.K.L.K.K.G.Z.Z.Z.H.C.H.H.H.c.N k j 6 - O : Q oXoXoXoXoXoXoX X`.:.o.@.+.^ h h ..*.5 $ # X % % % # # + + X X X + + + + . X X X X X X X X X X % X X X X X X X X X X X X   X X   o + o o o + # # # # # # #               X X X X X # # X             X X + X   + + X X X X X X X . X X . . X . . . . . . . . . X X X X X X   X X X . . . X 8 -X#X,.3.3.3.>.o.Q E E E E Q ^ K @   o , 0 g j j x c k c B ( { { ' ' ' ' ' [ c.v.M.B.B.v.v.) - O 1 j k ] D.M.M.B.v.v.M.n.v.v.v.n.A.v.M.c.M.M.c.c.[ l.j.[ E + $ {.rXeXeXrX8X#., g.d.3.2.3.1.#.W ,.1.1.7.1.6.1.3.1.1.~ @ 8 +...E ..+., . ;XBXMXmXBXBXAXKXPXPXPXPXPXPXPXPXPXPXPXPXPXPXPXPXPXPXPXPXPXPXPXPXPXPXPXPXPXPXPXPXPXPXPXPXPXPXPXPXPXPXPXPXPXPXPXPXPXPXPXPXPXPXPXPXPXPX",
"PXPXPXPXPXPXPXPXPXPXPXPXPXPXPXPXPXPXPXPXPXPXPXPXPXPXPXPXPXPXPXPXPXPXPXPXPXPXPXPXPXPXPXPXPXPXPXPXPXPXPXPXPXPXPXPXPXPXPXPXPXJXaX. H ,XuXuXzX0.& 5.|.w.3.3.7.3.8.8.K ..7.7.3.q.w.w.e.e.6.8 & Y +...o.+.*   & R J v b b v b b b v z z V A.U.L.K.K.K.U.U.J.J.U.U.U.U.H.H.J.L.J.L.L.I.K.K.K.I.I.K.G.G.G.Z.Z.H.Z.G.K.L.J.c.C B v a - O @ %.#XoXoXoXoXoXoX Xe.:.......L 9 T 0 - #.[.7.#.P P P L K K 0 0 0 0 0 0 0 0 0 0 0 0 0 0 0 h 0 0 h h h 9 9 0 0 0 0 0 0 0 0 0 0 0 0 0 0 0 6 6 6 8 8 8 0 0 8 8 8 8 8 8 5 5 8 8 5 5 5 5 5 8 5 5 5 6 6 9 9 9 9 8 9 9 9 9 0 0 0 0 8 8 0 8 8 8 8 8 8 8 5 8 8 5 5 5 5 5 5 5 5 5 5 5 5 5 5 5 5 8 9 K , O.6.=.<.2.:.o.Q W E E E Q ^ q #   X 1 g j j j j j k m V ] ' } [ ' ' ' ' ' [ c.c.z.z.c.c.c.) - O < d k ] F.M.v.v.v.v.c.M.v.v.v.v.v.v.v.v.v.v.l.[ c.l.l.[ E @ @ {.rXeXeXuX8X+., g.f.2.3.6.6.$.W ,.3.3.7.6.1.3.3.3.1.@.+ 8 +.Q Q Q +., . *XmXMXNXmXBXDXKXKXKXKXPXPXPXPXPXPXPXPXPXPXPXPXPXPXPXPXPXPXPXPXPXPXPXPXPXPXPXPXPXPXPXPXPXPXPXPXPXPXPXPXPXPXPXPXPXPXPXPXPXPXPXPXPXPXPX",
"PXPXPXPXPXPXPXPXPXPXPXPXPXPXPXPXPXPXPXPXPXPXPXPXPXPXPXPXPXPXPXPXPXPXPXPXPXPXPXPXPXPXPXPXPXPXPXPXPXPXPXPXPXPXPXPXPXPXPXPXPXJXaX. K 4XuXuXcX0.& 5.|.w.3.3.7.3.8.8.9 +.7.7.3.q.w.w.e.e.6.8 & Y ....o.+.*   : R v v b b v b b b b b z M A.P.H.I.K.H.K.K.K.L.Y.L.U.U.K.K.K.K.K.K.I.K.K.K.K.K.I.K.H.G.G.G.Z.H.Z.G.H.K.L.Y.A.C V x a - O @ #. XoXoXoXoXoXoX{.2.$.....W 0 5 : 0 :XcXjXjXgXzXjXjXgXgXgXgXgXgXgXgXgXgXgXgXgXgXjXjXjXjXjXjXgXgXgXgXgXgXgXgXgXgXgXgXgXgXgXgXgX8X8XfX8X8X5X5X5X5X5X5X5X5X5X5X5X5X5X5X5X5X5X5X5X5X5X3X2X2X2X2X3X5X3X5XfXfXfXgXgXfXgXgXgXgX8XfXgXgXgXgX8X8X8XgXgXgXgXgXgXgXgXfXfXfXfXfXfXfXfXfXfXfXfXfXfX5X6., h ,.2.=.o.Q E E E Q Q ^ q #   + 6 g x j k k k c B ( ' ' ' [ [ [ [ [ ' ' [ c.c.z.z.c.c.c.) - o < i k _ F.M.v.v.v.v.v.M.v.v.v.v.v.v.v.v.c.c.l.[ [ l.l.[ E @ @ {.rXeXeXuX8X+., g.f.2.3.6.6.,.#.,.,.1.1.1.1.3.3.1.1.@.@ 8 +.Q Q Q +., . *XmXMXMXMXBXAXKXPXKXKXKXPXPXPXPXPXPXPXPXPXPXPXPXPXPXPXPXPXPXPXPXPXPXPXPXPXPXPXPXPXPXPXPXPXPXPXPXPXPXPXPXPXPXPXPXPXPXPXPXPXPXPXPXPXPX",
"PXPXPXPXPXPXPXPXPXPXPXPXPXPXPXPXPXPXPXPXPXPXPXPXPXPXPXPXPXPXPXPXPXPXPXPXPXPXPXPXPXPXPXPXPXPXPXPXPXPXPXPXPXPXPXPXPXPXPXPXPXJXaXX K 4XuXuXcXr.& 5.|.w.3.3.8.3.8.8.0 ,.7.7.3.q.w.w.e.e.6.8 & Y ..Q o.^ *   & J v v b b v v v b b b m C A.P.H.U.H.H.H.H.H.J.J.F.P.P.H.H.L.L.K.K.I.K.K.K.K.T.Y.L.H.G.G.G.Z.C.Z.Z.H.H.L.L.J.M.A m x a - O : ,.#XoXoXoXoXoX X'.o.o.P P 0 : : *.5X5X8X8X8X9X9X9X9X9X9X9X9X9X9X9X4X8X8X8X9X9X9X9X9X9X9X9X8X9X9X9X9X9X9X8X9X9X8X8X9X9X9X9X8X8X8X8X8X8X5X8X4X4X8X8X8X4X4X4X8X8X8X8X9X8X8X4X4X4X4X4X3X3X3X4X4X4X4X4X4X4X8X8X8X8X8X8X8X8X8X8X9X8X8X8X9X8X9X9X9X9X9X9X9X9X8X8X9X8X8X8X8X8X8X8X8X8X4X3X3X5X-XI 5 +.,.o.X.Q E E Q Q ~ 0 +   @ 6 h j x c k c k V ` ' ' [ ' [ k.[ [ [ [ [ ' l.c.z.z.z.c.M.| - o < i k _ F.M.M.v.v.v.v.v.v.v.v.A.M.v.v.v.c.c.l.[ [ l.[ [ E @ @ {.rXeXuXuX8X+., g.f.2.3.6.1.1.,.3.3.3.7.1.1.3.3.1.1.O.@ 8 +.Q Q Q +., . *XmXMXMXBXBXAXKXKXPXPXKXPXPXPXPXPXPXPXPXPXPXPXPXPXPXPXPXPXPXPXPXPXPXPXPXPXPXPXPXPXPXPXPXPXPXPXPXPXPXPXPXPXPXPXPXPXPXPXPXPXPXPXPXPXPX",
"PXPXPXPXPXPXPXPXPXPXPXPXPXPXPXPXPXPXPXPXPXPXPXPXPXPXPXPXPXPXPXPXPXPXPXPXPXPXPXPXPXPXPXPXPXPXPXPXPXPXPXPXPXPXPXPXPXPXPXPXPXJXaXX K 4XuXuXzX0.+ 5.|.w.3.3.8.3.8.6.0 6.1.3.3.7.q.w.e.e.6.8 & Y ....o.+.*   & v v v b b b b b b b b B C D.K.H.U.F.F.F.<.) v l h h h h J =.<.F.J.L.L.K.T.K.K.L.L.K.G.G.Z.Z.C.H.C.H.H.K.K.Y.K.v.A m x h - O , 7.$XoX$X$XoXoX X2.X.P H , + 6 ,.t.`.`.{. X X|.|.{.{.}.}.}.}.`.`.`.].].].].^.^.`.t.p.p.t.t.p.p.p.p.p.t.t.t.t.t.t.t.'.'.'.'.'.].].[.[.].[.[.`.{.[.[.[.{.{.{.{.{.{.{. X|. X X|.|.|. X X X X X X X{.{.{.{. X{.|.|.|.|.|.|.|.|.|.|.|.|.|. X X X X X X#X X X X X X X X X#X#X#X X#X#X#X>X>X2Xf.0 5 ^ ..E E E Q Q W 8 +   @ 6 g j j j k k M _ ] } [ ' [ k.k.[ [ [ [ ' [ ' l.c.z.z.z.c.M.| - O < i k ) F.M.v.v.v.m.v.v.v.M.A.A.A.M.v.v.c.l.[ [ [ [ j.[ E @ @ {.rXeXuXuX8X+., +Xf.2.3.6.1.3.1.3.3.3.6.7.1.3.3.1.6.O.$ 8 +.Q Q Q T , . *XmXMXMXBXBXAXKXPXPXPXKXPXPXPXPXPXPXPXPXPXPXPXPXPXPXPXPXPXPXPXPXPXPXPXPXPXPXPXPXPXPXPXPXPXPXPXPXPXPXPXPXPXPXPXPXPXPXPXPXPXPXPXPXPXPX",
"PXPXPXPXPXPXPXPXPXPXPXPXPXPXPXPXPXPXPXPXPXPXPXPXPXPXPXPXPXPXPXPXPXPXPXPXPXPXPXPXPXPXPXPXPXPXPXPXPXPXPXPXPXPXPXPXPXPXPXPXPXJXsXX K 4XuXuXcX0.+ 5.|.w.3.3.8.1.8.,.0 6.3.3.3.3.q.r.e.e.6.5 & Y ......^ *   : v v b b b b b b b b b c V D.L.J.F.<.R 0 > & & * + # # + & * > h | /.(.U.U.J.K.J.J.K.H.G.Z.Z.C.H.C.K.K.K.K.K.I.K.z.A c j 1 - o > q.>X>X>XoXoX X'...H 9 - 6 ^ Q o.=.>.>.>.>.>.>.>.>.:.:.>.>.:.:.:.>.:.:.,.>.:.:.*.:.,.:.,.,.,.*.,.,.,.>.>.,.,.,.>.,.,.>.>.:.:.:.:.:.>.:.:.:.:.$.$.:.:.:.:.:.:.:.:.:.:.,.,.:.:.:.:.o.=.:.:.:.:.:.:.:.#.#.$.$.*.*.*.*.,.,.*.$.$.$.$.$.$.$.$.$.$.$.$.$.#.#.$.#.#.#.$.:.:.:.:.>.:.:.=.>.>.,.Y : 8 T E E ) Q ^ 8 X o - 6 x j k j z m V ` { { [ ' ' ' [ ' ' [ [ ' ' [ ' l.c.z.z.z.c.M.| - O < d k S F.D.c.v.v.v.v.c.v.v.M.A.A.M.v.v.c.l.l.l.[ l.l.[ E @ @ {.rXeXeXuX8X#., g.f.2.3.6.6.1.1.3.3.3.6.7.6.6.2.1.6.O.$ 8 +.Q Q Q T , . *XmXNXMXBXBXAXKXPXPXPXPXPXPXPXPXPXPXPXPXPXPXPXPXPXPXPXPXPXPXPXPXPXPXPXPXPXPXPXPXPXPXPXPXPXPXPXPXPXPXPXPXPXPXPXPXPXPXPXPXPXPXPXPXPXPX",
"PXPXPXPXPXPXPXPXPXPXPXPXPXPXPXPXPXPXPXPXPXPXPXPXPXPXPXPXPXPXPXPXPXPXPXPXPXPXPXPXPXPXPXPXPXPXPXPXPXPXPXPXPXPXPXPXPXPXPXPXPXJXsXX K 4XuXuXcX0.+ 6.|.w.2.3.8.7.8.+.K 7.3.3.3.3.7.r.e.e.6.5 & Y ......~ * o > J v b b b b b b b b x b b 4.<.E < - @ $ , 8 w ! 5.5.O.r q = & + - h | /.U.U.K.H.J.H.H.G.Z.Z.Z.C.G.H.H.K.K.K.K.L.L.c.N k x a - O 6 [.>X>X=XoXoX`.>.9 : > ^ ,.>.2.>.>.>.>.>.>.>.>.>.>.>.>.3.3.3.,.,.,.3.7.7.6.6.6.6.6.6.6.6.6.6.3.3.3.7.6.7.6.3.3.3.3.,.,.3.>.>.>.,.3.6.6.6.6.,.,.,.,.,.6.6.6.6.,.6.6.6.6.6.6.6.3.3.3.,.,.,.,.,.,.,.,.,.,.,.,.,.*.*.*.,.*.*.*.*.*.$.*.$.$.*.*.#.*.$.#.$.#.#.#.+...#.#.#.#.Q o.Q Q W W U 0 5 @ 0 ..Q =.#.0 +   : a j k j k z c V { { ' ' [ [ ' ' ' ' ' [ [ ' ' ' ' ' l.z.z.z.c.c.| - O < i k V D.D.c.v.v.v.v.c.v.v.v.A.A.M.v.v.c.c.l.l.[ l.l.[ E @ @ {.rXeXeXeX8X#., @Xf.2.3.6.6.7.6.7.7.3.3.6.6.6.1.1.6.O.$ 5 +...Q W ~ , . *XmXNXMXBXBXAXKXPXPXPXPXPXPXPXPXPXPXPXPXPXPXPXPXPXPXPXPXPXPXPXPXPXPXPXPXPXPXPXPXPXPXPXPXPXPXPXPXPXPXPXPXPXPXPXPXPXPXPXPXPXPXPXPXPXPX",
"PXPXPXPXPXPXPXPXPXPXPXPXPXPXPXPXPXPXPXPXPXPXPXPXPXPXPXPXPXPXPXPXPXPXPXPXPXPXPXPXPXPXPXPXPXPXPXPXPXPXPXPXPXPXPXPXPXPXPXPXPXJXsXX K 4XuXzXcX0.+ 6.{.4.2.3.8.8.8.T U 6.3.3.7.3.3.r.e.e.6.5 & Y ......~ * o : J v b b b b b b b b b x v R 5 + + = e 5.0.d.d.d.a.a.a.d.d.a.&.e * + - x <.U.H.I.H.K.G.G.Z.V.Z.G.H.H.G.H.K.K.K.L.Y.L.' V k x < @ $ 0 {.>X=XOXoX X:.: : ^ >.o.=.>.>.>.>.,.,.,.>.>.>.>.>.>.>.>.>.>.>.>.3.3.3.7.3.3.3.3.3.3.3.3.2.2.2.2.3.3.3.3.3.3.2.2.>.>.>.>.>.>.>.>.>.>.>.>.>.>.>.>.>.>.>.>.>.>.>.>.>.>.:.:.:.>.>.>.>.>.,.,.,.,.,.:.*.$.:.:.:.:.:.>.>.:.$.$.$.#.#.#.#.#.#.#.#.#.#.o.o.o.....Q Q Q Q Q Q Q Q Q W W W W U U 5 & K :.=.H + . & 0 d k k k j z _ ] [ [ ' [ [ [ ' [ [ [ ' [ [ ' [ ' ' ' l.z.z.l.c.c.| - O < i k V A.D.v.v.v.v.v.c.v.A.M.M.A.M.v.v.c.l.[ l.[ c.l.} E @ @ {.rXeXeXeX8X#.4 g.f.3.3.6.6.3.6.7.7.7.3.3.6.6.3.1.6.O.$ 5 +...Q W @., . *XmXNXMXBXBXAXKXPXPXPXPXPXPXPXPXPXPXPXPXPXPXPXPXPXPXPXPXPXPXPXPXPXPXPXPXPXPXPXPXPXPXPXPXPXPXPXPXPXPXPXPXPXPXPXPXPXPXPXPXPXPXPXPXPXPX",
"PXPXPXPXPXPXPXPXPXPXPXPXPXPXPXPXPXPXPXPXPXPXPXPXPXPXPXPXPXPXPXPXPXPXPXPXPXPXPXPXPXPXPXPXPXPXPXPXPXPXPXPXPXPXPXPXPXPXPXPXPXFXsXX K <XuXuXzX0.& 6.|.w.2.3.7.6.8.K +.6.7.3.3.3.7.w.e.w.6.5 $ I +.....T * o : J v v v v b b v b c b H 5 * $ 5 ~ 6.a.a.8.1.*.*.$.#.+.+.@.,.0.0.5.q % + < | F.U.I.H.H.H.G.Z.Z.Z.V.Z.G.H.G.K.K.I.I.Y.H.} N m g < @ + L #XoX=XoX{.0 & 0 :.>.Q Q Q Q Q o.o.:.=.=.=.=.:.:.:.:.:.>.>.:.>.>.>.>.>.>.>.>.>.>.>.>.>.:.:.=.:.>.>.>.>.>.>.>.>.:.:.:.:.:.$.:.:.:.:.,.,.:.:.:.$.$.$.$.$.$.$.$.$.$.$.#.#.#.$.#.#.$.$.$.$.#.#.$.$.#.#.#.o.o.o.o.o.o.o.o.o.o.o.o.....+.+.+...+.+.W W W W W W W W W W W W W W W P P P L L U * , +.T : o $ 1 h g j z z M ' l.[ [ x.} [ [ k.' ' x.' ' ' [ k.' ' [ ' k.c.c.c.c.c.) - O < s k / ;.P.c.c.v.v.v.c.v.v.v.v.v.v.c.v.c.c.[ [ [ } l.} E @ * |.rXeXeXrX8X+., g.f.3.3.6.3.3.7.7.7.7.7.3.3.3.3.1.6.O.@ 5 ....o...@., X ;XmXNXNXBXBXAXKXKXPXPXPXPXPXPXPXPXPXPXPXPXPXPXPXPXPXPXPXPXPXPXPXPXPXPXPXPXPXPXPXPXPXPXPXPXPXPXPXPXPXPXPXPXPXPXPXPXPXPXPXPXPXPXPXPXPX",
"PXPXPXPXPXPXPXPXPXPXPXPXPXPXPXPXPXPXPXPXPXPXPXPXPXPXPXPXPXPXPXPXPXPXPXPXPXPXPXPXPXPXPXPXPXPXPXPXPXPXPXPXPXPXPXPXPXPXPXPXPXFXsX. K 4XuXuXzX8.+ 6.{.w.2.3.7.7.6.K $.6.7.3.3.3.3.q.w.e.6.4 @ K +.....Y &   : v v z z j b b v v v h < @ 4 r 0.a.0.6.*.$.$.$.*.$.$.$.$.#.%.&.*.6.6.O.= + < ) F.U.U.G.G.Z.Z.Z.N.Z.Z.H.G.G.K.K.K.K.Y.Y.J.` B x h > O @ W #X>X-X#.- 6 #.$.o.Q Q Q Q Q #.Q #.#.#.#.#.o.o.#.o.o.:.=.o.o.o.o.o.o.o.#.#.#.#.#.#.#.#.#.#.o.#.#.#.o.o.o.o.o.o.o.o.o.o.Q Q Q Q Q Q Q Q Q Q o.o.o.o.o.o.o.o.o.o.o.o.o.o.#.o.Q Q Q o.o.Q ^ #.#.Q Q ^ Q Q Q Q Q Q Q ^ ^ #.#.#.^ ^ Q ^ Q Q #.o.W Q Q Q Q Q Q Q W W Q Q Q P P P P P L R P 0 + 8 8 o @ 6 h h x x c V ] c.l.[ [ [ x.x.x.} [ [ ' [ k.k.k.k.' ' [ ' k.c.c.z.c.c.) - O < s k / [ U.M.c.c.v.z.c.c.c.c.c.v.v.v.v.c.} [ [ [ [ l.[ E @ * {.rXeXeXrX8X#.4 +Xf.2.3.7.3.3.7.7.7.3.3.3.3.3.3.6.6.O.+ 5 ....o...@., X ;XmXNXNXBXBXAXKXKXPXPXPXPXPXPXPXPXPXPXPXPXPXPXPXPXPXPXPXPXPXPXPXPXPXPXPXPXPXPXPXPXPXPXPXPXPXPXPXPXPXPXPXPXPXPXPXPXPXPXPXPXPXPXPXPXPX",
"PXPXPXPXPXPXPXPXPXPXPXPXPXPXPXPXPXPXPXPXPXPXPXPXPXPXPXPXPXPXPXPXPXPXPXPXPXPXPXPXPXPXPXPXPXPXPXPXPXPXPXPXPXPXPXPXPXPXPXPXPXFXsXX K 3XuXuXzX8.+ 6.{.w.2.3.3.7.,.K ,.7.7.7.3.3.3.q.w.e.6.4 $ I +.....T &   - v v z j j b v J H h , + 5 O.a.6.*.*.*.*.$.$.$.$.$.$.$.$.&.%.&.@.&.&.5.&.8 + > ) U.U.H.C.Z.Z.Z.N.Z.Z.G.G.G.K.K.K.I.U.U.Y.D.` m x a > @ : 6.-Xs.6 > W :.o.o...Q Q Q Q #.^ #.Q #.#.#.....o.....o.o.o.....o.o.....Q o.o.Q Q o.o.^ W ^ Q ^ #.o.............o.o.o.o.Q Q Q Q Q Q Q Q Q Q Q Q Q Q Q Q Q Q Q Q Q Q Q Q o.Q Q Q Q Q Q Q Q Q Q ^ Q Q Q Q =.Q Q Q Q Q #.#.Q ^ #.Q Q Q Q #.#.#.Q Q ....Q Q Q Q Q Q Q Q E E E E E E R R L T : X X # 6 h h h j z V { M.z.l.[ ' [ x.x.x.x.[ x.[ [ k.k.k.k.' ' [ ' ' c.c.z.c.c.) - O < s k V ] P.M.c.c.c.v.c.c.c.c.v.v.v.v.v.c.c.[ [ [ [ l.[ E @ * [.rXeXeXrX8X#., g.f.2.3.7.3.3.7.7.3.3.3.3.3.3.3.6.6.O.+ 8 ....o...@., X ;XmXNXNXBXmXAXKXKXPXPXPXPXPXPXPXPXPXPXPXPXPXPXPXPXPXPXPXPXPXPXPXPXPXPXPXPXPXPXPXPXPXPXPXPXPXPXPXPXPXPXPXPXPXPXPXPXPXPXPXPXPXPXPXPXPX",
"PXPXPXPXPXPXPXPXPXPXPXPXPXPXPXPXPXPXPXPXPXPXPXPXPXPXPXPXPXPXPXPXPXPXPXPXPXPXPXPXPXPXPXPXPXPXPXPXPXPXPXPXPXPXPXPXPXPXPXPXPXFXsXX K 3XuXuXzX0.+ 6.[.w.2.2.3.6.$.K 1.7.7.7.3.3.3.q.e.e.6.8 @ K ......T &   - v l j j j v J H 6 * X * O.0.*.*.@.$.*.*.*.$.$.$.$.$.$.%.$.*.%.%.@.@.@.&.5.8 + < <.P.H.G.C.Z.Z.Z.Z.Z.G.G.G.K.K.K.K.I.U.U.L.S.` B x 6 - o 5 5.q : U $.) Q Q Q Q Q E Q Q Q Q Q Q Q Q Q Q Q Q Q Q ) Q Q Q Q ) Q Q Q Q Q E E E Q Q Q Q Q Q Q Q Q Q Q Q Q Q Q o.o.Q Q Q Q Q Q Q Q Q Q #.Q Q Q ^ W W W Q Q Q Q Q Q ^ Q o.Q Q Q Q Q ^ ^ ^ ^ ^ Q Q o.o.o.o.o.o...o.o.#.o.o.o.Q ^ ^ ^ ^ ^ ^ o.o.o.o.o.o.o.Q Q Q Q Q Q W W P P P R R R W q   . 5 h g a h j c { c.M.B.l.[ ' [ c.c.x.x.x.x.[ } k.[ k.k.[ [ [ ' ' c.c.c.c.c.) - O < s k / ` P.D.c.c.v.z.v.c.c.c.v.M.v.v.v.c.} [ [ [ [ z.[ E @ @ {.eXeXeXrX8X#., d.f.2.3.7.3.3.7.3.3.3.3.3.3.3.3.6.6.O.@ 5 +...o.Q @., X h.mXNXNXBXBXAXKXKXPXPXPXPXPXPXPXPXPXPXPXPXPXPXPXPXPXPXPXPXPXPXPXPXPXPXPXPXPXPXPXPXPXPXPXPXPXPXPXPXPXPXPXPXPXPXPXPXPXPXPXPXPXPXPXPXPX",
"PXPXPXPXPXPXPXPXPXPXPXPXPXPXPXPXPXPXPXPXPXPXPXPXPXPXPXPXPXPXPXPXPXPXPXPXPXPXPXPXPXPXPXPXPXPXPXPXPXPXPXPXPXPXPXPXPXPXPXPXPXFXsXX K 3XuXuXzX8.+ 6.[.w.2.2.3.6.+.U 1.7.7.7.7.3.3.q.e.e.6.8 @ K +.....T *   : v x x v l H 0 : +   % r 0.*.&.$.$.$.*.*.*.$.$.$.$.$.$.%.%.%.%.@.@.%.&.O.5.5.4 + < l | F.H.Z.Z.N.N.Z.G.G.G.K.K.K.K.I.I.U.U.L.S.A k x a - o X + r 6.$.#.Q Q Q Q Q Q Q Q o.Q Q o.Q Q Q Q Q Q Q Q Q Q Q Q Q Q Q Q o.o.Q Q Q Q Q Q Q Q Q o.Q Q ^ ^ Q Q Q Q #.$.#.#.#.#.#.#.#.#.#.^ #.#.+.^ ^ +.+.+.+.^ ^ ^ ^ ^ +.+.+.#.#.^ ^ ^ ^ ^ ^ ^ ^ #.%.#.o.o.#.#.#.#.#.#.#...o.o.o.#.^ %.#.+.+.+.+.+.+.+.+.+.#.+.+.^ +.+.+.^ W W W W W W T +.Y o * 0 s s h s j ` A.M.z.B.l.l.' k.l.k.x.x.[ [ ' ' [ [ k.k.' [ [ ' ' c.c.c.c.c.) - O < j k / F P.D.l.l.v.z.v.c.c.v.v.c.v.v.c.c.c.[ [ [ [ l.[ E @ @ {.rXeXeXeX8X#., d.[.2.3.7.3.3.7.3.3.3.3.3.3.3.3.6.6.O.& 8 +.o.....@.4 . h.mXNXNXBXBXAXKXKXPXPXPXPXPXPXPXPXPXPXPXPXPXPXPXPXPXPXPXPXPXPXPXPXPXPXPXPXPXPXPXPXPXPXPXPXPXPXPXPXPXPXPXPXPXPXPXPXPXPXPXPXPXPXPXPXPX",
"PXPXPXPXPXPXPXPXPXPXPXPXPXPXPXPXPXPXPXPXPXPXPXPXPXPXPXPXPXPXPXPXPXPXPXPXPXPXPXPXPXPXPXPXPXPXPXPXPXPXPXPXPXPXPXPXPXPXPXPXPXFXsXX K 3XuXuXcX0.+ 6.[.w.3.3.7.6.T T 6.7.7.7.3.3.3.7.w.e.6.8 @ K +.....T *   : v x x l h 5 +   X X + r &.*.@.$.$.*.*.*.*.*.$.$.$.$.$.$.%.%.@.@.@.@.+.+.+.*.r + #   - ) F.H.H.H.Z.Z.H.G.G.K.I.K.H.K.K.K.I.Y.L.v.Z k x 6 o     4 5 4 4 5 5 5 5 5 5 5 8 8 8 8 8 6 5 6 6 6 6 6 6 6 5 6 6 6 6 5 5 5 5 5 , , 5 5 5 < < , 5 , 5 5 5 5 5 5 5 5 5 5 5 5 5 5 5 5 5 5 5 5 5 5 5 5 5 5 5 5 5 5 5 5 5 5 5 5 5 5 5 5 5 5 5 5 5 5 5 5 5 5 5 5 5 5 5 5 4 5 5 5 5 5 5 5 5 5 5 5 5 5 5 5 5 5 5 5 5 5 5 5 5 5 5 5 5 4 5 5 5 5 8 , @ 6 h s d g g z } A.z.B.B.c.l.' k.l.l.x.k.' ' ' ' [ ' ' ' ' ' ' ' ' l.c.c.c.c.) - O < j k V D D.J.c.c.c.c.v.c.c.v.c.c.v.v.c.c.c.[ [ [ l.z.[ E + & |.rXeXeXrX8X#., d.[.2.3.7.3.3.7.7.3.3.3.3.3.3.3.6.6.~ @ 8 +.Q Q W +.4 X h.mXNXNXBXBXAXKXKXPXPXPXPXPXPXPXPXPXPXPXPXPXPXPXPXPXPXPXPXPXPXPXPXPXPXPXPXPXPXPXPXPXPXPXPXPXPXPXPXPXPXPXPXPXPXPXPXPXPXPXPXPXPXPXPXPX",
"PXPXPXPXPXPXPXPXPXPXPXPXPXPXPXPXPXPXPXPXPXPXPXPXPXPXPXPXPXPXPXPXPXPXPXPXPXPXPXPXPXPXPXPXPXPXPXPXPXPXPXPXPXPXPXPXPXPXPXPXPXFXsX. K 4XuXuXcX0.+ 6.[.w.3.3.7.1.U T 6.7.7.7.7.7.3.7.w.w.6.8 @ K +.....T &   - J v v h 5 + X % 8 q 4 r &.&.&.*.*.*.*.*.*.*.*.*.*.$.$.$.*.*.%.@.@.@.+...o.$.Y & .   o ; _ D.G.G.G.H.H.G.G.K.I.K.K.I.K.K.K.K.H.K.S.C c x -                                                   o                           . X                                           o o o                                                                                     o o o     o o o o o o o o o o o           o o o o o o o o + o - 1 h j d x g j V } M.B.z.B.B.l.' [ l.l.x.' ' [ x.} ' ' ' ' ' ' ' ' ' k.c.c.c.c.) - O < j k V D A.J.c.c.c.c.c.c.c.v.v.v.v.v.c.c.c.[ [ [ l.z.l.E + & |.rXeXeXeX8X#., d.[.2.3.7.7.3.6.6.3.3.7.7.6.3.3.6.6.! @ 8 +.Q Q W ~ 4 X h.mXNXNXBXBXAXKXKXPXPXPXPXPXPXPXPXPXPXPXPXPXPXPXPXPXPXPXPXPXPXPXPXPXPXPXPXPXPXPXPXPXPXPXPXPXPXPXPXPXPXPXPXPXPXPXPXPXPXPXPXPXPXPXPXPX",
"PXPXPXPXPXPXPXPXPXPXPXPXPXPXPXPXPXPXPXPXPXPXPXPXPXPXPXPXPXPXPXPXPXPXPXPXPXPXPXPXPXPXPXPXPXPXPXPXPXPXPXPXPXPXPXPXPXPXPXPXPXJXsXX K 8XuXuXzX8.@ 6.f.w.3.7.7.1.K +.6.7.q.3.3.q.7.7.w.e.6.5 & U +.Q X.T &   : x x H 0 X + 4 w Y +.@.T @.&.&.*.*.*.*.*.*.&.&.*.*.*.*.*.*.*.&.@.@.@.+.+.#.+.O.8 % * 0 6 l <.S.Z.H.Z.Z.Z.H.I.I.K.K.K.K.K.K.K.K.L.Y.D.` M g h 6 < > > : : - - - - - - - $ $ $ @ @ @ $ $ $ $ $ $ : - @ @ : : : : & : : : : * $ & @ & - @ @ @ @ - : & : : @ @ @ - @ : : @ - : : : : - : : : : & : : - : : : : : : : : : : : : : - : : : @ @ - - - - - - : - - - - - - : - - : - - @ - - - - - - - - @ @ @ @ - - - : - - - - < 6 1 h x x j k b V C A c.M.B.z.c.c.l.' [ l.l.k.k.k.k.[ ' ' ' ' ' ' ' ' ' [ k.c.c.l.l.) - O < s k / D M.J.c.c.c.c.c.c.c.c.z.z.z.z.l.c.c.[ [ [ l.z.l.J + & {.rXeXeXeX8X+., d.f.2.3.6.6.7.6.6.7.6.7.7.6.3.3.1.6.O.@ 5 +.Q Q W ~ 4 X h.MXMXVXNXBXAXHXKXPXPXPXPXPXPXPXPXPXPXPXPXPXPXPXPXPXPXPXPXPXPXPXPXPXPXPXPXPXPXPXPXPXPXPXPXPXPXPXPXPXPXPXPXPXPXPXPXPXPXPXPXPXPXPXPXPX",
"PXPXPXPXPXPXPXPXPXPXPXPXPXPXPXPXPXPXPXPXPXPXPXPXPXPXPXPXPXPXPXPXPXPXPXPXPXPXPXPXPXPXPXPXPXPXPXPXPXPXPXPXPXPXPXPXPXPXPXPXPXJXsXX K 8XuXuXzXr.@ 6.f.w.3.7.7.,.K +.6.7.q.3.3.q.w.6.q.w.1.4 + U +.Q ..T &   : v v h : X 4 w Y Y T @.@.%.&.%.$.*.*.*.,.,.*.*.*.*.*.*.*.$.$.$.#.#.o.+.+.+...+.O.e 8 8 > 1 ) F.S.D.Z.Z.Z.G.K.I.K.K.K.K.K.K.H.K.K.L.Y.D.} ` _ / J b v v x x x x g g g g h h h g g g h h h h h g g g g g g l l g h l x g h h 1 h h h g l h h g l l l l l l h l h h l h h h h h h h h h h h h h h h h h h h h h h h h h h h h h h h h h h h h l l x v v v l h h h h h h l l l l h h g h h h l g g h h h h h g g g h h h a g v J v j j d k / { [ ' F l.z.z.z.c.c.c.[ k.l.l.l.k.k.[ ' ' ' ' ( ' ' ' ' [ [ [ l.c.l.l.) - O < s k / D ;.P.M.c.c.c.c.c.c.c.c.z.v.c.l.c.c.[ [ [ l.z.l.J + & {.rXeXeXrX8X+., d.f.2.3.7.6.7.7.6.7.6.7.7.6.3.3.3.6.! + 5 +.Q Q W ~ 4 X h.MXMXMXNXBXAXHXKXKXPXPXPXPXPXPXPXPXPXPXPXPXPXPXPXPXPXPXPXPXPXPXPXPXPXPXPXPXPXPXPXPXPXPXPXPXPXPXPXPXPXPXPXPXPXPXPXPXPXPXPXPXPXPXPXPX",
"PXPXPXPXPXPXPXPXPXPXPXPXPXPXPXPXPXPXPXPXPXPXPXPXPXPXPXPXPXPXPXPXPXPXPXPXPXPXPXPXPXPXPXPXPXPXPXPXPXPXPXPXPXPXPXPXPXPXPXPXPXJXsXX K 8XuXxXzX9.@ 6.f.w.3.6.7.,.K #.6.7.q.3.3.7.7.6.q.w.,.4 + U +.....Y &   : v h 6 X + 0 r Y Y T @.+.%.%.$.*.*.*.*.,.6.6.&.&.O.O.O.O.&.6.*.$.$.#.+.........#.+.O.0 : > h ) ;.F.Z.Z.H.H.H.H.K.K.I.K.K.K.K.K.K.J.L.L.J.H.D.v.v.c.} { { ' ` ` ` A C C M M m M k k k k p j S ] ` ] ] ] ] ] ] ` ` ] ` ` ` _ d ) ` { ] ] ] ` ` ` ` ` ` ` ` _ _ _ _ _ _ _ _ _ _ _ _ _ ) ) ) ) ) ) ) S S S _ S _ S S _ S S S S S ) ) ) z z ) ) C ( _ C C C V V V V V V z z B B m k k B c c c M m c c c c c c k k k k c k i x j c z k B A ' c.c.l.[ G l.z.z.z.c.c.c.l.c.c.k.k.[ [ ' ' ' ' ' ' ' ' ' ' [ [ [ l.c.l.l.) - O < j k / S } P.M.l.c.c.l.c.c.c.c.z.v.c.c.c.c.[ [ [ l.k.l.J + & {.rXeXeXrX8X+., d.f.2.3.7.6.6.6.3.3.6.3.7.7.6.1.1.6.! @ 5 +.Q Q W O.4 . h.BXMXMXNXBXAXHXHXKXPXKXPXPXPXPXPXPXPXPXPXPXPXPXPXPXPXPXPXPXPXPXPXPXPXPXPXPXPXPXPXPXPXPXPXPXPXPXPXPXPXPXPXPXPXPXPXPXPXPXPXPXPXPXPXPX",
"PXPXPXPXPXPXPXPXPXPXPXPXPXPXPXPXPXPXPXPXPXPXPXPXPXPXPXPXPXPXPXPXPXPXPXPXPXPXPXPXPXPXPXPXPXPXPXPXPXPXPXPXPXPXPXPXPXPXPXPXPXJXsXX U 8XuXzXcX9.@ 6.f.7.3.3.7.,.K #.3.7.q.q.7.q.7.6.q.e.,.4 + K +.Q ..T &   : l h ,   = r r Y Y T @.+.+.*.*.*.,.6.&.@.q 8 = = = = = = 8 e ! &.5.6.%.........+.+.O.O.8 : < a y | D.Z.K.J.H.H.K.K.K.K.K.K.K.J.J.H.J.J.L.L.L.J.K.H.H.H.H.H.H.H.H.Z.N.S.D.M.[ [ [ ] ` C c V F.F.D.H.H.D.H.H.H.H.H.H.G.H.H.M.m A.D.D.S.S.N.B.B.B.B.M.B.B.D.M.M.M.M.M.M.c.c.c.c.c.c.c.c.c.c.c.c.c.M.c.c.c.A.D.D.A.A.A.A.D.A.M.D.A.M.;.M F D.M.M.M.M.M.M.M.c.A.c.c.c.c.c.} ' ` ` ` ` ` F F ` F F F F C V N B m B B B m k k / j j ` { c.c.c.z.c.l.k.G k.z.z.z.c.c.c.c.l.x.k.k.k.[ ' ' ' ' [ ' ' [ ' ' [ ' ' [ c.c.c.) - O < s d / D ] P.A.} c.c.l.c.c.c.c.z.v.c.l.c.l.[ [ [ l.z.c.J + & |.eXeXeXrX8X+., d.f.3.3.7.6.6.3.3.3.6.3.7.7.3.1.1.6.! @ 5 +.Q Q W ~ = . h.mXMXNXNXNXAXHXHXKXPXKXPXPXPXPXPXPXPXPXPXPXPXPXPXPXPXPXPXPXPXPXPXPXPXPXPXPXPXPXPXPXPXPXPXPXPXPXPXPXPXPXPXPXPXPXPXPXPXPXPXPXPXPXPXPX",
"PXPXPXPXPXPXPXPXPXPXPXPXPXPXPXPXPXPXPXPXPXPXPXPXPXPXPXPXPXPXPXPXPXPXPXPXPXPXPXPXPXPXPXPXPXPXPXPXPXPXPXPXPXPXPXPXPXPXPXPXPXJXsXX U 4XuXzXcX9.@ 6.f.7.3.3.7.,.K #.3.7.q.q.7.q.w.7.w.t.6.4 + K +.....T &   : l h @ X 8 r w Y O.O.@.+.#.*.6.6.5.0 * & & = = 8 5.g.y.O.8 * & 4 q ! &.$.....W W ....@.Y , - 6 > v A.Z.T.K.L.H.K.K.K.K.K.J.J.H.J.K.K.K.K.J.H.H.H.H.H.H.Z.Z.H.Z.G.Z.Z.H.D.D.} } } } ] C M D P.(.J.H.H.H.K.K.K.K.L.K.J.G.H.D.p M.D.D.H.G.Z.Z.H.H.H.H.H.H.H.H.D.S.N.M.M.B.B.B.v.v.v.v.z.v.B.B.v.B.B.S.v.v.S.G.G.G.G.G.G.H.G.G.G.H.S.M.N [ H.B.D.N.D.S.B.N.S.S.S.S.S.S.S.A.c.} c.M.M.M.M.M.M.M.M.M.M.M.M.} ' C C C / V k V | _ i } A.v.l.l.z.z.l.l.k.l.z.z.l.z.M.c.c.l.k.k.k.l.[ [ [ ' [ x.} ' ' ' ' ' ' ' k.l.c.c.) - O < s k / D ` P.A.[ l.l.l.c.c.c.c.z.z.v.c.l.l.[ [ [ l.z.c.E + @ |.eXeXeXrX8X+., d.f.2.3.7.6.6.6.3.3.6.3.3.7.3.1.1.6.! @ 5 +...Q W ~ = . h.BXVXVXNXNXAXHXKXKXPXKXPXPXPXPXPXPXPXPXPXPXPXPXPXPXPXPXPXPXPXPXPXPXPXPXPXPXPXPXPXPXPXPXPXPXPXPXPXPXPXPXPXPXPXPXPXPXPXPXPXPXPXPXPXPX",
"PXPXPXPXPXPXPXPXPXPXPXPXPXPXPXPXPXPXPXPXPXPXPXPXPXPXPXPXPXPXPXPXPXPXPXPXPXPXPXPXPXPXPXPXPXPXPXPXPXPXPXPXPXPXPXPXPXPXPXPXPXJXsXX U 4XuXzXcX9.@ 6.s.3.3.3.7.,.K *.3.3.q.q.7.q.w.7.w.e.6., + K +.....T &   : l h @ X e w K Y Y O.@.+.*.*.Y 8 & = r 5.hXnXVXZXZXZXZXZXbXbX5X*.9 , 9 O.,...W W W ....~ q @ , , 1 ;.H.T.T.L.H.K.K.K.K.K.J.K.K.J.H.H.G.G.G.J.H.G.G.G.G.G.G.G.G.J.J.H.Z.Z.B.l.k.l.k.' A N F H.J.H.G.H.G.H.J.K.K.J.K.K.J.H.D.m M.F.H.G.C.Z.Z.G.G.G.H.G.G.G.G.G.G.B.B.v.v.B.B.v.v.v.v.v.v.v.v.v.z.z.z.z.z.N.G.G.G.G.H.Z.Z.Z.Z.Z.G.S.c.N c.S.B.G.S.S.G.G.G.G.N.Z.G.N.N.N.N.M.v.M.z.z.z.z.z.z.z.z.z.z.l.c.M.c.` A ( / / k ( { { m C F.M.c.l.l.l.l.l.k.l.c.c.M.M.c.c.c.l.k.k.l.[ [ k.k.[ [ } x.' ' ' ' k.' ' k.l.l.l.) - O < i k V S S P.A.[ [ [ l.l.c.c.c.c.z.c.c.l.l.[ [ [ l.k.c.E + & |.eXeXeXrX5X+.: d.[.2.3.7.6.7.6.6.3.7.7.7.7.6.1.1.6.! @ 5 +.Q Q W ~ = . h.BXVXVXNXNXAXHXKXKXPXKXPXPXPXPXPXPXPXPXPXPXPXPXPXPXPXPXPXPXPXPXPXPXPXPXPXPXPXPXPXPXPXPXPXPXPXPXPXPXPXPXPXPXPXPXPXPXPXPXPXPXPXPXPXPX",
"PXPXPXPXPXPXPXPXPXPXPXPXPXPXPXPXPXPXPXPXPXPXPXPXPXPXPXPXPXPXPXPXPXPXPXPXPXPXPXPXPXPXPXPXPXPXPXPXPXPXPXPXPXPXPXPXPXPXPXPXPXFXaXX U 4XuXzXcXr.@ 6.f.3.3.6.7.,.K *.6.7.q.q.3.q.8.6.q.e.,., + K +.....Y $   : v 0 @ + e w K Y Y Y @.+.@.w , = 5.;XnXAXZXZXZXZXbXbXbXbXbXbXbXcX2X,.8 , O.@...W W ..T @.I & 5 8 < ;.H.K.T.L.H.K.K.K.K.K.K.K.K.H.G.G.H.G.G.H.H.H.G.H.H.H.H.H.H.H.J.J.C.Z.V.k.k.l.l.G Z N F H.K.K.H.J.H.H.J.K.K.L.K.K.K.H.D.m } J.H.H.C.C.G.H.H.H.H.H.G.H.J.C.G.V.v.b.v.B.B.M.M.v.v.v.v.B.B.v.v.z.B.B.z.N.H.G.G.Z.Z.Z.Z.Z.Z.Z.G.D.} m M.S.S.G.G.G.H.G.G.Z.N.N.Z.N.N.N.B.v.v.v.v.v.v.v.v.v.v.v.v.v.v.z.z.v.k.( ( ( / m ` } } ( p A.M.c.c.c.c.l.l.k.l.c.v.M.B.c.c.k.k.k.k.k.[ k.x.k.k.k.' ' ' [ ' ' k.k.' k.l.c.c.) - O < j k V S C P.D.[ [ l.[ [ c.c.c.c.z.l.c.c.l.l.[ [ [ k.l.E O $ +XrXeXeXrX8X+., f.{.2.3.7.7.7.6.6.7.7.7.7.7.6.3.1.6.! + 5 +.Q Q W ~ * . h.mXNXVXBXBXAXHXKXPXPXPXPXPXPXPXPXPXPXPXPXPXPXPXPXPXPXPXPXPXPXPXPXPXPXPXPXPXPXPXPXPXPXPXPXPXPXPXPXPXPXPXPXPXPXPXPXPXPXPXPXPXPXPXPXPX",
"PXPXPXPXPXPXPXPXPXPXPXPXPXPXPXPXPXPXPXPXPXPXPXPXPXPXPXPXPXPXPXPXPXPXPXPXPXPXPXPXPXPXPXPXPXPXPXPXPXPXPXPXPXPXPXPXPXPXPXPXPXFXaXX U 3XuXzXcXr.@ 6.f.3.7.7.8.,.L $.7.7.q.q.3.3.8.6.8.e.*.4 + I ......Y $ o > v 0 + & w w K Y Y T @.Y 9 , O.sXmXZXZXZXbXbXcXxXiXiXiXiXiXiXwX1XrXrX+X9 , K +.+.T ..T Y Y : , 8 > ) H.Z.H.L.K.K.K.K.K.H.H.H.H.H.H.H.H.D.Z.Z.Z.G.G.G.G.G.G.H.G.G.J.C.C.G.v.l.l.l.l.' C M ` J.J.L.J.K.J.J.H.H.K.L.K.H.K.H.H.m ] D.H.H.H.H.G.H.H.H.G.G.G.G.G.G.G.G.B.G.B.B.B.S.S.S.S.G.G.G.G.G.v.v.v.n.v.S.G.G.H.G.G.G.G.G.G.G.H.A.] M A.S.V.G.G.G.G.G.G.G.G.G.G.B.B.G.B.v.v.v.v.v.v.v.v.M.v.M.v.v.z.B.B.z.c.' G A C m ' } ' ' B C M.M.c.c.c.l.c.l.k.l.c.c.z.c.B.l.k.k.[ } } x.x.k.k.x.k.' x.x.x.k.k.k.k.k.l.c.c.) - O < s k C C C F.F.[ [ l.[ [ c.c.c.c.c.z.z.c.l.[ [ [ ' l.[ J O $ +XeXeXeXrX5X+., f.f.2.3.6.7.7.6.3.3.7.7.7.6.1.3.1.6.! + 5 +.Q Q W @., . h.mXMXBXBXBXAXKXPXPXPXPXPXPXPXPXPXPXPXPXPXPXPXPXPXPXPXPXPXPXPXPXPXPXPXPXPXPXPXPXPXPXPXPXPXPXPXPXPXPXPXPXPXPXPXPXPXPXPXPXPXPXPXPXPXPX",
"PXPXPXPXPXPXPXPXPXPXPXPXPXPXPXPXPXPXPXPXPXPXPXPXPXPXPXPXPXPXPXPXPXPXPXPXPXPXPXPXPXPXPXPXPXPXPXPXPXPXPXPXPXPXPXPXPXPXPXPXPXFXsXX U 3XuXzXcXi.@ 6.f.3.7.7.8.1.L #.6.7.q.q.3.3.3.6.8.e.*.4 + I ......Y $ o > v 0 + & w w K Y Y @.Y 8 4 5.vXZXZXZXbXcXiXwX0X0X0X0X0X0X0X=X=X=X0XwX,X-XX.5 r @.+.@.T T K : * 8 > ) H.Z.H.J.T.C.K.H.H.D.P.F.] ) S S V _ } M.M.G.J.C.C.C.Z.G.G.G.J.C.G.G.v.k.l.l.l.' C M ` J.J.L.J.J.K.K.H.H.K.L.K.H.H.H.J.m F D.H.H.H.H.G.H.H.H.H.H.H.G.G.G.G.G.B.G.V.v.B.S.S.S.S.S.m.m.m.G.v.v.v.n.v.S.G.G.H.G.G.G.G.G.G.G.G.M.` M A.S.V.G.G.G.G.G.G.G.G.G.G.B.B.S.v.v.v.v.v.v.v.v.v.m.B.B.v.v.z.v.z.z.c.' G ` C m } c.' ` _ p [ B.M.z.c.l.c.c.k.l.c.c.c.c.c.c.k.[ k.} } [ ' ' k.x.x.k.x.x.x.k.k.k.k.' k.c.c.) - O < s k C C V A.F.[ [ l.' ' [ c.c.c.c.z.c.l.l.[ ' [ ' l.[ J O $ +XrXeXeXrX5X+., d.f.2.1.6.3.1.3.3.3.7.7.7.6.1.3.1.1.! + 5 +.Q Q W @., . h.mXMXNXBXBXAXKXPXPXPXPXPXPXPXPXPXPXPXPXPXPXPXPXPXPXPXPXPXPXPXPXPXPXPXPXPXPXPXPXPXPXPXPXPXPXPXPXPXPXPXPXPXPXPXPXPXPXPXPXPXPXPXPXPXPX",
"PXPXPXPXPXPXPXPXPXPXPXPXPXPXPXPXPXPXPXPXPXPXPXPXPXPXPXPXPXPXPXPXPXPXPXPXPXPXPXPXPXPXPXPXPXPXPXPXPXPXPXPXPXPXPXPXPXPXPXPXPXFXsXX U 4XrXzXcXr.@ 6.f.3.7.7.7.3.L #.6.7.q.q.3.3.3.6.8.e.*.4 + I ..o.o.Y $ o > v 6 + * r w K K Y Y 8 & O.vXZXZXbXcXiXwX0X0X0X0X0X=X=X=X=X=X~.~.XX0X0X=X<X@.8 w @...T Y r , : q > b Z.C.H.K.T.T.L.F.<.J h > - - - - - - ; t c | A.G.C.C.C.K.H.H.J.J.G.V.z.k.l.l.l.[ C M ` J.J.J.J.J.K.K.J.H.H.L.K.H.G.H.J.m D D.H.H.H.H.G.H.H.H.H.H.H.H.H.G.G.G.B.G.G.B.B.S.S.S.S.v.v.v.v.G.S.v.v.n.v.v.G.H.H.H.G.G.G.G.G.G.S.M.D V A.B.G.G.G.G.G.G.G.G.G.G.G.B.B.B.v.V.V.B.B.B.V.v.v.S.S.v.v.v.v.v.z.v.c.' ' ` V m A.c.' A _ V M A.S.v.v.l.c.c.l.l.c.c.c.l.c.c.k.[ [ } [ ' ' ' k.x.x.x.x.x.x.k.k.k.k.k.k.c.l.) - O < s k C C V } F.} [ l.' ' [ c.l.l.c.c.l.l.l.' ' [ ' l.[ J O $ +XrXeXeXrX5X+., d.f.2.3.6.3.1.3.7.7.7.7.7.7.3.2.,.,.! + 5 +.W Q W @., . h.mXMXNXBXBXAXKXPXPXPXPXPXPXPXPXPXPXPXPXPXPXPXPXPXPXPXPXPXPXPXPXPXPXPXPXPXPXPXPXPXPXPXPXPXPXPXPXPXPXPXPXPXPXPXPXPXPXPXPXPXPXPXPXPXPX",
"PXPXPXPXPXPXPXPXPXPXPXPXPXPXPXPXPXPXPXPXPXPXPXPXPXPXPXPXPXPXPXPXPXPXPXPXPXPXPXPXPXPXPXPXPXPXPXPXPXPXPXPXPXPXPXPXPXPXPXPXPXGXsX. I 8XuXrXzXa.@ 6.f.2.w.7.7.1.W ..1.7.q.q.4.3.8.1.8.e.*.= & Y ..X.Q Y * o > v 6 + & w K K K Y 0 & 0 vXZXZXbXiX0X0X0X=X=X=X=X=X-X X}.oXoX~.~.~.XX%X=X=X<X..5 K O.Y Y r , : r : b Z.C.H.Y.G.F.{ s - @ 5 r 5.5.y.y.5.5.q : - > a ] D.H.G.H.C.C.C.J.G.V.z.l.l.l.[ [ C N [ U.J.J.J.J.K.K.K.H.K.L.K.H.H.H.J.C N D.H.H.H.H.G.G.H.H.H.H.H.G.G.G.G.H.G.b.v.v.B.G.S.S.S.v.b.G.G.G.G.G.v.m.m.v.S.H.G.G.G.G.G.G.S.S.S.M.D C D.G.G.S.B.G.G.G.G.G.Z.B.B.G.G.S.S.m.m.b.b.b.b.S.S.S.S.S.S.S.B.v.z.c.c.' ' ` V V A.c.' A _ _ k ] D.S.v.l.l.c.l.l.c.c.B.B.M.c.l.[ [ ' ' ' k.k.k.x.x.x.x.x.x.x.k.k.k.k.[ l.l.) - O < u k C C V ] F.} [ l.} ' [ c.l.l.c.c.z.c.l.F F ' ' l.[ J O $ +XeXeXeX6X8X+., d.f.2.3.7.3.6.7.7.7.7.7.7.7.3.>.>.6.! + 5 +.Q Q W ~ = . h.mXMXNXBXBXAXKXPXPXPXPXPXPXPXPXPXPXPXPXPXPXPXPXPXPXPXPXPXPXPXPXPXPXPXPXPXPXPXPXPXPXPXPXPXPXPXPXPXPXPXPXPXPXPXPXPXPXPXPXPXPXPXPXPXPX",
"PXPXPXPXPXPXPXPXPXPXPXPXPXPXPXPXPXPXPXPXPXPXPXPXPXPXPXPXPXPXPXPXPXPXPXPXPXPXPXPXPXPXPXPXPXPXPXPXPXPXPXPXPXPXPXPXPXPXPXPXPXGXsX. I 8XuXlXzXa.$ *.f.2.w.3.3.3.o.W 1.7.q.q.3.3.3.6.8.e.*., & Y ..E Q Y * o > v 9 + * r K K K r , & ;XmXZXbXiX0X0X=X0X1X-X2.l 9 9 9 y l X.`.~.~.~.~.~.XXoX}.9 8 Y O.Y w , * w : v Z.Z.H.J.D.J 1 - < :.-XcXZXZXZXVXVXVXkX;X5.8 O < x <.D.H.C.C.C.K.G.V.z.l.l.l.[ [ C M [ U.J.H.J.J.K.K.J.H.K.K.K.H.H.H.J.F N D.H.H.H.H.G.G.H.G.G.H.G.G.G.G.G.G.G.b.B.B.B.S.S.S.S.v.b.G.G.G.G.G.n.m.v.v.S.G.G.G.G.G.G.S.S.D.S.M.S S A.G.G.G.S.G.G.G.G.G.Z.N.B.G.G.S.m.m.m.b.b.b.b.m.m.n.n.v.m.v.B.v.B.z.c.' ' ` m C A.c.' A ` ` V c A.A.S.c.k.c.l.l.c.c.z.M.B.c.l.k.[ k.' k.k.k.k.x.x.k.x.x.x.x.k.k.k.k.' k.l.) - O < u k V C C ` F.c.[ l.[ ' [ } l.l.c.z.c.c.l.` F [ [ l.l.J O $ +XeXeXeX6X8X+., d.f.2.1.7.3.3.7.7.7.3.7.7.7.3.>.3.6.! @ 5 +.Q Q W ~ = . h.mXMXMXBXBXAXKXPXPXPXPXPXPXPXPXPXPXPXPXPXPXPXPXPXPXPXPXPXPXPXPXPXPXPXPXPXPXPXPXPXPXPXPXPXPXPXPXPXPXPXPXPXPXPXPXPXPXPXPXPXPXPXPXPXPX",
"PXPXPXPXPXPXPXPXPXPXPXPXPXPXPXPXPXPXPXPXPXPXPXPXPXPXPXPXPXPXPXPXPXPXPXPXPXPXPXPXPXPXPXPXPXPXPXPXPXPXPXPXPXPXPXPXPXPXPXPXPXJXaX. Y 8XrXlXzXi.* *.f.2.w.3.3.7.#.P 1.7.q.q.3.3.3.6.3.w.*., & Y ..E Q T * o > L 9 + * r K K K 9 @ &.bXZXbXcXwX0X0X=X=X2.h X.-X2X5X<X-X4.y l S -.~.~.~.~.~.oXe., 0 O.Y w 4 + 8 - z Z.H.J.A.d ; < :.-XuXcXcXcXcXbXbXZXZXZXZXmXdX5.< ; y ` F.G.C.K.K.G.V.z.l.l.l.[ ' C m [ U.J.H.J.J.J.J.H.H.H.J.H.H.K.H.J.' M D.H.H.H.H.H.H.H.G.H.H.H.G.G.G.H.G.G.G.V.B.B.S.S.S.S.v.b.G.G.G.G.G.m.m.m.v.B.G.G.G.G.G.G.S.D.D.S.M.V D A.G.G.G.G.G.G.G.G.G.Z.Z.N.G.G.B.m.m.m.m.b.m.m.m.v.n.v.v.v.v.v.v.B.z.c.l.' ` m ` A.c.' A ( ` _ k C D.S.v.c.c.c.l.c.c.c.c.c.c.l.[ k.x.k.x.k.k.x.x.k.' x.x.x.x.k.k.k.k.' [ k.) - O < s k C C C C P.M.[ l.[ ` [ } l.l.c.c.l.l.l.' C [ [ k.} J @ $ +XeXeXeX6X8X+., d.f.2.1.6.1.3.7.7.7.3.7.7.7.3.>.3.6.! @ 5 +.W Q W ~ , . h.mXMXMXBXBXAXKXPXPXPXPXPXPXPXPXPXPXPXPXPXPXPXPXPXPXPXPXPXPXPXPXPXPXPXPXPXPXPXPXPXPXPXPXPXPXPXPXPXPXPXPXPXPXPXPXPXPXPXPXPXPXPXPXPXPX",
"PXPXPXPXPXPXPXPXPXPXPXPXPXPXPXPXPXPXPXPXPXPXPXPXPXPXPXPXPXPXPXPXPXPXPXPXPXPXPXPXPXPXPXPXPXPXPXPXPXPXPXPXPXPXPXPXPXPXPXPXPXJXaXX K 3XzXrXzXi.@ *.f.2.e.3.3.6.3.R ,.7.q.q.3.3.3.3.3.w.*.4 & Y W E E Y $ o > L 0 + & r K K w , 4 dXZXbXcXeX0X0X=X=XE X.-XcXbXcXcXcXiXuX<X-.g l 4.~.~.~.~.~. Xh * r Y I 5 + = @ v F.H.] u ; g `.,X=X=X=X0X0X=X=X=X1XuXcXbXZXVXvX@Xh < 1 ) D.G.C.C.G.V.B.l.l.l.l.' F m c.J.H.H.J.J.H.K.K.K.K.J.K.K.H.H.H.[ m A.H.H.G.H.H.G.H.G.H.H.H.H.G.G.H.G.G.V.V.B.v.S.S.S.S.v.S.G.G.G.S.v.m.m.S.v.B.G.G.G.G.G.S.S.S.S.G.M.M ` D.G.G.G.G.G.G.G.G.G.Z.Z.G.G.G.m.v.v.v.v.v.m.m.m.m.m.m.m.v.v.v.v.v.z.z.l.' F m ` A.c.` A ( ` ` V p { F.S.M.l.z.z.l.c.v.M.v.v.c.k.x.x.k.k.k.k.x.x.k.k.x.k.k.k.k.k.k.k.' ' [ ) - O < s k C C D V P.A.[ l.[ ' ' [ l.l.l.l.l.l.l.' N [ [ l.[ J @ & +XeXeXeX6X5X#., d.f.2.1.6.1.1.6.7.7.7.7.7.7.3.3.3.6.Y + 5 +.W Q W ~ , X h.MXMXBXBXBXAXKXPXPXPXPXPXPXPXPXPXPXPXPXPXPXPXPXPXPXPXPXPXPXPXPXPXPXPXPXPXPXPXPXPXPXPXPXPXPXPXPXPXPXPXPXPXPXPXPXPXPXPXPXPXPXPXPXPXPX",
"PXPXPXPXPXPXPXPXPXPXPXPXPXPXPXPXPXPXPXPXPXPXPXPXPXPXPXPXPXPXPXPXPXPXPXPXPXPXPXPXPXPXPXPXPXPXPXPXPXPXPXPXPXPXPXPXPXPXPXPXPXFXaX% K 3XuXrXzXi.@ %.p.:.e.3.q.3.7.E >.7.7.q.q.3.3.3.4.w.*.4 & Y W E Q T $   > v 8 X * K K I 9 & 5.bXbXbXiX1X0X0X=XS E 5XbXbXiXiX0X0X0XwXiXuX}.l g S P.~.I.~.oX2.+ 8 @.T 8 X % @ h F.{ t - 0 }.,XOX~.~.~.~.~.~.~.=X=X=X=X1XcXZXZXnX:X0 - ; _ S.Z.G.Z.Z.B.l.l.l.l.] F N c.J.H.H.J.H.H.L.L.L.L.J.L.K.G.H.H.c.m M.D.G.G.H.G.G.G.H.H.H.H.H.G.G.J.G.G.V.b.v.v.b.b.G.G.S.S.S.S.S.B.v.m.m.G.v.S.H.H.G.S.S.S.N.S.S.G.M.M ` S.G.S.N.N.G.G.G.G.G.Z.Z.G.G.G.b.v.B.B.B.z.v.B.m.m.b.b.m.v.v.B.v.z.v.v.c.' D n ` M.} F ` ` ` ` ` k k <.D.Z.z.z.v.z.z.v.v.v.z.c.k.k.x.k.k.k.' x.x.k.k.k.k.k.k.' ' k.k.' ' [ ) - O < s c C C _ V F.A.[ [ ' ' ` [ l.l.l.l.l.l.l.' N ` [ G [ E @ & +XeXeXwXrX3X#., d.f.2.3.6.1.1.6.6.6.6.7.7.6.3.1.6.6.Y + , +.Q Q W ~ , X h.BXBXMXBXBXAXKXKXPXPXPXPXPXPXPXPXPXPXPXPXPXPXPXPXPXPXPXPXPXPXPXPXPXPXPXPXPXPXPXPXPXPXPXPXPXPXPXPXPXPXPXPXPXPXPXPXPXPXPXPXPXPXPXPXPX",
"PXPXPXPXPXPXPXPXPXPXPXPXPXPXPXPXPXPXPXPXPXPXPXPXPXPXPXPXPXPXPXPXPXPXPXPXPXPXPXPXPXPXPXPXPXPXPXPXPXPXPXPXPXPXPXPXPXPXPXPXPXFXaX% K 3XuXrXzXi.@ %.p.:.w.7.7.3.7.Q :.7.3.7.q.3.3.3.3.8.*.4 @ Y W Q Q T *   > v 8 X & K I r 4 , +XZXbXcXwX0XwXwX=.l 5XbXbXiX0X~.Z.Z.P.P.oX1XcX>XR > =.4.-.-.>.T X * 0 8 : X X o > h ; - @ K e.`.~.~.~.~.P.N.N.~.~.~.XXOXOXoXwXbXbXbXd.6 ; t ` S.Z.Z.Z.z.l.l.l.l.] D N M.J.H.J.J.H.H.H.H.H.H.H.J.H.G.H.H.M.m c.D.G.G.H.G.G.G.H.H.H.H.H.J.H.J.G.G.V.b.v.v.V.G.G.G.S.S.S.G.G.B.v.v.m.G.v.m.G.H.H.S.S.S.S.S.N.G.M.M ` D.G.N.N.H.G.G.G.G.G.Z.Z.G.G.G.b.v.B.B.B.v.v.S.b.m.b.b.m.v.v.B.v.z.v.v.c.' F p ' M.c.` ` ` ` ' ` C i S D.H.B.l.v.B.z.v.v.v.v.c.k.k.k.k.k.k.' x.x.k.k.k.k.k.' ' ' k.k.' ' [ _ - O < s k M C ( V A.F.[ [ ' [ ' ' [ l.l.l.l.l.l.' N F [ G [ E @ & +X6XeXwXrX3X#., d.f.2.3.6.1.6.6.6.6.6.6.7.6.3.3.1.6.Y + , +.Q Q W ~ 4 X h.BXMXMXBXBXAXHXKXPXPXPXPXPXPXPXPXPXPXPXPXPXPXPXPXPXPXPXPXPXPXPXPXPXPXPXPXPXPXPXPXPXPXPXPXPXPXPXPXPXPXPXPXPXPXPXPXPXPXPXPXPXPXPXPXPX",
"PXPXPXPXPXPXPXPXPXPXPXPXPXPXPXPXPXPXPXPXPXPXPXPXPXPXPXPXPXPXPXPXPXPXPXPXPXPXPXPXPXPXPXPXPXPXPXPXPXPXPXPXPXPXPXPXPXPXPXPXPXFXaX% K 3XrXrXzXi.* *.s.$.3.7.7.7.7.:.Q 7.7.7.q.3.3.3.3.8.*.3 @ Y W ....T * o > v 8 X & K I q & w jXbXbXiX0X0X=X>XR  XbXbXxXOXP.~.XXXX~.P.S -. XcX}.5 9 h 1 h 9 w @.&.0.a.a.a.g.g.a.0.6.Y 0 * > < g z ) =.4.^.P.-.S -.~.~.XX=XXX0XcXbXcXT > ; i c.Z.Z.V.z.l.c.l.l.[ F N M.H.H.J.J.J.H.H.H.H.H.H.H.G.G.K.H.M.m } D.G.G.H.G.G.G.H.H.H.H.H.J.J.J.G.G.V.b.v.v.V.G.G.G.S.S.G.G.S.v.v.v.m.G.m.v.G.H.H.G.G.G.S.S.B.G.M.M ` D.G.N.B.G.H.G.G.G.G.Z.V.V.G.G.m.v.V.v.V.v.v.G.b.b.b.b.v.v.v.B.v.v.v.z.c.[ F p [ D.c.` ` ' ' ' ] ` V u [ J.H.z.l.z.z.v.v.v.v.v.k.k.k.x.k.k.' x.x.k.k.k.k.k.' ' ' k.k.' ' [ _ - O < s k M C C C ;.F.' [ ' [ ' ' l.l.l.l.l.l.[ ` N F [ G [ E @ & +X6XeXwXrX3X#., d.[.2.3.6.3.6.6.6.6.6.6.6.3.3.3.1.6.Y + 5 +.Q Q W ~ 4 X h.BXMXBXBXBXAXHXKXPXPXPXPXPXPXPXPXPXPXPXPXPXPXPXPXPXPXPXPXPXPXPXPXPXPXPXPXPXPXPXPXPXPXPXPXPXPXPXPXPXPXPXPXPXPXPXPXPXPXPXPXPXPXPXPXPX",
"PXPXPXPXPXPXPXPXPXPXPXPXPXPXPXPXPXPXPXPXPXPXPXPXPXPXPXPXPXPXPXPXPXPXPXPXPXPXPXPXPXPXPXPXPXPXPXPXPXPXPXPXPXPXPXPXPXPXPXPXPXFXaXX K 3XuXrXzXi.* *.f.o.3.w.7.7.q.3.W q.7.7.3.3.3.3.4.w.*.3 & Y ..E Q Y &   > v 8 X & K I 0 + +.bXbXiX0X0X0X=X=...bXbXbX1XP.~.XX~.~.`.~.P.P.4.<X X8.jXcXjXcXcXbXbXbXbXmXmXZXZXZXmXmXnXnXvXkXjXdX+X+.0 > 9 l X.=.4.S z ;.~.=X=X=X0XiXbX2X0 1 t C M.Z.B.z.l.l.l.l.` F N A.H.K.L.L.L.J.J.J.H.H.J.J.H.H.G.J.D.m [ G.G.G.H.G.G.G.H.H.H.H.J.J.H.G.G.J.G.V.v.b.v.G.G.G.v.v.G.S.S.S.v.m.v.v.v.v.G.H.G.H.G.S.S.S.G.G.M.m ` S.G.S.G.G.G.G.G.G.G.G.Z.V.v.v.v.v.V.v.v.v.v.v.b.b.b.b.G.G.v.v.z.z.z.z.l.' D p ' M.} ` ` ` ' ' ` ` _ p k F.J.B.z.l.z.v.v.v.v.v.c.k.k.x.k.k.k.k.x.k.k.l.k.k.' ' ' k.[ ' ' ' / - O < u k M C C C { F.[ [ k.[ [ ' l.l.l.l.l.l.[ ` N F ' G [ E O : +X6XwXeXrX3X#., d.[.2.>.6.3.6.6.6.,.6.7.6.1.1.,.1.6.Y + 5 +...Q W @.4 X h.BXMXBXBXBXAXHXKXPXPXPXPXPXPXPXPXPXPXPXPXPXPXPXPXPXPXPXPXPXPXPXPXPXPXPXPXPXPXPXPXPXPXPXPXPXPXPXPXPXPXPXPXPXPXPXPXPXPXPXPXPXPXPXPXPX",
"PXPXPXPXPXPXPXPXPXPXPXPXPXPXPXPXPXPXPXPXPXPXPXPXPXPXPXPXPXPXPXPXPXPXPXPXPXPXPXPXPXPXPXPXPXPXPXPXPXPXPXPXPXPXPXPXPXPXPXPXPXFXaXX K 3XuXrXzXi.@ 5.f.o.:.w.7.7.7.7.Q 3.7.q.3.3.4.3.4.8.*.3 & Y W E Q Y &   > L 8 X + K I 5 & 0.bXbXtX0X0X=X}.L -XbXbXiX~.~..XN.-.4.4.-.=XiX=X7XcXbXZXZXbXbXbXbXbXZXZXZXZXZXZXZXZXZXZXZXZXbXmXbXbXbXcX2X8.X.h g =.4.=.l l P.XX0X0XtXiXcXX.1 1 i [ B.V.B.z.l.l.l.[ F N S.H.H.J.J.K.J.J.L.L.L.J.K.K.H.H.J.D.N ' G.G.G.H.H.G.G.H.H.H.H.H.H.H.G.G.H.G.G.v.V.S.G.G.G.S.m.S.S.S.S.v.v.v.v.v.v.G.H.G.G.G.G.G.G.G.G.M.k ` S.G.S.S.S.G.G.Z.G.G.Z.Z.G.B.v.v.v.v.v.v.v.v.v.v.m.m.m.G.S.m.v.v.z.v.z.c.' D p [ A.c.` F ` ` ` ' ] ] M u ` F.H.z.l.z.v.v.v.z.c.c.k.k.k.k.k.k.k.k.k.k.k.k.k.k.' ' k.[ ' ' ' ) - O < u k M C ( C ` P.} ' c.[ ' ' [ l.l.l.l.[ [ ' N F [ G ] J @ : +X6XwXeXeX3X#., d.[.2.3.6.6.6.6.6.,.6.6.6.3.1.,.,.6.Y + 5 +...Q W @., X h.MXMXBXBXBXAXKXKXPXPXPXPXPXPXPXPXPXPXPXPXPXPXPXPXPXPXPXPXPXPXPXPXPXPXPXPXPXPXPXPXPXPXPXPXPXPXPXPXPXPXPXPXPXPXPXPXPXPXPXPXPXPXPXPXPX",
"PXPXPXPXPXPXPXPXPXPXPXPXPXPXPXPXPXPXPXPXPXPXPXPXPXPXPXPXPXPXPXPXPXPXPXPXPXPXPXPXPXPXPXPXPXPXPXPXPXPXPXPXPXPXPXPXPXPXPXPXPXFXaXX K 3XuXrXzXi.& 6.[.$.o.3.3.3.7.7.>.>.q.3.3.3.4.3.4.w.*.4 & Y W E Q Y &   > R 8   & K I 4 = +XbXcXtX0X0X=X4.P bXbXbX0X~.~.I.[ -.'.p.=.oXxX,XcXZXZXbXbXbXbXbXbXbXbXbXbXbXbXbXbXbXbXbXZXZXZXbXbXbXbXbXbXbXcX`.l b <.^.4.R l ~.=X=X0XiXcX-X< 1 u A z.B.B.l.l.c.c.[ C N S.H.H.J.H.K.J.L.L.L.L.L.L.K.K.H.U.D.C F H.G.H.H.H.G.G.H.H.H.H.H.H.H.H.H.G.G.G.v.G.G.G.G.G.G.S.G.S.S.m.v.v.v.v.v.v.G.H.G.G.G.G.G.G.G.G.M.M ` S.G.N.Z.N.G.G.Z.G.G.Z.V.G.B.v.v.v.v.v.v.v.v.v.v.m.m.m.m.b.v.B.v.v.v.v.c.[ F p [ D.v.' ` ` ` ` ' ' ' ` i k A.J.B.l.z.S.S.v.c.c.c.' k.' k.k.k.k.k.k.' k.k.k.k.k.' k.k.' ' ' ) - O < u k M C C C C P.c.' k.[ ' F [ l.l.l.l.[ [ ' N A [ G ] J @ : #X6XwXeX6X3X*., d.[.2.3.6.6.6.6.6.6.6.6.6.3.1.,.,.6.Y + 5 +...Q W @., X h.MXMXBXBXBXAXKXKXPXPXPXPXPXPXPXPXPXPXPXPXPXPXPXPXPXPXPXPXPXPXPXPXPXPXPXPXPXPXPXPXPXPXPXPXPXPXPXPXPXPXPXPXPXPXPXPXPXPXPXPXPXPXPXPXPX",
"PXPXPXPXPXPXPXPXPXPXPXPXPXPXPXPXPXPXPXPXPXPXPXPXPXPXPXPXPXPXPXPXPXPXPXPXPXPXPXPXPXPXPXPXPXPXPXPXPXPXPXPXPXPXPXPXPXPXPXPXPXFXaXX K 4XuXrXzXi.* 6.f.2.P 3.7.7.3.3.3.3.7.7.7.7.8.3.4.w.*.4 & Y ..E Q Y *   > R 0 X $ K U : 8 :XbXiX0X0X0X=X=.2.bXbXcXXX~.Z.M.S 4.{.u.4.6XiXiXbXZXbXbXbXbXbXbXbXbXbXbXbXbXbXbXbXbXbXbXbXbXbXbXbXbXbXbXbXbXiX}.;.-.;.-.4.2.1 -.=X=X0X0XiXuXa 6 y m l.B.z.l.c.c.c.` C N D.H.H.J.G.J.J.H.J.J.J.J.J.J.J.H.H.S.F A D.G.H.J.H.H.G.H.H.H.H.G.G.H.H.G.G.G.G.B.G.G.G.G.G.G.G.G.G.G.S.S.v.v.v.v.v.v.G.V.Z.G.G.G.G.G.S.M.m ` D.G.G.G.G.S.G.G.G.G.B.G.G.S.S.v.v.z.z.z.v.v.b.b.b.b.m.v.v.v.v.v.v.z.z.c.[ ` m [ A.B.[ F ] ] ` ' ' ` ` b i ` J.G.B.v.v.v.v.c.v.c.[ ' ' k.' k.k.k.k.x.k.x.k.x.k.' k.k.[ ' ' ) - O < u k C V C C C P.A.' [ ' [ G ' l.l.l.l.l.l.' V C ' G [ J @ : +X6XwXeX6X5X*., d.f.2.3.6.7.7.7.6.6.6.3.3.3.3.3.,.6.Y + 5 +.Q Q W @.4 X h.BXMXBXBXNXAXKXKXPXPXPXPXPXPXPXPXPXPXPXPXPXPXPXPXPXPXPXPXPXPXPXPXPXPXPXPXPXPXPXPXPXPXPXPXPXPXPXPXPXPXPXPXPXPXPXPXPXPXPXPXPXPXPXPXPX",
"PXPXPXPXPXPXPXPXPXPXPXPXPXPXPXPXPXPXPXPXPXPXPXPXPXPXPXPXPXPXPXPXPXPXPXPXPXPXPXPXPXPXPXPXPXPXPXPXPXPXPXPXPXPXPXPXPXPXPXPXKXFXaXX K 4XuXrXzXi.& 5.[.3.L 3.7.6.3.2.3.3.7.6.7.8.8.3.3.w.*., & I ..E Q Y * o < R 0 # $ K K : 8 2XbXtX0X0X0XoXX.:XbXbXiXXX~.N.-.l 2. Xe.}.iXcXbXbXbXcXyXyXyXyXyXyXyXyXyXyXcXcXcXcXcXcXcXcXcXcXiXiXiXiXiXiXiX=X~.~.N.P.-.;.2.h g oXOX0X0XiXiXE < a m ' c.c.l.c.c.c.` N N H.L.L.J.J.J.J.J.J.J.J.J.J.J.L.K.K.G.F C S.H.H.H.J.H.H.H.H.H.G.G.G.H.H.G.G.G.G.B.G.G.G.G.G.G.G.G.G.G.G.G.G.v.v.v.v.v.G.V.G.S.S.N.V.G.S.c.m ` D.G.Z.S.G.G.G.G.G.G.S.S.G.S.A.M.v.M.c.z.S.m.b.b.V.V.V.v.b.v.v.v.v.z.z.l.' ' m ] A.B.l.F ` ' ` ' ' ' ( / p k F.J.S.v.c.c.v.v.v.v.[ [ [ [ ' [ [ k.k.[ x.x.x.x.k.' k.x.' ' ' ) - O < u k C C D C C F.D.' ' ' [ ' ' k.l.c.l.l.l.' C C [ G [ v @ : +X6XwXeX6X5X%.: d.f.2.1.6.3.3.7.7.3.3.3.3.3.3.3.1.6.Y + 5 +.Q Q W @.4 X h.BXNXMXBXNXAXKXKXPXPXPXPXPXPXPXPXPXPXPXPXPXPXPXPXPXPXPXPXPXPXPXPXPXPXPXPXPXPXPXPXPXPXPXPXPXPXPXPXPXPXPXPXPXPXPXPXPXPXPXPXPXPXPXPXPX",
"PXPXPXPXPXPXPXPXPXPXPXPXPXPXPXPXPXPXPXPXPXPXPXPXPXPXPXPXPXPXPXPXPXPXPXPXPXPXPXPXPXPXPXPXPXPXPXPXPXPXPXPXPXPXPXPXPXPXPXPXKXGXsXX K 4XuXrXzXi.& &.[.w.L ,.7.6.3.3.3.3.6.6.7.7.3.3.3.4.*., & Y ..E Q Y &   < R 8 X $ U K : 8 2XbXtX0X0X0XoXR 8XbXbXiX=XXXN.=.E 4.P.`.,XcXyXyXyXyXyXyXyXyXyXtXtXtXtXtXtXtXtXtXtXiXiXtXtXtXtXtXtXtX0X0X0X0X=X~.~.~.-.-.P.4.L 1 oXOX0X0X0XeX4.- a m A c.c.c.c.z.c.] V C J.J.H.J.J.J.K.K.L.L.L.J.L.L.L.H.H.G.` C D.H.H.H.J.H.H.H.H.G.G.H.H.H.H.G.G.G.G.v.G.G.G.G.G.G.G.G.G.G.G.G.G.v.v.v.v.v.G.G.G.G.S.S.B.V.S.c.m ` D.H.V.B.G.G.G.G.G.G.S.S.G.S.S.v.v.M.c.z.S.m.b.b.V.V.V.V.V.V.B.v.V.v.z.l.' ' m ` M.v.c.F ` ` ` ' ' ' ' / k i { (.G.z.c.M.c.v.c.v.k.[ [ k.k.[ [ x.' ' x.x.[ x.' ' k.k.' ' ' ) - O < u k C C F D V A.F.[ ' ' [ ' ' k.l.c.k.k.l.' V C [ G ] v @ * +X6XwXwX6X3X%.: d.f.2.,.6.3.3.7.7.3.3.3.3.3.1.1.1.6.Y + 5 #.Q Q W @.4 X h.BXNXMXBXNXAXHXKXPXPXPXPXPXPXPXPXPXPXPXPXPXPXPXPXPXPXPXPXPXPXPXPXPXPXPXPXPXPXPXPXPXPXPXPXPXPXPXPXPXPXPXPXPXPXPXPXPXPXPXPXPXPXPXPXPX",
"PXPXPXPXPXPXPXPXPXPXPXPXPXPXPXPXPXPXPXPXPXPXPXPXPXPXPXPXPXPXPXPXPXPXPXPXPXPXPXPXPXPXPXPXPXPXPXPXPXPXPXPXPXPXPXPXPXPXPXPXKXFXsXX K 4XuXrXzXi.& 5.{.e.L #.8.6.7.3.3.3.3.6.6.7.3.1.3.4.*.= & Y ..E Q T $ o < R 5 X $ U w : , ;XbXyXtX0X0X=XS 8XbXbXcX=X0X~.S `.>X,X1XwXwXyXtXtXtXtXtXtXtXtXtXtXtXtXtXtXtXtXtXtXtXtXtXtXtXtX0X0X0X0X0X0XXX~.~.~.~.P.S ~.P.P < }.OX0X=X=X1X^.- a m Z c.c.l.c.B.c.] V A J.H.H.J.G.J.J.J.J.J.J.J.J.L.K.G.G.G.` N A.H.G.H.H.H.H.H.H.H.H.H.H.H.H.G.G.G.G.v.G.G.G.G.G.G.G.G.G.G.G.G.G.v.v.v.v.v.V.G.G.G.S.B.B.V.S.c.m ` D.G.V.S.G.G.G.G.G.G.S.S.G.S.S.v.v.M.c.v.S.m.b.m.v.b.v.v.v.v.v.z.v.z.z.l.' ' m ` A.v.c.F ` ` ` ' ' ' ' ` C i B /.J.B.c.M.M.v.c.v.c.[ k.k.k.k.k.c.x.x.x.k.[ k.' ' k.k.' ' ' ) - O < u k C C C C M } F.[ [ ' [ ' G l.c.c.k.k.k.' V C [ G [ v @ * +X6XwXwX6X3X%.: d.f.2.,.6.3.3.7.7.3.3.3.3.3.1.1.1.6.Y + 5 +.Q Q W @.4 X h.BXNXMXMXNXAXHXKXPXPXPXPXPXPXPXPXPXPXPXPXPXPXPXPXPXPXPXPXPXPXPXPXPXPXPXPXPXPXPXPXPXPXPXPXPXPXPXPXPXPXPXPXPXPXPXPXPXPXPXPXPXPXPXPXPX",
"PXPXPXPXPXPXPXPXPXPXPXPXPXPXPXPXPXPXPXPXPXPXPXPXPXPXPXPXPXPXPXPXPXPXPXPXPXPXPXPXPXPXPXPXPXPXPXPXPXPXPXPXPXPXPXPXPXPXPXPXKXFXsXX K 4XuXrXzXi.& &.{.e...P 8.7.7.3.3.3.6.6.7.3.3.1.3.4.*.= & Y ..E Q Y $   < L 5 # $ T K : & a.bXyXtX0X0X=X=. XbXbXbX=XXXwX-.-.P.}.oXoX=XtXtX0X0X0X0X0X0X0X0X0X0X0XtX0X0X0X0X0X0X0X0X0X0X0X0X0X0X=X=XXX~.~.~.~.~.-.-.P.4.h < }.OXOXXX=X=X`.- y B N l.B.c.l.c.l.` V A J.H.H.J.J.J.J.J.H.G.G.H.H.H.H.H.G.H.] m M.G.G.H.H.G.H.H.H.H.H.G.H.H.H.H.G.G.G.V.V.G.G.G.G.G.G.G.G.G.G.G.G.G.b.v.v.v.G.G.G.G.H.S.B.V.D.} m ` D.Z.V.G.G.S.G.G.G.G.G.G.G.S.v.v.v.M.c.v.S.G.G.m.v.v.v.v.v.v.v.v.v.v.z.l.' ' m ` M.v.c.` ` ` ` ' [ ' ' ' A d p A.(.G.c.c.M.v.v.v.c.[ k.k.l.c.l.x.x.x.x.x.' ' ' ' k.k.' ' ] ) - O < y k C C A C B ` P.[ [ ' ' ' G k.l.x.k.k.k.[ V M [ G [ b @ * @X6XeXwX6X3X%., d.f.2.,.6.3.3.3.3.3.3.3.3.,.1.7.1.6.Y + 8 +.Q Q W ! , . h.BXMXNXMXBXCXHXKXPXPXPXPXPXPXPXPXPXPXPXPXPXPXPXPXPXPXPXPXPXPXPXPXPXPXPXPXPXPXPXPXPXPXPXPXPXPXPXPXPXPXPXPXPXPXPXPXPXPXPXPXPXPXPXPXPX",
"PXPXPXPXPXPXPXPXPXPXPXPXPXPXPXPXPXPXPXPXPXPXPXPXPXPXPXPXPXPXPXPXPXPXPXPXPXPXPXPXPXPXPXPXPXPXPXPXPXPXPXPXPXPXPXPXPXPXPXPXKXFXsXX K 4XuXrXzXi.$ &.{.w.$.h 8.6.3.3.3.3.6.6.7.7.3.1.3.4.*.= & I ..E Q Y &   < L 5 # @ T K : X &.bXxXtX0X0X=XP.2.bXbXbXiX~.=X1XP.-.-.-.-.-.=XiX0X0X0X0X0X0X0X0X0X0X0X0X0X0X0X0X0X0X0X0X0X0X0X0X0X=X=XXXXX~.~.~.~.~.-.S P.-.1 1 .XXXOXXXXX=X`.- 1 c N l.z.l.c.z.l.` N ` J.H.H.J.J.J.J.H.J.H.H.H.H.H.G.G.H.H.} m c.D.G.G.G.G.G.G.G.H.H.H.H.H.H.H.G.G.G.V.V.G.G.G.G.G.G.b.G.G.G.G.v.b.V.v.v.v.G.G.G.G.H.S.B.V.S.c.m ` D.G.Z.G.G.G.S.S.G.G.S.S.G.v.v.v.v.M.M.M.S.m.m.v.v.v.V.V.v.v.v.v.v.v.z.c.' ' V F v.v.v.[ ` ` ` ' ' ' ' G ` B u ( (.J.B.c.M.v.v.v.c.[ [ k.k.l.l.[ k.x.x.x.x.x.k.x.x.k.' ' ] ) - O < y k C C A C M C P.} [ ' ' ' G k.l.x.k.k.l.[ C V ' G [ v @ * @X6XeXwX6X3X*., d.f.2.3.6.>.3.3.3.3.3.6.3.,.1.3.1.6.Y + 8 +.Q Q W ! , . h.mXBXBXMXBXCXHXKXPXPXPXPXPXPXPXPXPXPXPXPXPXPXPXPXPXPXPXPXPXPXPXPXPXPXPXPXPXPXPXPXPXPXPXPXPXPXPXPXPXPXPXPXPXPXPXPXPXPXPXPXPXPXPXPXPX",
"PXPXPXPXPXPXPXPXPXPXPXPXPXPXPXPXPXPXPXPXPXPXPXPXPXPXPXPXPXPXPXPXPXPXPXPXPXPXPXPXPXPXPXPXPXPXPXPXPXPXPXPXPXPXPXPXPXPXPXPXKXFXsXX K 4XuXrXzXr.+ &.{.w.1.h 6.6.6.3.3.3.6.6.7.7.3.3.3.w.*., & I W E Q Y & o < R 5 o @ T K , X Y cXcXtX0X0XOXoXR 7XbXbXbXwX~.0XwX=X.X~.~.`. X1XiXiXiXiXeX1X1X=X=X=X=X=X=X=X=X=X=X=X=X=X=X=X=X=X=X=X=X=XXX~.~.~.~.N.F -.4.l > X.XX~.XX~.~.OX^.- 1 c N l.c.l.c.c.l.` m [ J.H.H.H.J.J.J.H.G.J.J.H.H.K.G.G.H.H.;.m [ D.H.H.H.G.H.H.H.H.G.G.H.H.H.H.H.H.G.G.V.G.G.G.G.b.b.b.G.G.G.G.v.v.v.v.v.v.V.G.G.G.S.S.B.V.D.c.m ] D.G.G.G.G.G.G.G.G.G.G.b.b.b.m.v.M.M.M.B.v.v.m.v.v.v.v.v.B.v.v.v.v.v.z.c.[ ' C C v.v.v.[ ` ` ` ' ' ' ' G ` / u d U.L.M.c.M.v.M.v.c.[ ' [ [ [ [ ' ' k.x.x.x.x.' x.x.k.' ' ' ) - O < y k C Z A C C C F.A.' [ ' ' G k.l.c.k.k.l.[ V M ' G ] v O * #X6XeXwX6X3X%., d.f.2.3.6.2.>.3.3.3.3.3.3.,.,.3.,.6.Y + 8 +.Q Q W ! , . h.mXNXBXBXNXCXHXKXPXPXPXPXPXPXPXPXPXPXPXPXPXPXPXPXPXPXPXPXPXPXPXPXPXPXPXPXPXPXPXPXPXPXPXPXPXPXPXPXPXPXPXPXPXPXPXPXPXPXPXPXPXPXPXPXPX",
"PXPXPXPXPXPXPXPXPXPXPXPXPXPXPXPXPXPXPXPXPXPXPXPXPXPXPXPXPXPXPXPXPXPXPXPXPXPXPXPXPXPXPXPXPXPXPXPXPXPXPXPXPXPXPXPXPXPXPXPXKXFXsXX K 4XuXrXzXr.+ &.[.w.6.L #.7.7.7.3.3.7.7.7.7.8.7.3.3.*., & Y W E E T $   < R 8   & Y r 8 + 8 :XcXtX0X0X=XoX4.4.bXbXbXyX=XN.~.=X1X=XoXP.X.L P &.d.jXcXbXbXbXbXbXbXcXcXzXzXuXrX9X1X,X=X=X}.~.~.~.~.~.~.~.N.N.N.P.P.`.l > y P.~.~.~.~.~.XX2.- < k N l.B.l.z.c.l.` m c.J.J.H.H.J.J.J.J.G.J.L.K.K.K.H.G.G.H.M.m { D.D.H.H.H.H.H.H.H.H.G.G.H.G.G.H.H.G.G.B.v.v.v.v.m.G.G.G.G.G.b.B.v.v.v.v.v.B.G.B.S.G.B.B.S.D.} m ` D.S.G.G.G.G.G.G.G.G.G.b.b.m.m.G.G.v.v.v.v.v.v.v.v.v.v.B.v.v.v.v.v.z.z.c.[ ` C C M.c.z.c.' F ' ' ' ' ' G ' ( d i } (.V.z.z.M.c.c.c.[ [ ' ' ' ' [ k.x.x.x.x.' k.k.k.' ' [ [ ) - O < u k C C C A C M <.A.' [ ' k.G ' [ k.l.l.[ [ C M ` G ] v O : #X6XwXwX6X3X#., d.f.2.3.6.2.>.3.3.3.3.7.3.,.,.,.,.,.Y + 5 +.Q Q W ~ 4 . h.mXNXNXNXBXAXHXHXPXPXPXPXPXPXPXPXPXPXPXPXPXPXPXPXPXPXPXPXPXPXPXPXPXPXPXPXPXPXPXPXPXPXPXPXPXPXPXPXPXPXPXPXPXPXPXPXPXPXPXPXPXPXPXPXPX",
"PXPXPXPXPXPXPXPXPXPXPXPXPXPXPXPXPXPXPXPXPXPXPXPXPXPXPXPXPXPXPXPXPXPXPXPXPXPXPXPXPXPXPXPXPXPXPXPXPXPXPXPXKXPXPXPXPXPXPXPXKXFXdXX K 4XuXeXzXr.+ &.f.w.7.W P 7.6.7.3.3.3.3.7.7.8.7.3.3.*., @ Y W E E T $   < R 8 X & Y K 8 & X a.cXtXtX0X=XOXoXS -XcXbXbXbXiX=XP.-.-.-.-.X.2.r.8 + @ , : , 9 Y a.;X5XjXjXjXcXcXcXcXcXcXzXcXzXrX9X9X1X=X}.~.}.}.`.=.y 1 1 -.~.~.~.~.~.~.XXQ - 1 c N c.B.z.z.c.l.F m M.J.J.H.H.J.J.J.J.J.L.L.J.K.K.G.G.H.H.M.m ' D.Z.H.G.H.G.H.H.H.H.S.H.H.G.H.H.H.G.G.B.B.B.S.S.G.G.G.G.G.G.G.S.B.v.v.z.v.B.G.G.G.G.B.S.B.D.} m ` D.S.S.G.G.G.G.G.S.G.G.G.G.G.m.v.v.b.V.V.G.m.m.v.v.B.B.B.v.v.m.m.V.z.z.c.[ ` A N M.M.M.c.' F G ' ' ' ' G ' ( B u _ (.Z.l.z.B.c.c.c.l.[ [ ' ' [ k.k.[ x.x.x.' ' ' k.' ' ' [ ) - O < u k / V C A A V } F.[ [ k.k.' ' [ [ k.l.[ [ C M ` G ] v O : +X6XwXwX6X3X#., d.f.2.,.6.1.>.3.3.3.3.7.7.,.,.,.,.,.Y + 5 +.Q Q W ~ 4 X h.mXVXNXNXBXAXHXHXPXPXPXPXPXPXPXPXPXPXPXPXPXPXPXPXPXPXPXPXPXPXPXPXPXPXPXPXPXPXPXPXPXPXPXPXPXPXPXPXPXPXPXPXPXPXPXPXPXPXPXPXPXPXPXPXPX",
"PXPXPXPXPXPXPXPXPXPXPXPXPXPXPXPXPXPXPXPXPXPXPXPXPXPXPXPXPXPXPXPXPXPXPXPXPXPXPXPXPXPXPXPXPXPXPXPXPXPXPXPXKXKXPXPXPXPXPXKXKXFXdXX K 4XuXeXzXr.@ 5.f.w.6.#.H 1.1.7.3.3.7.7.q.7.8.6.3.3.*., & Y W E Q T $ o 6 R 8 X & @.K 0 4 + Y zXyXtX0X0XOXoX-.E -XcXbXbXbXbXbXiXiXeX1XcXbX-X8 @ > h h 1 - @ .   + X . X @ : 4 = , , 9 9 9 9 h K L P L K L 0 < > < l 4.~.~.~.~.~.I.~..X1 - 1 c N c.z.z.z.c.l.D m D.J.J.H.H.J.J.J.J.J.L.L.G.J.K.G.G.H.H.B.m ` D.Z.H.G.H.G.H.H.H.H.S.H.H.G.H.H.H.G.G.G.B.B.S.S.G.G.G.G.G.G.G.B.B.v.v.z.v.B.B.G.G.G.S.S.B.D.} m ` D.S.S.G.G.G.G.G.G.G.G.G.H.G.v.v.v.v.b.V.G.m.m.v.v.B.B.B.v.v.v.m.V.z.z.c.[ ' F N c.M.M.z.[ G F ' ' ' ' G G ( C i p P.K.B.M.M.c.c.c.c.[ [ [ [ [ k.x.[ x.x.x.' ' ' k.' ' ' ' ) - O < u k / V C A ( B _ /.c.[ k.k.' ' [ [ k.l.[ [ C M ` G ] v O : #X6XwXwX6X3X#., d.f.3.,.6.,.3.3.3.3.3.7.7.,.,.,.,.,.Y + , +.Q Q W ~ 4 X h.mXVXNXNXBXAXHXKXPXPXPXPXPXPXPXPXPXPXPXPXPXPXPXPXPXPXPXPXPXPXPXPXPXPXPXPXPXPXPXPXPXPXPXPXPXPXPXPXPXPXPXPXPXPXPXPXPXPXPXPXPXPXPXPXPX",
"PXPXPXPXPXPXPXPXPXPXPXPXPXPXPXPXPXPXPXPXPXPXPXPXPXPXPXPXPXPXPXPXPXPXPXPXPXPXPXPXPXPXPXPXPXPXPXPXPXPXPXPXKXPXPXPXPXPXPXKXKXFXsX% K 4XuXeXzX8.& 5.f.w.1.*.H *.7.7.7.7.q.q.q.q.7.7.3.3.*.: & Y ..E Q Y $   5 R 0 X + @.K 0 8 4 : [.xXtXtX0X=XXX~.-.l 4.7XcXbXbXbXbXbXbXbXzX[.9 > a v S ` _ E h . X * & . + @ - + + % r Y 9 > > > > > > : - - > 1 R -.P.~.~.~.~.I.I.I.U.`.- - a z C c.z.z.z.l.l.S m D.J.J.J.H.J.J.J.J.J.L.L.H.H.K.H.G.G.H.B.m ` D.H.H.G.H.H.H.H.H.H.G.H.H.G.H.H.H.G.G.G.S.v.m.S.G.G.G.G.G.G.G.B.B.v.z.z.z.v.B.G.G.G.G.B.B.D.} m ` D.S.G.G.G.G.G.G.G.G.G.G.G.m.v.v.v.V.b.b.m.v.v.v.v.v.v.B.v.v.v.v.v.z.v.z.c.' ` N c.M.z.z.c.G G ' ' ' ' G A ` ( m t A.U.M.c.c.c.c.c.c.k.[ [ [ [ k.x.x.' x.x.' k.k.k.' ' ' ' ) - O < u k C V C A ` M _ /.c.[ k.k.' ' c.c.l.' [ [ C M ` G ] v O : +X6XwXwX6X3X#., d.f.2.>.,.,.3.3.3.3.3.7.7.,.,.,.,.6.Y + , +.Q Q W ~ 4 X h.mXNXNXMXBXAXHXKXPXPXPXPXPXPXPXPXPXPXPXPXPXPXPXPXPXPXPXPXPXPXPXPXPXPXPXPXPXPXPXPXPXPXPXPXPXPXPXPXPXPXPXPXPXPXPXPXPXPXPXPXPXPXPXPXPX",
"PXPXPXPXPXPXPXPXPXPXPXPXPXPXPXPXPXPXPXPXPXPXPXPXPXPXPXPXPXPXPXPXPXPXPXPXPXPXPXPXPXPXPXPXPXPXPXPXPXPXPXPXKXKXPXPXPXPXPXPXKXFXsX% H 4XuXuXzXw.& 6.f.w.1.1.L ..7.7.3.3.q.q.q.q.8.7.3.3.*.: @ Y W E Q Y $   5 R 0 X & Y I q q 5 - 0 8XiXtX0X0XXX~.(.=.l P 4.-XgXcXcXjX<X`.X.y h E D F G j.[ 4.L + : 0 8 X + > 1 ; @ + d.jX5X`.-.-.-.-.X.X.S =.;.P.P.~.~.~.~.~.I.Z.Z.I.U.) - > g m F B.B.z.z.l.l.C V J.J.H.H.J.J.J.J.J.J.J.J.H.H.H.H.H.H.H.M.V ( D.H.H.G.H.H.H.H.H.H.G.G.H.G.G.H.G.G.G.G.S.v.m.S.G.G.G.G.G.G.G.B.B.v.z.z.z.z.B.G.G.G.G.S.B.D.c.m ` A.G.G.G.G.G.G.G.G.G.G.G.G.v.v.v.v.b.v.v.v.v.m.v.v.v.v.v.v.v.v.v.v.z.z.c.c.[ ` N [ M.z.z.c.G G ' ' ' ' ( A F ` C u _ U.D.M.c.c.c.c.c.[ [ [ [ [ [ x.x.[ ' x.' ' k.k.' ' ' ' ) - O < u k C V C A A V c F.A.[ k.k.' ' c.c.k.' l.[ C M [ G [ v O : #X6XwXwX6X3X#., d.f.2.>.3.,.3.3.3.3.3.3.3.,.,.,.1.6.Y + 4 +.Q Q W @.4 X h.mXMXNXBXBXAXHXPXPXPXPXPXPXPXPXPXPXPXPXPXPXPXPXPXPXPXPXPXPXPXPXPXPXPXPXPXPXPXPXPXPXPXPXPXPXPXPXPXPXPXPXPXPXPXPXPXPXPXPXPXPXPXPXPXPX",
"PXPXPXPXPXPXPXPXPXPXPXPXPXPXPXPXPXPXPXPXPXPXPXPXPXPXPXPXPXPXPXPXPXPXPXPXPXPXPXPXPXPXPXPXPXPXPXPXPXPXPXKXKXPXPXPXPXPXPXPXKXFXsX% H 4XxXuXzXr.& 5.f.w.7.1.W P 6.7.7.3.q.q.q.q.7.7.3.3.*., & Y W E Q Y $   5 R 0 X + Y Y q w 0 , $ ..eXiXtX0XXX~..X(.<.) z l v R l l l l l z D ;.[ G G [ ;.2.- & 0 w 8   + < u y < > h jXbXuX=X~.~.~.~.~.~.~.~.~.~.~.~.~.~.U.P.I.I.U.F.< - 1 v M ' B.B.z.z.l.l.M C J.J.H.H.J.J.J.J.J.J.J.J.H.H.K.H.G.H.H.B.C C D.H.H.G.H.G.H.H.H.H.G.G.G.G.G.G.G.G.G.G.S.m.S.S.G.G.G.G.G.G.G.B.B.B.z.z.z.z.M.G.G.G.G.S.B.D.c.m ` A.D.H.G.G.G.G.G.G.G.G.b.m.v.v.v.v.b.v.v.v.v.v.v.z.v.v.v.v.z.v.v.v.v.v.c.c.[ ` N ' M.B.z.M.' G ' ( ( ' ` ( ' ' ` i k F.F.c.c.c.c.c.c.[ [ [ ' [ x.k.k.k.[ x.' ' k.k.' ' ' ' E - O < u k V V C A C _ d A.D.l.k.k.' ' [ x.k.k.[ [ C M ] G [ v O : #X6XwXwX6X3X%., d.f.2.3.6.3.3.3.3.3.3.3.3.,.,.,.1.6.Y + 5 +.Q Q W @.4 X h.mXNXNXBXNXAXHXPXPXPXPXPXPXPXPXPXPXPXPXPXPXPXPXPXPXPXPXPXPXPXPXPXPXPXPXPXPXPXPXPXPXPXPXPXPXPXPXPXPXPXPXPXPXPXPXPXPXPXPXPXPXPXPXPXPX",
"PXPXPXPXPXPXPXPXPXPXPXPXPXPXPXPXPXPXPXPXPXPXPXPXPXPXPXPXPXPXPXPXPXPXPXPXPXPXPXPXPXPXPXPXPXPXPXPXPXPXPXPXKXPXPXPXPXPXPXPXKXFXsXX H 4XxXuXzXr.* 5.s.w.7.7.#.L 1.1.7.3.q.q.7.3.3.7.3.3.*., * Y ^ W Q Y $   5 v 0 + + Y Y q w h 0 4 : 4.wXtX0X0XXXXX~.~.U.<.=.) v l l E =.;.] [ j.;.G ] ;.=.5 + 4 w q 8 X O < y y a 6 < ..cXcXiXtX0X~.~.~.~.~.~.~.~.~.~.~.~.P.U.I.R.Z.z > : a / V l.B.B.z.z.l.l.M D F.J.L.J.J.J.J.J.L.L.L.L.H.K.K.K.H.H.H.D.( C D.H.H.H.H.H.H.H.H.H.H.H.H.H.H.H.G.G.G.G.G.S.S.S.S.m.b.b.G.G.G.B.B.B.B.M.M.M.z.B.G.G.G.S.B.A.c.m ` M.S.Z.G.G.G.G.G.G.G.G.b.b.v.v.v.v.b.v.v.v.v.v.v.v.v.v.v.v.v.v.v.z.v.z.c.c.} ` N ' v.M.M.M.l.' ' A ( ' ` ` ' ' ` d u A.P.M.c.z.c.c.c.[ [ [ [ [ k.x.x.' [ x.' ' k.k.[ ' ' ' J - o < u k V V A A C _ k { J.c.l.k.' ' [ c.l.l.l.[ M M ] G [ v O : #X6XwXwX6X3X%., d.f.2.3.6.,.3.7.3.3.3.3.3.1.,.,.1.6.Y + 5 +.Q Q W @.4 X h.mXVXVXMXNXAXHXPXPXPXPXPXPXPXPXPXPXPXPXPXPXPXPXPXPXPXPXPXPXPXPXPXPXPXPXPXPXPXPXPXPXPXPXPXPXPXPXPXPXPXPXPXPXPXPXPXPXPXPXPXPXPXPXPXPX",
"PXPXPXPXPXPXPXPXPXPXPXPXPXPXPXPXPXPXPXPXPXPXPXPXPXPXPXPXPXPXPXPXPXPXPXPXPXPXPXPXPXPXPXPXPXPXPXPXPXPXPXPXPXPXPXPXPXPXPXPXKXGXsX% K 4XuXuXzX0.$ 6.f.w.7.7.$.L *.7.7.7.7.7.7.7.6.7.3.8.*., & Y ^ Q Q Y * o 5 L 0 + % Y K 0 I K w 5 : 6 u.eXwX0X0XOX.X~.I.Z.N.;.;.;.;.;.;.M.N.N.N.N.N.;.<.H + % 8 0 0 8 X o > s s j t h 0 6.cXbXbXcXiX0X=XXXXX~.~.~.~.~.~.~.I.I.I.N.b 1 - 1 c V G z.Z.B.z.z.c.[ m [ D.G.J.J.L.J.J.J.L.L.L.L.K.K.K.H.H.H.G.Z.F V A.G.H.G.H.H.H.H.H.H.H.H.H.H.H.H.G.G.H.Z.Z.B.S.S.S.m.G.S.S.S.S.S.S.v.v.m.B.v.v.B.G.G.N.Z.B.B.} c ` S.Z.N.S.S.S.A.S.S.G.G.V.V.v.v.v.v.v.v.v.v.v.v.v.v.v.v.v.v.v.v.v.z.v.z.c.c.[ G Z G M.M.z.v.c.' ' ' ( ' ` G G A ` M u ` (.S.l.z.c.v.c.l.[ [ [ } x.k.k.' k.k.' ' ' [ ' ' ' ' J - O < u k V C D C A ( m / F.c.l.k.j.G ' [ l.l.l.[ M M ` G ' J + & #X6XwXwX6X3X%., d.[.2.2.6.1.7.6.6.,.3.3.,.6.,.2.3.6.Y + 5 +.W W W ~ 4 . h.mXNXVXNXNXAXHXPXPXPXKXKXPXPXPXPXPXPXPXPXPXPXPXPXPXPXPXPXPXPXPXPXPXPXPXPXPXPXPXPXPXPXPXPXPXPXPXPXPXPXPXPXPXPXPXPXPXPXPXPXPXPXPXPXPX",
"PXPXPXPXPXPXPXPXPXPXPXPXPXPXPXPXPXPXPXPXPXPXPXPXPXPXPXPXPXPXPXPXPXPXPXPXPXPXPXPXPXPXPXPXPXPXPXPXPXPXPXPXPXPXPXPXPXPXPXPXKXGXsX% H 4XiXuXcXr.@ 9.f.8.7.7.1.P +.6.7.7.7.7.7.7.8.7.3.3.*., & Y ^ Q Q ! * o 5 L 0 + % O.K w Y w K 0 < > 1 4.1XqX0X0X=XXX~.~.P.N.N.N.N.N.N.N.N.N.N.N.N.P.H @ + 8 0 0 9 8   o < s i c u ; h 0 2.zXbXbXbXyXtX0X0XXX~.~.~.~.~.I.I.I.N.M g < ; s m V ' B.N.B.z.z.c.[ m } D.G.G.H.H.L.J.J.J.L.L.L.K.K.K.H.H.H.H.H.` k A.G.H.G.H.H.D.D.H.H.H.J.J.J.H.H.G.G.G.Z.Z.B.v.S.S.n.S.S.S.S.S.S.S.m.v.v.v.v.v.B.G.G.Z.Z.B.V.c.m ` S.Z.N.D.D.S.S.S.S.B.V.G.G.v.v.v.v.v.v.v.v.v.v.v.v.v.v.v.v.v.v.v.v.v.z.z.c.[ ' A A v.M.z.v.v.[ ( ' ( ' ` G G G ` _ u m U.D.z.B.M.v.c.l.[ [ [ [ k.k.k.k.k.k.' ' ' [ ' [ ' ' E - O < u p V C C C A A C k F.c.l.l.j.G ' l.l.l.[ [ M M ` G [ v + : #X6XwXwX6X3X%., d.[.2.>.6.1.6.6.6.7.7.6.6.6.6.3.3.1.Y + 5 +.W Q W @.4 . h.mXNXVXNXBXAXHXPXPXPXKXKXPXPXPXPXPXPXPXPXPXPXPXPXPXPXPXPXPXPXPXPXPXPXPXPXPXPXPXPXPXPXPXPXPXPXPXPXPXPXPXPXPXPXPXPXPXPXPXPXPXPXPXPXPX",
"PXPXPXPXPXPXPXPXPXPXPXPXPXPXPXPXPXPXPXPXPXPXPXPXPXPXPXPXPXPXPXPXPXPXPXPXPXPXPXPXPXPXPXPXPXPXPXPXPXPXPXPXPXPXPXPXPXPXPXPXKXJXdX% K 4XiXuXzX0.$ 9.i.8.7.7.6.W P ,.6.7.7.7.7.q.8.6.3.3.*., & Y ^ Q Q ~ * o < H 8 o & O.K w ! r w w 0 5 : > o.>X=X=X=X=XXX~.~.~.~.P.Z.Z.Z.U.P.P.P.F.<.h & + 5 K 0 0 9 8   o < j k V ) a 1 R v =. XuXiXiXiX0X0X=XXX~.~.~.I.I.I.;.z E h - u B N A l.B.B.B.z.z.c.' m M.H.H.H.H.H.L.J.J.J.L.L.L.K.K.K.G.H.H.K.H.] k A.G.H.H.H.H.H.D.H.H.H.J.J.J.H.H.G.G.G.G.G.B.v.m.m.v.S.S.S.S.S.S.S.S.S.v.v.v.v.B.G.G.B.Z.B.B.M.m ` S.Z.Z.D.S.S.G.S.S.B.G.G.G.v.v.v.v.v.v.v.v.v.v.v.m.v.v.v.v.v.v.M.v.v.z.z.c.[ ' A Z c.M.z.M.M.c.' ' ( ( ` ' G G ` ` d i F.J.B.c.A.v.c.c.[ [ [ } k.k.k.k.k.k.' ' ' [ ' ' ' ' J - O < u p V V D C A A ( p A.D.l.l.G G ' l.l.l.[ [ M M ` G [ v + : #X6X1X1X6X3X%., d.].2.>.3.1.6.6.6.7.7.7.6.6.6.2.1.,.! + 5 +.W Q W @., . h.mXNXVXNXBXAXHXPXPXPXKXKXPXPXPXPXPXPXPXPXPXPXPXPXPXPXPXPXPXPXPXPXPXPXPXPXPXPXPXPXPXPXPXPXPXPXPXPXPXPXPXPXPXPXPXPXPXPXPXPXPXPXPXPXPX",
"PXPXPXPXPXPXPXPXPXPXPXPXPXPXPXPXPXPXPXPXPXPXPXPXPXPXPXPXPXPXPXPXPXPXPXPXPXPXPXPXPXPXPXPXPXPXPXPXPXPXPXPXPXPXPXPXPXPXPXPXPXJXdXX K 4XiXuXzX0.@ 0.i.8.8.7.6.#.L ,.6.7.7.q.q.8.7.6.3.3.#.: * Y ^ Q Q ~ *   < H 6 + % O.w w &.! w 0 0 0 8 , > h 4.oX=X=XXXXX~.~.~.~.~.~.U.U.P.P.P.=.< @ & 4 K H 0 0 0 8 X o < j k C A.) t 1 R Q ) <.oX=X=X=X=XXX~.~.~.U.P.;.S b Q 0 - 1 k N Z k.M.N.B.z.z.z.c.' m A.H.H.K.J.H.L.J.J.J.L.L.L.K.K.J.G.G.K.H.H.[ k n.G.H.G.H.H.H.H.H.H.H.H.H.J.H.G.G.G.H.G.G.Z.B.S.v.v.S.S.S.S.S.S.S.S.S.S.v.v.B.B.G.N.B.B.B.B.M.m ` A.Z.Z.S.S.S.S.G.S.G.G.G.G.v.v.v.v.v.v.v.v.v.v.m.S.m.v.v.v.v.v.v.v.v.z.z.c.c.' F A c.v.v.M.v.c.' ' ( ' ' ' ' G ( ` B u } J.B.l.v.v.c.c.[ [ [ } x.k.k.k.k.k.k.' ' [ ' ' ' ' J - O < s p C S D A A ( ( d ` D.c.l.k.G ' l.l.' [ [ M m ` G [ v + : #X6X1X1X6X3X%., d.[.2.>.,.1.6.6.6.7.7.6.6.6.3.3.,.,.! + 5 +.Q Q W @., . h.mXNXVXNXBXAXHXPXPXPXKXPXPXPXPXPXPXPXPXPXPXPXPXPXPXPXPXPXPXPXPXPXPXPXPXPXPXPXPXPXPXPXPXPXPXPXPXPXPXPXPXPXPXPXPXPXPXPXPXPXPXPXPXPXPX",
"PXPXPXPXPXPXPXPXPXPXPXPXPXPXPXPXPXPXPXPXPXPXPXPXPXPXPXPXPXPXPXPXPXPXPXPXPXPXPXPXPXPXPXPXPXPXPXPXPXPXPXPXPXPXPXPXPXPXPXPXPXJXsXX H 4XiXuXzX0.@ 0.f.8.8.7.6.*.U #.1.6.7.q.q.7.7.6.3.3.$., * Y +.Q Q ~ *   < l 6 o % O.q w 5.&.Y w 0 0 9 8 , - > l 4.}.oXoXXXXXXX.X.X}.}.`.4.=.h - @ * 8 q K H 0 0 0 0   o < j c C A.A.) y > h =.>.;.;.;.-.P.P.N.;.;.S S ) =.E 6 > 1 j B Z G l.N.Z.B.z.z.z.c.` M D.H.K.K.H.H.J.J.J.L.L.L.L.H.H.G.H.G.G.G.H.} k } G.H.H.H.H.H.H.H.H.H.H.H.J.J.G.G.G.G.G.H.Z.B.S.v.v.m.S.S.S.S.S.S.S.S.S.v.v.v.z.S.G.Z.Z.Z.V.M.M ` S.Z.N.S.G.G.G.G.G.G.V.G.G.b.v.v.v.v.v.v.v.v.v.v.v.v.v.v.v.v.M.v.v.v.v.z.c.c.[ F A l.c.v.v.z.c.' ( G ( ' ' ' ' ( ` ( u V P.N.l.v.v.c.c.l.[ [ [ k.k.k.k.k.k.k.[ [ [ ' ' ' ' J - O < s p C S C C A ( _ B k D.c.l.l.' ' l.l.' [ { V B F j.[ v + : #X6X1XwX6X3X%., i.[.2.>.3.1.6.6.6.7.7.7.6.6.3.3.,.,.Y + 5 +.Q Q W @., . h.mXNXNXBXBXAXHXPXPXPXKXPXPXPXPXPXPXPXPXPXPXPXPXPXPXPXPXPXPXPXPXPXPXPXPXPXPXPXPXPXPXPXPXPXPXPXPXPXPXPXPXPXPXPXPXPXPXPXPXPXPXPXPXPXPX",
"PXPXPXPXPXPXPXPXPXPXPXPXPXPXPXPXPXPXPXPXPXPXPXPXPXPXPXPXPXPXPXPXPXPXPXPXPXPXPXPXPXPXPXPXPXPXPXPXPXPXPXPXPXPXPXPXPXPXPXPXPXJXsX. H 4XiXuXzX8.@ 9.f.8.8.8.7.,.L +.1.7.7.7.7.7.7.6.3.3.$., & Y ^ Q Q ~ *   < l 6 o % r q w 5.5.&.O.w 9 q 9 0 8 : - - 6 L =.4.`.`.`.e.2.=.L 0 : @ & 4 8 0 0 H K 0 0 0 8   o < g z C A.A.A.) 1 ; 1 v ) =.4.2.=.E S ) =.:...R 0 ; ; y k N N A k.B.Z.Z.B.B.z.z.c.F V D.H.H.K.J.L.J.J.L.L.L.L.L.H.H.G.H.Z.Z.G.H.;.k } G.H.Z.G.G.H.H.H.H.J.H.H.J.J.H.G.G.H.G.Z.Z.S.S.v.v.m.S.S.S.S.S.S.v.v.S.v.v.v.v.B.N.Z.Z.Z.G.M.M ( S.Z.N.G.G.G.G.G.G.G.b.G.G.v.v.v.v.v.v.v.v.v.v.v.v.v.v.v.v.v.M.B.v.v.v.v.c.c.l.' A ' M.v.v.c.c.[ G G G ' ' ' ' ( ( ` i z F.H.l.v.v.c.c.c.[ [ [ k.k.k.[ [ k.k.k.[ [ ' [ ' ' J - O < u p C S C A A ( _ / p A.M.c.c.' [ } l.[ [ { V B F G [ v + : #X6X1XwX6X3X$., d.].2.>.3.1.1.6.6.7.7.7.6.6.3.3.,.,.Y + 5 +.Q Q W @.4 . h.BXNXNXBXBXAXHXPXPXKXKXKXPXPXPXPXPXPXPXPXPXPXPXPXPXPXPXPXPXPXPXPXPXPXPXPXPXPXPXPXPXPXPXPXPXPXPXPXPXPXPXPXPXPXPXPXPXPXPXPXPXPXPXPXPX",
"PXPXPXPXPXPXPXPXPXPXPXPXPXPXPXPXPXPXPXPXPXPXPXPXPXPXPXPXPXPXPXPXPXPXPXPXPXPXPXPXPXPXPXPXPXPXPXPXPXPXPXPXPXPXPXPXPXPXPXPXPXJXsX. 0 1XiXuXzX0.@ 9.f.8.8.8.7.6.P W ,.7.7.3.7.7.7.6.3.3.#., @ Y ^ Q Q ! *   5 H 6 + % r q w &.5.&.&.@.w 0 q q q 0 8 > * & & : > > < > : & @ & * 7 8 q w 0 h h w 0 h 0 8 X o < h z C A.D.F.A._ j 1 ; > 6 0 9 L Q Q L h 6 > - - 1 j c N Z A [ M.Z.V.Z.B.V.B.N.c.A C F.H.G.K.J.L.L.L.J.L.L.L.L.H.H.G.H.G.H.Z.H.M.c { G.H.Z.G.G.H.H.H.H.J.H.H.J.J.J.J.H.H.G.Z.N.B.S.v.v.m.S.S.S.S.S.v.v.v.B.v.v.v.z.B.G.Z.Z.Z.B.} M C S.G.Z.G.G.G.S.G.G.G.G.G.v.v.v.v.v.v.v.m.v.v.v.v.v.n.n.v.v.v.v.v.v.v.v.z.v.c.l.' A G M.M.B.c.B.l.' ' G ( ` F A ( ( ` x p M.U.z.z.v.c.c.c.[ [ [ [ k.[ ' [ k.k.k.[ [ ' ' ' ' ) - O 1 u p C S C C A ( ( _ k ` D.z.c.' [ [ l.k.[ { V B F G ' l + * #X6X1XwX6X3X%., d.].2.>.6.,.,.,.6.7.7.7.6.6.3.3.,.,.Y + , +.Q Q W @.4 . h.BXNXNXBXBXAXHXPXPXKXKXKXPXPXPXPXPXPXPXPXPXPXPXPXPXPXPXPXPXPXPXPXPXPXPXPXPXPXPXPXPXPXPXPXPXPXPXPXPXPXPXPXPXPXPXPXPXPXPXPXPXPXPXPXPX",
"PXPXPXPXPXPXPXPXPXPXPXPXPXPXPXPXPXPXPXPXPXPXPXPXPXPXPXPXPXPXPXPXPXPXPXPXPXPXPXPXPXPXPXPXPXPXPXPXPXPXPXPXPXPXPXPXPXPXPXPXKXFXsXX 0 <XiXuXzX8.@ 0.d.7.8.8.7.1...K $.7.7.7.q.7.7.7.3.1.%., @ I +.Q W ~ * o 6 l 6   & O.q w &.5.&.&.&.+.Y q 9 9 9 0 0 8 , * * * * * * = 4 4 8 8 q 0 0 q 0 0 w H w 0 0 8   o < i k D B.D.H.S.M.] z u 1 1 ; ; - > > - > - ; s j M N N N Z ' v.G.G.N.V.V.V.B.B.l.C ` D.H.G.H.H.L.L.L.L.J.J.J.L.H.H.G.H.G.G.Z.Z.M.m ` D.H.G.G.G.H.H.G.H.H.G.G.J.H.H.H.J.H.G.G.G.S.S.M.M.B.S.B.B.B.B.S.S.S.M.v.v.c.c.B.N.B.G.Z.N.M.V C D.D.N.G.G.G.b.b.b.G.G.G.G.v.v.v.v.v.v.v.z.x.v.v.v.v.m.m.v.v.z.c.l.v.z.z.z.c.l.l.G G v.A.M.N.B.c.' ' ' F G ' A G A ' / u ] U.z.z.c.c.c.c.c.[ k.k.' [ [ [ x.x.k.' ' [ ' ' ' ) - O 1 u p C C C C C C A C M m F.A.v.' [ [ [ [ [ [ M m F j.[ l + & #X6X1XwX6X3X#.> s.[.>.,.1.1.,.3.6.7.7.7.3.6.3.>.,.,.! + , +.Q Q W ~ , . h.mXNXNXBXNXAXHXKXKXPXPXPXPXPXPXPXPXPXPXPXPXPXPXPXPXPXPXPXPXPXPXPXPXPXPXPXPXPXPXPXPXPXPXPXPXPXPXPXPXPXPXPXPXPXPXPXPXPXPXPXPXPXPXPXPX",
"PXPXPXPXPXPXPXPXPXPXPXPXPXPXPXPXPXPXPXPXPXPXPXPXPXPXPXPXPXPXPXPXPXPXPXPXPXPXPXPXPXPXPXPXPXPXPXPXPXPXPXPXPXPXPXPXPXPXPXPXKXFXsX# 0 ,XiXuXzX8.# 5.d.7.8.7.7.1.#.K #.6.7.q.q.7.7.3.2.1.%., @ I +.Q Q ~ * o 6 l 5   + Y w w &.&.&.&.&.&.@.O.Y 0 0 0 0 0 0 0 9 8 8 8 8 8 8 8 0 0 0 0 0 0 w w w w w h 0 8   o < i k D B.D.H.H.S.S.A.( B k j s s a a a a h j b V M N N A G B.Z.V.Z.B.B.B.B.B.l.} M ] F.H.H.H.H.J.L.L.L.L.J.K.J.H.H.G.G.G.G.G.H.B.m D D.G.G.H.G.G.G.G.G.H.H.H.H.H.H.H.H.H.G.Z.Z.S.S.M.M.B.S.B.B.B.M.M.M.M.v.v.z.c.B.M.N.B.Z.V.B.M.V C D.D.Z.G.G.B.V.B.B.G.G.G.G.v.z.z.v.v.v.v.v.l.v.v.v.v.v.v.m.v.z.c.l.c.z.z.z.c.l.l.A A c.A.N.N.B.c.[ ' ' F F G ' ' ' ' _ u V U.B.c.c.c.c.c.c.[ [ k.k.k.k.' x.x.x.' [ ' ' ' ' J - - 1 s p C C C D C C A A C p A.A.A.[ ' [ [ l.[ [ M m ` k.[ v + * #X1X1XwX6X3X$.> s.[.>.>.,.,.,.3.6.7.7.7.3.6.3.2.1.1.! + , +.Q Q W ~ , . h.BXNXNXBXNXAXHXKXKXKXPXPXPXPXPXPXPXPXPXPXPXPXPXPXPXPXPXPXPXPXPXPXPXPXPXPXPXPXPXPXPXPXPXPXPXPXPXPXPXPXPXPXPXPXPXPXPXPXPXPXPXPXPXPXPX",
"PXPXPXPXPXPXPXPXPXPXPXPXPXPXPXPXPXPXPXPXPXPXPXPXPXPXPXPXPXPXPXPXPXPXPXPXPXPXPXPXPXPXPXPXPXPXPXPXPXPXPXPXPXPXPXPXPXPXPXPXKXFXsX# 0 ,XiXuXzX8.$ 5.d.7.7.7.7.6.1.L +.6.6.7.q.7.3.7.3.1.*., @ U +.Q Q ! * o 6 l 6   + r w r &.&.&.&.&.&.%.%.%.+.Y I w 0 9 9 9 9 9 9 9 9 0 q q w r r r w 0 q w w w K 0 8   o < j k D B.H.H.G.G.G.J.G.S.[ F V z z z b b V V M M V N F [ N.Z.Z.Z.Z.N.V.B.B.B.B.c.M { J.H.H.H.H.J.L.L.L.L.L.K.J.H.H.G.G.Z.G.H.H.D.N N D.G.G.H.G.G.G.G.H.G.H.H.H.H.H.H.H.H.G.H.Z.S.S.B.M.B.S.B.S.B.M.M.M.M.M.M.M.v.B.M.Z.B.V.V.B.M.M C A.D.Z.G.B.B.B.B.B.V.V.B.B.v.v.z.z.B.B.v.v.l.v.v.v.v.v.v.v.v.z.c.l.c.z.z.z.c.l.l.' A c.A.B.N.B.c.k.' ' F F G ' G G ' ` k p A.G.c.l.c.c.c.c.[ [ k.k.k.k.' x.x.x.k.k.' ' ' ' J - O 1 u p C C C C C C A A / p ] D.A.c.' [ [ [ [ [ M m ` k.[ v + : #X1X1XwX6X3X$.> s.[.>.>.,.,.,.3.6.7.7.7.3.6.6.3.1.1.! + , +.Q Q W ~ , . h.BXNXNXBXNXAXHXKXKXPXPXPXPXPXPXPXPXPXPXPXPXPXPXPXPXPXPXPXPXPXPXPXPXPXPXPXPXPXPXPXPXPXPXPXPXPXPXPXPXPXPXPXPXPXPXPXPXPXPXPXPXPXPXPXPX",
"PXPXPXPXPXPXPXPXPXPXPXPXPXPXPXPXPXPXPXPXPXPXPXPXPXPXPXPXPXPXPXPXPXPXPXPXPXPXPXPXPXPXPXPXPXPXPXPXPXPXPXPXPXPXPXPXPXPXPXPXKXGXsX% h ,XiXuXzX8.$ 0.f.7.7.8.7.7.1.U T ,.7.q.q.3.3.7.3.3.%., @ I +.Q Q ! * o 6 l 6   + r w w &.&.&.&.&.&.%.%.%.%.%.O.+.O.Y Y Y r r r r Y Y O.O.@.O.O.O.O.w q w 0 K K 0 8   o < g k D B.H.H.H.H.H.H.G.H.H.Z.;.F D N M M V N N N A ' c.B.N.Z.V.Z.Z.V.V.V.V.B.B.[ m } F.H.H.H.H.J.L.L.L.J.H.J.K.H.H.G.G.G.G.G.H.D.C M M.G.H.H.H.G.H.H.H.G.H.H.H.H.H.H.H.H.H.G.Z.N.S.z.B.B.S.B.B.B.B.M.M.z.M.B.B.M.B.B.N.Z.Z.B.B.M.M C M.S.Z.G.B.G.B.B.B.B.B.B.B.v.z.z.z.B.B.v.z.l.z.c.z.z.v.v.v.z.z.v.c.z.z.z.z.l.l.l.' A c.v.B.N.c.z.c.' ' F F ' G G ' ( ` V u } J.M.c.M.c.c.c.[ [ [ [ ' ' ' x.x.x.k.' ' ' ' ' J - O 1 u p V C C C C C A A C k V A.A.v.[ [ [ [ [ [ M c F k.[ v + : #X6X1XwX1X3X$., d.f.>.>.,.,.,.3.3.3.3.3.3.6.3.1.1.1.! + , +.Q Q W @., . h.BXNXNXBXBXAXHXKXHXPXPXPXPXPXPXPXPXPXPXPXPXPXPXPXPXPXPXPXPXPXPXPXPXPXPXPXPXPXPXPXPXPXPXPXPXPXPXPXPXPXPXPXPXPXPXPXPXPXPXPXPXPXPXPXPX",
"PXPXPXPXPXPXPXPXPXPXPXPXPXPXPXPXPXPXPXPXPXPXPXPXPXPXPXPXPXPXPXPXPXPXPXPXPXPXPXPXPXPXPXPXPXPXPXPXPXPXPXPXPXPXPXPXPXPXPXPXKXJXsXX H ,XiXuXzX8.@ 0.f.7.8.8.7.7.6...K ,.3.q.3.3.3.7.3.3.%., @ I ^ Q Q Y * o 6 l 5 o + r q w &.&.&.&.&.&.@.&.&.&.&.&.&.&.&.&.&.&.&.&.O.&.&.&.&.&.&.&.@.&.@.r w q K h h 8   o < g z D D.H.G.H.H.H.H.H.H.H.Z.Z.N.B.M.c.l.[ k.k.l.v.M.S.S.Z.Z.Z.Z.Z.Z.V.V.V.B.B.[ m M.D.H.H.H.H.J.H.J.J.H.H.H.K.H.H.G.G.H.G.Z.H.D.F m M.H.H.H.H.H.S.S.H.S.S.H.H.H.H.H.H.H.H.Z.N.N.S.z.z.B.B.B.B.B.B.B.B.z.z.B.M.M.z.B.N.Z.Z.V.B.M.V C M.S.Z.G.Z.G.G.B.B.B.B.B.B.B.z.z.z.B.v.v.c.l.z.z.z.z.z.v.v.z.v.z.v.z.z.z.z.l.l.l.k.A k.A.B.l.c.c.c.' ' F F F A ' ' ' ' _ u ` U.S.c.M.M.c.c.[ [ [ [ ' ' ' x.x.x.[ ' ' G ' ' J - O 1 u p C C C C C C A A C m m A.D.M.l.' [ [ [ [ M c F G ' v + : #X1X1XwX1X3X#.> s.f.2.>.>.3.,.,.3.3.3.3.3.6.,.,.3.1.! + , +.Q Q W @., . h.BXNXNXBXBXCXHXKXPXPXPXPXPXPXPXPXPXPXPXPXPXPXPXPXPXPXPXPXPXPXPXPXPXPXPXPXPXPXPXPXPXPXPXPXPXPXPXPXPXPXPXPXPXPXPXPXPXPXPXPXPXPXPXPXPX",
"PXPXPXPXPXPXPXPXPXPXPXPXPXPXPXPXPXPXPXPXPXPXPXPXPXPXPXPXPXPXPXPXPXPXPXPXPXPXPXPXPXPXPXPXPXPXPXPXPXPXPXPXPXPXPXPXPXPXPXPXKXGXsXX H ,XiXuXzX8.$ 0.f.8.7.8.7.1.6.$.0 $.6.3.3.3.3.7.3.1.%.4 @ Y ^ Q Q Y * o 6 l 5 o + r q w O.&.&.&.&.%.&.&.&.&.&.&.5.&.&.&.&.&.&.&.&.&.&.&.&.&.&.O.@.&.&.@.w q w h K 8 X o > g j D D.H.G.H.H.H.H.H.H.H.G.Z.Z.G.Z.G.G.G.G.G.G.G.G.G.H.G.G.G.G.G.G.V.V.V.B.B.` M A.D.H.H.H.H.J.H.H.H.H.H.H.H.H.H.G.G.G.H.Z.H.D.` n M.H.H.G.H.H.S.S.D.S.S.S.H.S.D.H.D.D.Z.N.N.N.N.B.z.B.B.B.M.z.B.B.B.z.z.B.z.M.c.B.N.Z.Z.B.B.M.V V M.N.N.G.N.N.N.B.B.B.B.B.B.M.B.z.z.z.z.B.l.l.z.z.z.z.z.c.c.z.z.z.z.z.z.l.z.l.l.l.l.A [ v.B.N.z.c.c.x.( F F F A G ' ' G _ i k /.D.l.M.M.c.c.c.[ [ x.[ [ [ x.x.x.[ ' ' G ' ' J - O 1 u p C C C C C C A C C M k { D.A.c.' [ [ [ [ M c F G ' v + : #X6X1X1X1X3X#., i.f.2.>.3.3.3.3.3.3.3.3.3.6.,.,.3.1.! + , +.Q Q W ~ , . h.mXNXNXBXNXCXHXKXPXPXPXPXPXPXPXPXPXPXPXPXPXPXPXPXPXPXPXPXPXPXPXPXPXPXPXPXPXPXPXPXPXPXPXPXPXPXPXPXPXPXPXPXPXPXPXPXPXPXPXPXPXPXPXPXPX",
"PXPXPXPXPXPXPXPXPXPXPXPXPXPXPXPXPXPXPXPXPXPXPXPXPXPXPXPXPXPXPXPXPXPXPXPXPXPXPXPXPXPXPXPXPXPXPXPXPXPXPXPXPXPXPXPXPXPXPXPXKXGXsXX w ,XiXuXzX8.$ 0.f.7.7.7.7.6.6.*.h #.3.7.3.3.3.7.3.1.%.4 @ Y ^ Q Q Y * o 6 l 6   + r q w &.5.&.&.&.%.&.&.&.5.5.5.5.5.5.&.&.&.&.&.&.&.&.&.&.&.&.O.O.&.&.@.Y 9 0 0 K 8 X o > g j D D.H.H.H.G.H.H.J.J.J.J.G.G.G.G.G.G.H.G.G.G.G.G.G.G.G.G.G.G.G.G.G.Z.V.B.c.F C D.D.H.H.G.H.J.H.H.H.H.H.H.H.H.H.H.H.G.H.H.H.D.] m M.H.G.G.H.H.H.D.H.G.S.S.N.N.S.D.D.D.Z.N.N.N.N.B.M.z.M.B.M.c.z.B.B.z.z.z.z.c.c.c.N.Z.Z.B.B.M.V V M.N.N.N.N.N.B.z.B.M.M.z.z.M.B.z.c.c.z.B.l.l.c.c.l.l.c.c.c.z.z.z.z.z.z.l.l.l.l.l.l.' ' c.B.B.l.c.c.c.G F G F G ' ' ' G ` j i P.D.c.c.c.} c.c.l.[ x.x.' [ x.x.x.[ ' ' ' ' ' J - O 1 s p C D C C C C A C A V p ` A.M.c.' [ [ [ [ M c ` j.' J @ : #X6X1X1X1X3X#., i.f.2.>.3.3.,.,.3.3.3.3.3.6.,.,.3.1.! + , +.Q Q W ~ 4 . h.mXNXNXBXNXAXHXKXPXPXPXPXPXPXPXPXPXPXPXPXPXPXPXPXPXPXPXPXPXPXPXPXPXPXPXPXPXPXPXPXPXPXPXPXPXPXPXPXPXPXPXPXPXPXPXPXPXPXPXPXPXPXPXPXPX",
"PXPXPXPXPXPXPXPXPXPXPXPXPXPXPXPXPXPXPXPXPXPXPXPXPXPXPXPXPXPXPXPXPXPXPXPXPXPXPXPXPXPXPXPXPXPXPXPXPXPXPXPXPXPXPXPXPXPXPXPXKXFXsX% w <XxXxXzX8.@ 9.d.8.7.7.7.6.8.1.K P ,.6.3.3.3.6.2.2.%.4 & U ^ Q Q ~ * o 6 h 5   + Y q q &.&.&.&.&.&.&.&.&.&.&.&.&.&.&.&.&.&.&.&.5.&.&.&.&.&.&.&.@.&.@.@.@.w q 9 w 8 . o < g k F D.H.H.H.H.H.H.H.H.G.G.S.H.H.G.H.G.G.G.C.Z.Z.Z.Z.Z.C.V.V.G.G.G.G.V.V.v.v.A ( F.F.F.D.F.D.D.H.H.J.H.H.H.H.H.H.H.H.H.J.H.G.D.[ n M.S.S.S.H.H.H.S.H.H.H.S.S.S.S.S.S.G.G.S.S.S.S.D.A.A.A.A.A.A.A.A.A.A.A.A.v.c.M.M.S.G.G.G.G.v.C C A.S.G.S.S.A.A.A.A.A.A.A.A.M.M.M.v.M.M.M.c.c.c.c.c.c.c.c.v.v.c.l.c.l.l.l.l.l.l.l.l.' F c.N.N.N.z.l.c.[ G ' G G ' ' ' ' ' B u <.P.z.c.c.l.c.c.c.k.[ [ [ l.l.l.k.k.k.' ' ' ' J - O 1 s p C C C C C C A C A C m C A.D.c.[ [ [ ' [ V z ` ' ' v @ : #X1X1X1X1X>X#., d.f.2.,.3.1.,.3.3.3.3.3.3.6.,.>.3.1.! X 4 +.W W W T , X h.mXBXNXNXNXAXKXKXPXPXPXPXPXPXPXPXPXPXPXPXPXPXPXPXPXPXPXPXPXPXPXPXPXPXPXPXPXPXPXPXPXPXPXPXPXPXPXPXPXPXPXPXPXPXPXPXPXPXPXPXPXPXPXPXPX",
"PXPXPXPXPXPXPXPXPXPXPXPXPXPXPXPXPXPXPXPXPXPXPXPXPXPXPXPXPXPXPXPXPXPXPXPXPXPXPXPXPXPXPXPXPXPXPXPXPXPXPXPXPXPXPXPXPXPXPXPXKXFXsXX w <XxXxXzX8.$ 0.d.8.7.8.7.6.6.8.P K ,.6.3.3.3.6.3.2.*.4 & U ^ Q W ! * o 6 h 5   + Y q q &.&.&.&.&.&.&.&.&.&.&.&.&.&.&.&.&.&.&.&.&.&.&.&.&.&.&.&.@.&.@.@.@.Y 0 9 0 8 . o < g z ` D.H.H.H.H.H.H.H.H.G.G.H.H.H.G.Z.G.H.H.H.Z.Z.V.V.C.V.N.N.N.N.N.N.N.N.M.[ N F N.N.H.H.Z.Z.Z.N.N.N.N.N.N.N.Z.Z.Z.Z.Z.H.Z.D.A.] k ;.A.D.N.D.N.N.N.N.N.N.N.N.N.N.N.N.N.N.N.N.M.M.N.B.B.B.z.l.l.l.c.l.l.c.z.z.l.l.l.B.V.V.V.N.;.M M ;.M.N.B.B.B.B.B.N.N.N.N.N.N.N.l.l.l.l.l.l.l.l.l.l.l.l.l.l.l.l.l.l.l.l.l.l.l.l.l.l.k.G l.B.l.B.z.l.c.[ A G ' G ' ' ' ' ' ` u V P.B.l.c.c.c.c.c.k.[ k.[ l.l.l.k.k.k.' ' ' ' J - O 1 s p C C C V V C C C A C m m A.A.c.[ [ [ ' [ V c ` ' ' v @ * #X1X1X1X1X>X#., d.f.2.,.,.1.,.3.3.3.3.3.3.6.3.>.3.,.! + 4 +.W W W T , X h.mXBXBXBXNXAXKXKXPXPXPXPXPXPXPXPXPXPXPXPXPXPXPXPXPXPXPXPXPXPXPXPXPXPXPXPXPXPXPXPXPXPXPXPXPXPXPXPXPXPXPXPXPXPXPXPXPXPXPXPXPXPXPXPXPX",
"PXPXPXPXPXPXPXPXPXPXPXPXPXPXPXPXPXPXPXPXPXPXPXPXPXPXPXPXPXPXPXPXPXPXPXPXPXPXPXPXPXPXPXPXPXPXPXPXPXPXPXPXPXPXPXPXPXPXPXPXKXFXsXX 0 <XxXxXzX8.$ 0.d.7.8.8.7.6.6.8.+.h ,.6.3.3.3.6.3.2.%.4 & U +.Q W ! * o 6 l 6 X + Y q q &.&.&.&.&.&.&.&.5.&.&.&.&.&.&.&.&.&.&.&.&.&.&.&.&.&.5.&.&.&.O.@.@.O.9 9 0 8 . o < g b ` H.H.H.H.H.H.H.H.G.G.G.H.H.S.H.Z.G.Z.H.H.D.S.G.G.G.N.N.N.Z.H.Z.N.N.B.M.[ N } F.M.A.A.D.D.D.D.D.D.D.D.D.D.D.D.N.M.N.D.D.A.F.{ k { A.A.M.M.M.M.M.D.M.M.D.M.M.M.M.M.M.M.M.;.M.M.M.;.[ } } } [ [ [ [ [ [ [ } [ [ [ M.D.B.M.M.} M z ;.M.M.M.M.;.;.;.;.;.;.;.;.[ [ [ [ [ [ [ [ [ [ ] ] ] ] [ [ ] ] [ [ [ [ [ ] { { { { ] ] ] } M.M.B.z.c.c.' G ' G ' ' G ' ' ` i i F.S.c.c.c.v.c.c.c.l.k.[ k.k.k.k.k.k.' ' ' ' J - O 1 s p C C C V V C A A A C M p } M.M.[ [ [ [ [ V c ` ' ' v + * #X1X1XwX6X>X#., d.f.>.,.6.2.,.3.3.3.3.3.6.6.3.3.3.,.! + 4 +.W Q W @., . h.mXBXNXBXNXAXKXKXPXPXPXPXPXPXPXPXPXPXPXPXPXPXPXPXPXPXPXPXPXPXPXPXPXPXPXPXPXPXPXPXPXPXPXPXPXPXPXPXPXPXPXPXPXPXPXPXPXPXPXPXPXPXPXPXPX",
"PXPXPXPXPXPXPXPXPXPXPXPXPXPXPXPXPXPXPXPXPXPXPXPXPXPXPXPXPXPXPXPXPXPXPXPXPXPXPXPXPXPXPXPXPXPXPXPXPXPXPXPXPXPXPXPXPXPXPXPXKXFXsXX 0 <XxXxXcX8.$ 9.d.8.8.8.7.7.8.6.*.9 $.1.3.3.3.6.2.2.%.4 & T +.W Q Y * o 6 l 6 X + Y 0 q O.&.&.&.&.&.&.&.&.&.&.O.&.&.&.&.&.&.&.&.&.&.&.&.&.&.&.O.&.&.@.@.@.@.0 9 0 8 . o < g b ` H.G.H.H.H.H.H.H.G.G.H.G.D.Z.Z.Z.Z.C.H.H.F.| ) ) | ) ) ) ) ) ) ) ) ) ) J g ) Q E E E R E E J J J J J J J R R R R R R R J E J a J E J E E J J J J J J J J J J J J J J J J J J H H H H h H H h H H H h h h h h l J R R R J J a a J J J J H H H H l h h h h h h h h h h h h h h h h h h h h h h h h h h h h h h h h a 6 1 x <.M.c.z.c.v.' F F F G ' G G ' ] c u A.D.c.l.c.c.c.c.c.[ k.[ k.k.k.k.' [ ' ' ' ' J - O 1 s p C C C C C C A A A C C p [ M.M.[ [ [ ' [ V c ` G ' v + * #X1X1XwX6X>X#., a.f.>.,.6.2.,.>.3.3.3.3.3.,.,.>.>.,.! + , +.Q W W +.4 . h.mXBXNXNXNXAXHXKXPXPXPXPXPXPXPXPXPXPXPXPXPXPXPXPXPXPXPXPXPXPXPXPXPXPXPXPXPXPXPXPXPXPXPXPXPXPXPXPXPXPXPXPXPXPXPXPXPXPXPXPXPXPXPXPXPX",
"PXPXPXPXPXPXPXPXPXPXPXPXPXPXPXPXPXPXPXPXPXPXPXPXPXPXPXPXPXPXPXPXPXPXPXPXPXPXPXPXPXPXPXPXPXPXPXPXPXPXPXPXPXPXPXPXPXPXPXPXKXGXsXX 0 <XxXxXcX0.$ 9.f.8.8.6.7.7.8.6.1.h #.1.3.3.6.6.3.3.%.4 & T +.W W Y * o 6 l 8 X & Y 0 q &.&.&.&.O.&.&.&.&.5.&.&.&.&.&.&.&.&.&.&.&.&.&.&.&.&.&.O.&.&.&.@.&.O.q 9 w 8 X o < g b ` D.H.H.H.H.H.H.H.H.G.G.H.H.H.Z.Z.Z.C.C.F.) > O + + + + +   o o o X X X X X X   o o o                                                                                                                                                                                                                                   - l <.M.l.z.v.[ ' F F ' ' ' ' ' ' V u { F.c.l.c.v.c.v.c.[ k.[ k.k.k.k.' [ ' ' ' ' J - O < s p C C C C C C A C C _ _ p _ M.M.[ [ [ ' [ M c ` G ' v + * #X1X1XwX6X3X#., i.f.>.,.3.2.,.>.3.3.3.3.3.,.,.>.>.,.! + , +.Q W W +.4 . h.mXBXNXNXNXAXHXKXPXPXPXPXPXPXPXPXPXPXPXPXPXPXPXPXPXPXPXPXPXPXPXPXPXPXPXPXPXPXPXPXPXPXPXPXPXPXPXPXPXPXPXPXPXPXPXPXPXPXPXPXPXPXPXPXPX",
"PXPXPXPXPXPXPXPXPXPXPXPXPXPXPXPXPXPXPXPXPXPXPXPXPXPXPXPXPXPXPXPXPXPXPXPXPXPXPXPXPXPXPXPXPXPXPXPXPXPXPXPXPXPXPXPXPXPXPXPXKXGXsXX 0 <XxXxXcX0.$ 0.d.8.7.7.7.7.8.6.6.K +.6.3.3.3.6.3.3.%.4 & T @.W W Y =   < l 8 X & Y q q &.&.&.&.&.&.&.&.&.&.&.&.&.&.&.&.&.&.&.&.&.&.&.&.&.&.&.&.&.&.O.@.&.O.q 9 w 8 X o 6 g b ] D.H.H.H.H.H.H.H.H.G.H.H.H.H.Z.Z.Z.Z.D.4.>     * * X X X + + + X + + + & * = , 5 , , 5 5 , 4 4 8 8 8 8 8 8 8 8 8 0 0 0 8 8 0 0 q 0 0 e e 8 e e 0 8 8 8 8 8 8 8 0 q e 8 0 0 0 0 0 0 0 q q q q q q q q q q q q q q 0 0 0 8 8 8 8 8 8 e 0 0 0 0 0 0 0 0 0 0 0 0 0 0 q q q q w w q w w w w w w K K K I I I I I K q r r e %   > ) M.B.z.z.c.' F ` ' ' ' ' ' ' _ u B F.B.l.c.v.c.c.v.[ [ k.[ k.k.k.' [ [ ' ' ' J - O 1 j p C D C C C C C C C _ _ k M M.M.} [ [ ' [ V c ` G ` v + * #X1X1XwX1X3X#., d.f.2.,.,.1.>.,.3.3.3.3.3.,.,.>.>.,.! + 4 +.W W W +.4 X h.mXBXNXNXNXAXHXKXPXPXPXPXPXPXPXPXPXPXPXPXPXPXPXPXPXPXPXPXPXPXPXPXPXPXPXPXPXPXPXPXPXPXPXPXPXPXPXPXPXPXPXPXPXPXPXPXPXPXPXPXPXPXPXPXPX",
"PXPXPXPXPXPXPXPXPXPXPXPXPXPXPXPXPXPXPXPXPXPXPXPXPXPXPXPXPXPXPXPXPXPXPXPXPXPXPXPXPXPXPXPXPXPXPXPXPXPXPXPXPXPXPXPXPXPXPXPXKXGXsXX 0 <XxXxXcX8.* 9.d.7.6.7.8.8.8.7.6.U W 6.3.3.3.3.>.2.%.4 & T ~ W Q ! =   , h 0 X & O.q q O.&.&.&.&.&.&.&.&.&.&.&.&.&.&.&.&.&.&.&.&.5.5.5.&.&.&.&.&.&.&.O.&.O.9 9 w 8   o < j z [ D.H.H.H.H.H.H.H.H.H.H.H.Z.Z.Z.Z.Z.H.F.L +   % 5.:X#X#X#X#X#X X X X#X#X#X#X#X#X-X-X-X-X-X#X#X#X#X#X#X>X>X-X-X-X:X:X:X:X2X2X2X2X2X2X2X3X3X2X>X#X#X#X#X#X#X-X>X>X>X>X>X>X>X>X>X-X-X-X-X-X:X2X:X-X-X-X-X-X-X:X:X-X-X-X:X-X3X3X3X>X>X3X>X:X2X:X2X-X-X-X-X-X-X-X-X-X-X-X-X-X-X>X>X>X>X>X>X-X-X-X>X3X3X3X3X3X3X3X2X:X;Xg.e # % @ h ;.B.v.z.c.' A F F F ' G ' ' ` i d /.M.c.c.c.c.c.c.l.[ [ [ k.k.k.[ [ [ ' ' ' J - O 1 j p V D C C C C C C C D _ c c M.M.c.' [ ' [ V b ` G ' v + * #X1X1XwX1X>X#.> i.f.2.,.,.1.3.,.3.3.3.6.3.6.,.>.,.,.! # , #.W Q W +.4 X h.mXBXNXNXNXAXHXKXPXPXPXPXPXPXPXPXPXPXPXPXPXPXPXPXPXPXPXPXPXPXPXPXPXPXPXPXPXPXPXPXPXPXPXPXPXPXPXPXPXPXPXPXPXPXPXPXPXPXPXPXPXPXPXPXPX",
"PXPXPXPXPXPXPXPXPXPXPXPXPXPXPXPXPXPXPXPXPXPXPXPXPXPXPXPXPXPXPXPXPXPXPXPXPXPXPXPXPXPXPXPXPXPXPXPXPXPXPXPXPXPXPXPXPXPXPXPXKXFXsXX 0 4XxXiXcX8.@ 0.d.7.7.6.7.8.8.8.0.T U 6.6.6.7.,.>.3.&.4 * T ^ Q Q ! =   , h 0 + %  .q 0 &.&.&.&.&.&.&.&.5.&.&.&.5.&.&.&.&.&.5.5.&.&.&.5.&.&.&.O.&.&.&.&.&.Y 0 0 q 8   O 1 j V } H.H.H.H.D.H.J.J.H.H.H.D.D.Z.C.Z.G.F.| > . e 5.w ;XjXgX9X9XrX9X9X9X9XgXgXgXgXgXgXgXgX9X9X8X9X9X8X9X8X9X8X9X9X9X8X8X8X8XgX8X8X8X8XgXgX9X9X8X8X8X8X8X5X8X8X8X8X8X8X8X8X8X8X8X8X8X8X8X8X8X8X8X8X8X8X8X8X8X8X8X8X8X8X5X8X8X8X8X8X8XgXgX8X9X9X9X9X9X9X9X9X9X9X9X9X9X9X8X8X8X8X8X8X9X4X4X<X3X<X<X4X4X4X3X3X8X4X5X5X3X|.w = y.5.+ : J v.b.z.c.l.G ( ( ( ' F ' ' ] c u <.S.M.l.M.c.v.c.l.[ [ k.k.k.[ [ ' ' ' ' ` ) - o < i p V D C C C C A A C A ( V i <.c.;.` [ ' ] V c D G ' J + * #X1X1X1X1X>X#., d.f.2.>.:.1.,.3.3.3.3.3.3.,.,.,.,.,.! + , +.W E W +.4 . h.mXMXVXNXNXAXHXKXPXPXPXPXPXPXPXPXPXPXPXPXPXPXPXPXPXPXPXPXPXPXPXPXPXPXPXPXPXPXPXPXPXPXPXPXPXPXPXPXPXPXPXPXPXPXPXPXPXPXPXPXPXPXPXPXPX",
"PXPXPXPXPXPXPXPXPXPXPXPXPXPXPXPXPXPXPXPXPXPXPXPXPXPXPXPXPXPXPXPXPXPXPXPXPXPXPXPXPXPXPXPXPXPXPXPXPXPXPXPXPXPXPXPXPXPXPXPXKXFXsXX 0 4XxXxXcX8.@ 9.d.7.7.6.7.8.8.8.6.#.K ,.6.3.3.,.>.3.&.4 * T ^ Q Q ! =   , l 0 + %  .q 9 O.&.&.&.O.&.&.&.5.&.&.&.&.&.&.&.&.&.5.5.&.5.5.&.&.&.&.&.O.&.&.O.O.9 0 9 q 8   O 1 z V ;.H.H.H.H.D.H.H.H.H.G.H.D.Z.Z.C.Z.D.<.h + * ;XfXY w +X-X#X X X X X X X X X X X X X X X|.|.|.{.{.|.|.{.|.|.|.{.{.{.{.{.{.{.{.{.|.|.{.{.{.[.[.].].].].'.].].].].].p.s.].].p.s.[.f.[.[.].p.p.p.p.p.p.p.p.p.p.p.p.p.p.r.t.e.w.w.w.w.w.w.w.w.w.w.w.w.w.w.4.3.3.8.8.8.8.8.w.w.w.q.q.3.7.6.,.,.,.,.>.>.2.,.>.>.:.>.#.+.8 @ 0 ;XfXw @ < | A.z.z.z.k.G ( ' ` F ' ' ] M u ) D.M.l.c.c.v.c.c.l.' [ k.[ [ [ ' ' ' ' ' ) - o < i p V D C C C A C C C A ( V u <.c.M.[ [ [ ] V z D G ' J + * #X1X1X1X1X>X#., d.f.,.>.,.,.,.3.3.3.3.3.3.,.,.>.,.,.! + , +.Q Q W +.4 . h.mXMXVXNXNXAXHXKXPXPXPXPXPXPXPXPXPXPXPXPXPXPXPXPXPXPXPXPXPXPXPXPXPXPXPXPXPXPXPXPXPXPXPXPXPXPXPXPXPXPXPXPXPXPXPXPXPXPXPXPXPXPXPXPXPX",
"PXPXPXPXPXPXPXPXPXPXPXPXPXPXPXPXPXPXPXPXPXPXPXPXPXPXPXPXPXPXPXPXPXPXPXPXPXPXPXPXPXPXPXPXPXPXPXPXPXPXPXPXPXPXPXPXPXPXPXPXKXFXsXX q 4XxXxXcX8.@ 9.d.7.7.7.7.8.8.8.6.*.h ,.6.,.3.1.2.3.*.4 * T ^ Q Q ! =   , l h @ + e e q O.&.&.&.&.&.&.&.5.&.&.&.&.&.&.&.&.&.&.&.&.5.&.&.&.&.%.&.O.&.&.&.q 9 0 w 0 &   @ h c C M.H.H.H.H.D.H.H.H.H.G.H.H.Z.Z.Z.D.F.J @ + 6.jXjXf., 8 O.#.W Q Q Q P Q Q Q Q Q W W W W W W W P P P P P P P W W W U U U U L P P W P Q W P P W W W Q Q Q W Q W ....W W ..W Q Q Q Q ..W Q Q Q Q W Q Q Q Q Q Q W W W o.#.#.#.Q Q Q Q Q Q Q Q Q ..Q ......X.................W +.#.#.^ ^ #.^ ^ ^ ^ #...o.o.#.....Q ^ q * e 6.,.5X@X: @ a <.M.b.z.k.Z ' ` ` ` ' ' ` _ u b F.A.c.l.c.v.v.c.l.' [ [ [ [ [ ' ' ' ' ' ) - o < i p V ` C F C C C A C A ( / u { c.M.[ [ [ ] M z D G ] J + : #X1X,X1X6X>X+., d.d.,.>.,.,.,.3.3.3.3.>.>.3.,.>.,.,.! + , @.W Q W +.4 X h.mXMXVXNXNXAXHXKXPXPXPXPXPXPXPXPXPXPXPXPXPXPXPXPXPXPXPXPXPXPXPXPXPXPXPXPXPXPXPXPXPXPXPXPXPXPXPXPXPXPXPXPXPXPXPXPXPXPXPXPXPXPXPXPXPX",
"PXPXPXPXPXPXPXPXPXPXPXPXPXPXPXPXPXPXPXPXPXPXPXPXPXPXPXPXPXPXPXPXPXPXPXPXPXPXPXPXPXPXPXPXPXPXPXPXPXPXPXPXPXPXPXPXPXPXPXPXKXFXsX. w 4XxXiXzX8.@ 0.d.7.7.7.7.8.7.8.6.,.K *.6.6.3.1.2.3.*.3 * U W Q Q ! =   > l h > o + = 7 q &.&.&.&.&.&.&.&.&.O.&.&.&.&.&.&.&.&.*.5.5.*.&.&.*.*.&.&.&.&.Y 9 9 w 0 9 +   - g M D M.H.G.H.H.H.H.H.K.H.H.H.G.Z.Z.D.F.| > X @.gXzXgX-Xw X 4 5.6.*.*.$.$.$.$.$.$.$.#.#.#.#.#.#.$.#.#.#.#.#.#.#.^ ^ ^ ^ ^ ^ ^ ..o...#.#.#.#.#.#.$.$.:.,.:.,.,.,.,.,.,.,.,.,.,.,.,.,.,.1.1.1.,.,.,.>.>.>.>.>.3.3.,.,.,.,.,.6.6.,.,.3.3.,.3.>.3.3.3.3.3.7.3.3.3.3.7.7.7.6.6.7.7.q.q.q.7.3.7.7.q.q.7.q.7.7.7.7.7.q.6.O.* 4 0.r.l `.5X6.$ @ h <.B.z.l.Z A ` ` F F G ` _ i j F.D.c.l.c.v.c.c.c.[ k.' ' ' ' [ ' ' ' ` J - o < i p V ` D D C C C A C A ( _ u _ A.M.[ [ [ ] V z D G ] J + : #X1X1X1X1X>X+., d.f.,.,.,.,.,.1.,.3.,.,.,.,.3.>.,.,.! + , +.W Q W +.4 X h.mXMXMXMXNXAXKXKXKXPXPXPXPXPXPXPXPXPXPXPXPXPXPXPXPXPXPXPXPXPXPXPXPXPXPXPXPXPXPXPXPXPXPXPXPXPXPXPXPXPXPXPXPXPXPXPXPXPXPXPXPXPXPXPXPX",
"PXPXPXPXPXPXPXPXPXPXPXPXPXPXPXPXPXPXPXPXPXPXPXPXPXPXPXPXPXPXPXPXPXPXPXPXPXPXPXPXPXPXPXPXPXPXPXPXPXPXPXPXPXPXPXPXPXPXPXPXKXFXsXX w 4XxXuXzX8.@ 0.d.7.7.7.7.7.6.7.6.6.K #.6.6.6.1.2.3.&.3 * U T Q Q ! =   > l g 1 > o   X % 8 &.&.&.&.&.&.&.%.O.%.&.&.&.%.%.%.%.*.*.*.*.&.*.*.*.&.&.O.O.0 9 q r 9 ,   o 1 z M ` B.H.H.H.H.H.H.H.G.G.G.H.H.Z.H.D.<.6 o 8 :XgXrX>X8.&.8 + q 6.6.*.$.$.:.:.$.$.#.#.$.$.#.#.#.#.o.o.o.#.o.#.#.#.#.#.#.#.#.#.o.o.o.o.o.o.o.o.o.#.o.#.#.o.o.o.#.o.#.#.#.#.$.$.$.$.$.#.#.#.#.$.$.$.:.:.:.:.>.>.>.>.,.,.,.>.,.,.>.3.7.3.>.3.>.3.3.3.3.3.3.3.2.2.3.3.3.3.3.3.3.7.q.q.q.3.3.3.4.4.4.4.3.q.q.3.3.3.3.+., * +.8.r.v v 3X#X~ + O H } M.c.G G ` ( F G ' ' ` k s <.A.c.c.c.c.c.v.v.k.[ ' [ [ ' ' ' ' ' ` J - o < j p V ` D D C C C A F A ( _ u C A.M.[ [ [ ] V z D ' ' J + : #X1X1X1X1X>X#., d.s.,.>.,.,.,.1.1.,.,.,.,.,.,.>.,.*.! + , @.W Q W +.4 X h.mXMXMXMXNXAXKXKXPXPXPXPXPXPXPXPXPXPXPXPXPXPXPXPXPXPXPXPXPXPXPXPXPXPXPXPXPXPXPXPXPXPXPXPXPXPXPXPXPXPXPXPXPXPXPXPXPXPXPXPXPXPXPXPXPX",
"PXPXPXPXPXPXPXPXPXPXPXPXPXPXPXPXPXPXPXPXPXPXPXPXPXPXPXPXPXPXPXPXPXPXPXPXPXPXPXPXPXPXPXPXPXPXPXPXPXPXPXPXPXPXPXPXPXPXPXPXKXFXsXX w 4XxXuXzX8.& 0.d.7.7.7.7.7.7.8.6.6.K +.6.6.3.1.2.3.&.4 * U ~ Q Q Y =   > l y a 6 6 @   X = ! &.&.&.O.O.&.&.O.%.%.%.O.%.%.O.%.%.&.&.&.&.%.%.%.@.O.O.q 0 q q e 4 o   - x N C [ S.G.G.G.H.H.G.K.G.G.G.G.H.Z.D.F.h @ 4 d.jXrX1X`.,.+.Y , + w 6.*.:.#.:.#.#.#.#.o.o.o.o.o.o.o.#.#.#.#.#.#.#.o.o.o.o.o.o.o.o.o.o.......o.o.o.#.o.o.o.o.o.#.#.o.#.o.o.o.o.o.o.o.o.o.o.#.#.o.#.#.Q Q o.o.Q Q Q Q Q Q Q Q Q Q Q Q o.o.o.=.o.o.o.o.=.:.:.:.=.=.=.=.:.:.=.o.=.o.o.o.o.o.o.o.o.o.o.o.=.=.:.=.o.:.Q 8 @ L 3.3.q.r.h e.#X+XK + 2 J F.M.k.G ( ' G G k.k.` c u | F.v.c.l.c.c.c.v.c.' ' [ [ ' ' ' ' ' ' ) - o < d d V ` D ` C C C A F F ` _ i m A.M.[ [ ] ] V k D G [ J + : #X1X1X1X1X>X+., d.s.3.3.,.,.,.1.1.1.,.,.,.,.,.:.:.*.! + , +.Q Q W +.4 . h.mXMXMXMXNXAXKXKXPXPXPXPXPXPXPXPXPXPXPXPXPXPXPXPXPXPXPXPXPXPXPXPXPXPXPXPXPXPXPXPXPXPXPXPXPXPXPXPXPXPXPXPXPXPXPXPXPXPXPXPXPXPXPXPXPX",
"PXPXPXPXPXPXPXPXPXPXPXPXPXPXPXPXPXPXPXPXPXPXPXPXPXPXPXPXPXPXPXPXPXPXPXPXPXPXPXPXPXPXPXPXPXPXPXPXPXPXPXPXPXPXPXPXPXPXPXPXKXGXsX. w 4XxXuXcX8.& 0.d.7.7.7.7.7.7.8.6.6.U +.6.6.3.6.3.3.&.3 * I ~ W Q Y *   : l y y a a 6 : X X 8 O.5.&.O.O.O.&.O.%.%.%.%.%.%.%.%.*.%.&.%.%.&.%.%.+.@.r 8 q q 9 =   o > h V A F [ S.G.G.H.K.H.G.H.G.G.G.G.Z.D.A.v - * 6.gX9X8X X2.#.P T w @ : U $.:.o.:.o.#.#.#.o.=.=.o.o.o.o.#.#.#.o.o.Q Q o.o.o.o.o.o.....o.o.............o.Q Q Q Q Q W W W Q W W W Q Q P P P P W Q Q E E E E E W Q W W E E E P R R P P R R R R R R R L L L P P P P L R P R L L L L L L L L L L L L L L L L L L L h h K 9 + 5 :.>.>.>.8.1.h ^.#X+X0 O - E <.} G G ( G G ' ' ' / u / A.v.c.l.c.c.c.c.c.k.' ' ' ' ' ' ' ' ' ) - o < d d V ` _ ` C C C C C A A _ j k A.M.[ [ ] ] V k D G [ J o : #X1X1X1X6X3X+., d.s.,.3.,.,.,.1.1.1.,.,.,.,.,.1.1.*.! + , +.Q Q Q ^ 4 . h.mXMXMXMXNXAXKXKXPXPXPXPXPXPXPXPXPXPXPXPXPXPXPXPXPXPXPXPXPXPXPXPXPXPXPXPXPXPXPXPXPXPXPXPXPXPXPXPXPXPXPXPXPXPXPXPXPXPXPXPXPXPXPXPXPX",
"PXPXPXPXPXPXPXPXPXPXPXPXPXPXPXPXPXPXPXPXPXPXPXPXPXPXPXPXPXPXPXPXPXPXPXPXPXPXPXPXPXPXPXPXPXPXPXPXPXPXPXPXPXPXPXPXPXPXPXPXKXGXsX. 0 3XxXzXzX8.$ 0.d.7.7.7.7.7.7.8.8.*.U W 3.3.3.3.1.1.%.3 $ Y ^ W Q Y *   : v g y y a a 6 : o X 8 5.&.+.O.&.&.&.%.%.%.%.%.%.O.%.&.%.%.%.&.&.&.&.&.Y 9 0 q 8 & . + < x B ` ' F M.D.H.H.J.J.H.G.H.H.G.G.Z.C.A.H + + ..<XuX8X Xw.:.E L L U 5 + 5 ~ $.o.#.o.:.#.#.:.:.:.=.#.#.#.#.#.#.#.#.#.#.o.o.o.o.o.o.o.o.o.o.......o.o.o.o.W Q Q W W W W W W W Q Q Q Q Q Q Q W W Q Q W W W W W W W W W W Q W P P W Q P P E P R R R R P P L P P P P P L P R R L R R R R R R R L L L L L L L R R R H L K : , W >.=.=.>.2.3.Q E ].#X[.0 X : J <.[ F G G F ' ' ' / i c <.c.v.l.c.c.l.c.l.l.' ' ' ' ' ' ' ' ' ) - o < d p V _ D ` A C C C C A A _ k i A.c.[ [ [ ] S z _ G [ J O * #X1X1XwX6X3X+., d.s.,.,.,.,.,.,.1.1.,.1.,.,.1.1.1.*.! + , @.W Q Q ^ 4 . h.mXMXMXMXNXAXHXKXKXPXPXPXPXPXPXPXPXPXPXPXPXPXPXPXPXPXPXPXPXPXPXPXPXPXPXPXPXPXPXPXPXPXPXPXPXPXPXPXPXPXPXPXPXPXPXPXPXPXPXPXPXPXPXPXPX",
"PXPXPXPXPXPXPXPXPXPXPXPXPXPXPXPXPXPXPXPXPXPXPXPXPXPXPXPXPXPXPXPXPXPXPXPXPXPXPXPXPXPXPXPXPXPXPXPXPXPXPXPXPXPXPXPXPXPXPXPXKXGXsX. 0 3XxXxXzX8.$ 0.d.7.7.7.7.7.8.7.8.,.P W ,.3.3.3.1.1.%.3 $ Y ^ W Q Y *   : v l s u g h a 6 -   X e O.&.O.%.&.&.%.%.%.%.%.%.+.@.%.%.%.%.%.&.&.O.Y 0 8 q 8 &   + 6 x V C [ [ [ B.G.H.G.G.J.H.G.H.G.G.Z.D.F.R -   q 2X9X1X Xw.,.Q L L L P K 4 + q #...o.o.o.o.o.o.o.o.o.o.o.o.o.o.o...Q Q Q Q Q Q E Q Q E E E E E E E E E E E E E E E E E E E E E E E E E P P P R P E E E E E E E E E E E E E R R E E E E E E P R R R P R R L L R P P L L L R R L R R R R R R v R R R R R R R J J J E R < > Y $.>.>.=.=.2.>.3.R P {.#X|.q + - h | ' ' G G G k.' _ j i <.c.M.l.c.c.c.z.c.c.[ [ ' ' ' ' ' ` ` J - o < d p V ` _ ` A C C C ( A A _ c u A.c.} ' ' ] S z _ G [ J O : #X1X1XwX1X3X+., d.s.,.>.,.,.,.1.1.1.1.1.1.,.1.1.,.*.Y + , +.W Q Q ^ 4 . h.mXMXMXMXNXAXHXKXKXPXPXPXPXPXPXPXPXPXPXPXPXPXPXPXPXPXPXPXPXPXPXPXPXPXPXPXPXPXPXPXPXPXPXPXPXPXPXPXPXPXPXPXPXPXPXPXPXPXPXPXPXPXPXPXPX",
"PXPXPXPXPXPXPXPXPXPXPXPXPXPXPXPXPXPXPXPXPXPXPXPXPXPXPXPXPXPXPXPXPXPXPXPXPXPXPXPXPXPXPXPXPXPXPXPXPXPXPXPXPXPXPXPXPXPXPXPXKXGXsX. 0 3XxXxXzX0.$ 0.d.7.7.7.7.7.7.7.8.1.P L ,.3.3.3.1.1.%.3 $ Y ^ W Q Y *   : v v g u s a a a < +   % r &.%.O.O.O.&.%.%.@.%.%.%.%.%.%.%.%.&.&.O.O.0 8 q 8 *   # 1 x V F [ l.' l.D.G.G.G.H.H.H.G.H.Z.Z.D.<.U : + 0 -XgX6X Xe.q...L L L L U U q * * w U T U U U U P P P P P P P P P P P P P P W W W W W W W P P P W W P W W P W P L L W P L W W W W W W W W P W P P L L P W P P P P P P P P P W L L L L U L P U L L K K L L L L L L L U U U U K U U U L L L L L L L L L L L L L L H R W h @ 5 %.$.:.=.=.=.=.>.>.3.L L [.#X+XI @ @ 6 ) ) F F G j.k.` b u | M.M.l.l.c.c.v.c.c.[ [ ' ' ' ' ' ` ' ) - o < d p V ] _ ` A A C D ( Z A C b u M.M.} ' ` ] _ z D G ] J O * #X1X1XwX6X3X+.< d.s.>.,.,.,.1.1.1.1.,.,.,.*.1.1.1.*.Y + , +.P P Q ~ 4 . h.mXMXMXMXBXAXHXKXKXPXPXPXPXPXPXPXPXPXPXPXPXPXPXPXPXPXPXPXPXPXPXPXPXPXPXPXPXPXPXPXPXPXPXPXPXPXPXPXPXPXPXPXPXPXPXPXPXPXPXPXPXPXPXPXPX",
"PXPXPXPXPXPXPXPXPXPXPXPXPXPXPXPXPXPXPXPXPXPXPXPXPXPXPXPXPXPXPXPXPXPXPXPXPXPXPXPXPXPXPXPXPXPXPXPXPXPXPXPXPXPXPXPXPXPXPXPXKXGX;X. 0 3XxXxXzXr.@ 0.{.7.7.7.7.7.8.7.0.6.P L ,.>.3.3.2.1.O.: $ Y T P ..Y * X : J v z j s s g g a :     8 O.&.&.+.O.O.%.@.&.&.&.&.%.%.%.&.+.%.O.O.r 8 0 e =   o 6 j k F ' l.l.l.M.G.G.H.G.G.G.H.K.G.H.D.F.R & X 8 #XjX8XoXe.w.#.W L L L L U U ! 5   # 8 8 8 8 8 8 8 8 8 8 8 8 5 8 8 8 8 4 4 4 5 5 5 5 5 5 5 5 5 5 5 5 5 5 5 5 5 5 5 5 5 5 5 5 5 5 4 4 4 4 5 5 5 5 5 5 5 5 5 5 5 4 4 4 5 4 4 4 4 4 4 4 5 5 8 8 8 8 8 8 8 8 8 0 0 8 8 8 8 8 8 q 8 8 8 8 0 0 0 8 8 8 0 0 8 0 0 0 8 8 8 8 8 # X # 5 +.W o.=.=.=.| =.>.3.h H {.#X#X! #   : R ] ` ' k.k.` V u ] M.M.c.l.c.c.c.c.c.x.[ ' ' ' ' F ' ' ) - o < j d V _ _ ` A A A C ( A A C / u ;.M.} [ ` ] _ c _ [ [ l # * #X1X1XwX6X3X#.> s.s.>.,.,.,.1.1.1.1.,.*.,.*.1.1.1.*.r + , @.P P W ~ 4 X h.mXMXMXMXNXCXHXKXPXPXPXPXPXPXPXPXPXPXPXPXPXPXPXPXPXPXPXPXPXPXPXPXPXPXPXPXPXPXPXPXPXPXPXPXPXPXPXPXPXPXPXPXPXPXPXPXPXPXPXPXPXPXPXPXPX",
"PXPXPXPXPXPXPXPXPXPXPXPXPXPXPXPXPXPXPXPXPXPXPXPXPXPXPXPXPXPXPXPXPXPXPXPXPXPXPXPXPXPXPXPXPXPXPXPXPXPXPXPXPXPXPXPXPXPXPXPXKXGXsX. 0 3XxXxXzXr.@ 0.{.7.7.8.7.7.7.7.0.6.W U ,.3.3.6.3.1.O.4 * Y ~ W W Y * X : J v v j g g s s y 6 +   * r @.&.O.O.O.@.&.&.&.&.@.@.@.@.&.@.O.O.r 0 0 q 8 X o < s p N [ l.l.l.v.N.G.H.H.H.H.H.H.H.H.D.<.H @ X 0 |.9X8X>Xe.e.>.W L L L L L L P ~ 8                                                                                                                                                                                                                                         . % & 5 T o.:.=.=.=.=.:.:.2.h L `.#X#X#., X @ h E ) [ k.` ) j S M.c.l.c.c.c.c.c.c.c.[ ' ' ' ' ` ' ` J - o < d d V _ _ ` A A A ` _ A A C / u } M.} [ [ ] _ k D G [ h # * #X1X1XwX6X3X+.> s.s.>.,.,.,.,.,.,.,.,.,.,.*.,.1.1.*.r + , @.P E W ~ 4 X h.mXMXMXMXBXAXHXKXPXPXPXPXPXPXPXPXPXPXPXPXPXPXPXPXPXPXPXPXPXPXPXPXPXPXPXPXPXPXPXPXPXPXPXPXPXPXPXPXPXPXPXPXPXPXPXPXPXPXPXPXPXPXPXPXPX",
"PXPXPXPXPXPXPXPXPXPXPXPXPXPXPXPXPXPXPXPXPXPXPXPXPXPXPXPXPXPXPXPXPXPXPXPXPXPXPXPXPXPXPXPXPXPXPXPXPXPXPXPXPXPXPXPXPXPXPXPXKXGXsX. 0 3XxXxXzXr.@ 0.{.7.7.8.7.7.7.7.0.6...L ,.3.3.7.3.1.O.3 * T ^ W ..Y * X : J v b b j g s u y 0 :   * q r Y O.&.@.&.O.&.&.@.+.+.+.+.@.@.O.Y 9 8 q 8 #   - s p m F [ M.l.c.v.Z.G.H.H.G.H.H.D.H.D.;.h $ # w +X9X4X Xe.u.3...P U L R R L R L K & . + @ @ @ @ - - - - - : : : $ @ $ $ $ - : $ @ @ @ - @ @ @ @ @ @ @ @ @ @ - - - - - - - - - - @ - : - - - - - - - - - - - - - - - - - - - - - - : - - - - : - - - - - - - : : : : : : : : - - - - - - : : @ : : : : * @ @ @ @ @ $ @ @ @ @ + + * + 8 T o.:.>.:.>.>.=.=.:.h R ^. X Xi.0 + @ 6 J } k.] _ j j A.c.l.c.l.l.l.l.l.c.[ ' ' ' ' ' ' ` J - o < i d V _ _ ` A A ` ` _ A A C / u [ A.} [ [ ] S k D G [ h o * #X6X1X1X1X3X#.< s.s.>.>.,.,.,.,.,.,.1.,.,.*.,.,.,.*.r + 8 @.W E W ~ 4 X h.mXMXMXmXBXCXHXKXPXPXPXPXPXPXPXPXPXPXPXPXPXPXPXPXPXPXPXPXPXPXPXPXPXPXPXPXPXPXPXPXPXPXPXPXPXPXPXPXPXPXPXPXPXPXPXPXPXPXPXPXPXPXPXPXPX",
"PXPXPXPXPXPXPXPXPXPXPXPXPXPXPXPXPXPXPXPXPXPXPXPXPXPXPXPXPXPXPXPXPXPXPXPXPXPXPXPXPXPXPXPXPXPXPXPXPXPXPXPXPXPXPXPXPXPXPXPXKXGXsX. q 3XxXxXcXr.@ 5.|.8.7.8.7.7.7.7.8.6.+.K ,.3.3.7.3.1.O.3 * Y ~ W ..T * X : J v b b j x g g s h >   # q w w Y O.O.O.O.O.&.&.O.O.+.O.O.Y w 9 8 0 8 X   + 1 d n M [ M.M.c.z.v.G.H.G.H.H.G.G.D.A.) 6 O + O.-X8X8X X4.e.8...P L L L R R L U K :   + 6 0 6 1 1 1 1 6 6 1 1 6 6 6 1 1 6 1 1 1 1 6 6 6 1 1 6 6 1 1 1 1 6 1 1 1 1 1 1 1 1 1 1 1 1 6 6 1 6 1 1 1 1 < < < 1 1 1 1 1 1 1 1 1 1 1 1 1 1 6 1 1 1 1 6 1 1 1 1 1 1 1 6 1 1 1 1 1 1 1 1 1 1 1 1 1 1 1 1 1 1 1 6 6 1 1 1 1 1 1 1 1 1 6 > @ + * & 8 Y W =.=.>.>.>.=.>.#.L R e. X#X#X^ * O 2 J ` [ ] J u <.c.c.l.l.l.l.l.l.l.k.[ ' ' ' ' ' ' ) - o < i d V ` ` ` A F ` D ` A A C / u ] M.} [ [ ] S k D G [ l o * #X1X1X1X1X3X#., s.f.>.>.,.,.,.,.,.,.1.,.,.*.,.,.,.*.w + 5 ^ W P W ~ 4 X h.mXMXMXmXBXAXHXKXPXPXPXPXPXPXPXPXPXPXPXPXPXPXPXPXPXPXPXPXPXPXPXPXPXPXPXPXPXPXPXPXPXPXPXPXPXPXPXPXPXPXPXPXPXPXPXPXPXPXPXPXPXPXPXPXPX",
"PXPXPXPXPXPXPXPXPXPXPXPXPXPXPXPXPXPXPXPXPXPXPXPXPXPXPXPXPXPXPXPXPXPXPXPXPXPXPXPXPXPXPXPXPXPXPXPXPXPXPXPXPXPXPXPXPXPXPXPXKXGXsX. w 3XxXxXcXr.+ 5.|.8.7.6.8.7.7.7.8.6.+.K ,.3.3.7.3.1.O.3 * Y @.W W T * X $ J v b c c b j g g g 6 +   = 0 q q w K Y Y Y O.O.O.O.O.! I 9 9 8 0 8 %   o < s k f C M.M.z.z.M.M.G.G.G.Z.Z.Z.H.<.v :   & 5.:X9X8X|.4.e.3.o.P P L L L L L L Y 4 o o : 1 y a u u u s s s s s y y y y y y y y y a s s a y y a a a s a a a a s a y a a a a y y y y a a a a y y y y y y y y y y y y y a a a y y y a a y y y y y a a a a y y y y a a a a a a a y y y y y y y y y y u u u y y y y a a u u a u a a a < @ O * # 8 P Q =.=.=.=.=.=.>.=.R l 2. X#X#Xr.q $ O < v | ) s ` n.c.z.l.l.l.c.c.c.c.' ` ' ' ' ' [ ) - o < i d / ` F F A A F C C A A C / u ` M.[ [ [ ] V j D [ { l o : #X1X1XwX1X>X$., d.f.:.>.,.,.:.,.,.,.1.,.,.1.1.,.,.*.q + 5 ^ W P P T 4 . h.mXmXmXBXBXAXHXPXPXPXPXPXPXPXPXPXPXPXPXPXPXPXPXPXPXPXPXPXPXPXPXPXPXPXPXPXPXPXPXPXPXPXPXPXPXPXPXPXPXPXPXPXPXPXPXPXPXPXPXPXPXPXPXPXPX",
"PXPXPXPXPXPXPXPXPXPXPXPXPXPXPXPXPXPXPXPXPXPXPXPXPXPXPXPXPXPXPXPXPXPXPXPXPXPXPXPXPXPXPXPXPXPXPXPXPXPXPXPXPXPXPXPXPXPXPXPXKXGXsX. q 4XxXxXcXr.+ 5.|.7.7.6.8.7.7.7.8.6.+.K *.3.3.7.3.1.O.3 * Y T W W T *   $ J v b b z b b j j g a > o   * 0 w q 0 q q q w w w q w q 0 6 8 0 0 *     < s d d k ` M.B.B.B.B.B.N.N.H.N.D.F.| 6 O o 4 0.gXgX8X{.4.p.w.Q P P U W W R W U T 8     @ 6 1 ; ; t u u u u u u u u u u u u u u u u y u u u u u y y y y y y y y y u y y y y u y y y y y y y y y y y u u u u y y y y y y y y y y u u u u u u u u u s u u u u u u u u u u y y y y u y y u u u u u u u u u u u u u u u u u t y u u y a a 6 + + * # 0 ~ Q =.>.>.>.>.:.:.:.P h o.[.#X>X#X*., o $ 5 H y j A.c.l.l.l.[ c.c.c.l.[ ' ' ' ` ' ` ) - o < i d / ` F F A A F A C A A ( / u ` M.[ [ [ ] S j D [ { l o : #X1X1XwX1X>X$., d.f.:.>.,.,.:.,.,.,.,.1.,.1.1.,.,.#.0 + 5 ^ W P T @.4 . h.nXmXmXBXBXAXHXKXKXPXPXPXPXPXPXPXPXPXPXPXPXPXPXPXPXPXPXPXPXPXPXPXPXPXPXPXPXPXPXPXPXPXPXPXPXPXPXPXPXPXPXPXPXPXPXPXPXPXPXPXPXPXPXPXPX",
"PXPXPXPXPXPXPXPXPXPXPXPXPXPXPXPXPXPXPXPXPXPXPXPXPXPXPXPXPXPXPXPXPXPXPXPXPXPXPXPXPXPXPXPXPXPXPXPXPXPXPXPXPXPXPXPXPXPXPXPXKXGXsX. q 4XxXxXcXr.& 5.|.7.7.7.8.7.7.7.8.6.#.U ,.1.1.3.3.1.&.3 * Y @.W W T *   $ J v b b b b b b c j h 6 - o   + 4 0 q q 9 9 9 0 0 9 8 8 8 0 q 8 #   o < g d p p z M.M.B.B.B.G.S.N.N.N.F.<.R -     r ;XjXgX<X[.4.p.q.o.Q L P L R Q R Q ^ q X   + 6 a 1 1 u u i s s i i d d j j j j j j i i i j j j j j j j j j j j j j j j j j z z z z j x j j c c c c c c c k z z z z k k k k k j j j j j j j j d j j d d i g s s j j j j j j j j j j j g g g s g j g g g g i i i s s s s u s s s u u i i s u a < @ $ # # r W E o.=.>.>.=.:.:.:...h h q.oX$X>Xf.O.=   O O < ) <.<.} [ c.l.l.l.l.l.' ' ' ' ' ` ) - o < i d V ` F F A A C C ( A A ( / u ` M.l.[ [ ] _ z D [ { l o : #X1X,X1X1X>X$., d.f.:.>.,.,.:.,.$.,.,.,.,.*.,.1.,.#.0 + 5 T P P W @.4 . h.mXNXNXNXBXAXHXKXKXPXPXPXPXPXPXPXPXPXPXPXPXPXPXPXPXPXPXPXPXPXPXPXPXPXPXPXPXPXPXPXPXPXPXPXPXPXPXPXPXPXPXPXPXPXPXPXPXPXPXPXPXPXPXPXPX",
"PXPXPXPXPXPXPXPXPXPXPXPXPXPXPXPXPXPXPXPXPXPXPXPXPXPXPXPXPXPXPXPXPXPXPXPXPXPXPXPXPXPXPXPXPXPXPXPXPXPXPXPXPXPXPXPXPXPXPXPXKXGXsX. q ,XxXxXzXr.@ 5.|.8.7.7.7.7.7.7.6.6.$.L ,.1.1.3.2.1.%.3 * Y Y W W T *   $ J v v b b b b c b c j h a > +     % = 8 q 0 9 0 0 9 0 8 e e 4 X   X < h d p p p D M.M.N.B.B.D.D.B.H.D.) 0 + . & &.:XjXgX<X`.4.w.7.#.W P P L L W W U W q #     , a s s j b V V V V V V V M V V V V V V V V V V V V V V V V V B M M C C C V V M V V V C V V / V V V V V C C M M M V M M M M M M M V V V V V V V M V V M M M V V V V b V V V V V V V V V V V z b b b b z b z b b V V b b z z c c V b b V M B k d s a < O + + # K P R Q =.>.>.>.:.:.#.#.L H >.{.#X>X>X[.U & o o > 6 H ) { } } c.c.c.c.k.k.' ' ' [ ) - o < j p V ` F F F F A D ` F A C / u ` M.[ [ ] ] S j D [ { l o * #X1X1X1X1X>X#., i.p.2.,.,.,.*.,.,.,.,.,.,.*.,.,.*.T q + 8 ^ W Q W T 4 X h.mXNXNXBXBXAXHXKXPXPXPXPXPXPXPXPXPXPXPXPXPXPXPXPXPXPXPXPXPXPXPXPXPXPXPXPXPXPXPXPXPXPXPXPXPXPXPXPXPXPXPXPXPXPXPXPXPXPXPXPXPXPXPXPXPX",
"PXPXPXPXPXPXPXPXPXPXPXPXPXPXPXPXPXPXPXPXPXPXPXPXPXPXPXPXPXPXPXPXPXPXPXPXPXPXPXPXPXPXPXPXPXPXPXPXPXPXPXPXPXPXPXPXPXPXPXPXKXGXsX. w ,XxXxXcXr.+ 5.{.8.7.6.8.7.7.7.6.6.$.U ,.1.1.3.3.1.%.3 * Y Y W W T *   $ J v b b b b J b b b z g l h 6 : o o   + * 4 8 8 0 0 0 8 = +     @ 6 s i k p i m } B.B.N.B.M.A.A.F.| g - o + 8 d.5XjX8X#Xe.4.w.>.Q P P P L R R W U T q &   o > a s i c V C C C C V V V V V V V V M M V C C C M C C C C C C V C C C C C C C V V V V C C C C C C C C C C C C C C C C C C V V C C C C C C C C C C C C C V C C C V V V V V V V S S S C V V V V V V V V V V V M M M M V M M M m M N V M M V V V B k i u s < @ @ + + q U L Q =.>.>.>.:.:.#.#.W R R 2. X#X>X#Xg.~ 4 + o + > 1 v ) | { } } } } ' ' ' ' ) - o < j k V ` F F F F F F ` F A C / u ` M.[ [ G ] S j D [ } l o * #X1X1X1X1X>X#., i.u.:.,.,.1.*.,.,.,.,.*.,.*.*.*.#.T w + 8 ^ W E P T 5 . h.mXNXNXBXBXAXHXKXPXPXPXPXPXPXPXPXPXPXPXPXPXPXPXPXPXPXPXPXPXPXPXPXPXPXPXPXPXPXPXPXPXPXPXPXPXPXPXPXPXPXPXPXPXPXPXPXPXPXPXPXPXPXPXPXPX",
"PXPXPXPXPXPXPXPXPXPXPXPXPXPXPXPXPXPXPXPXPXPXPXPXPXPXPXPXPXPXPXPXPXPXPXPXPXPXPXPXPXPXPXPXPXPXPXPXPXPXPXPXPXPXPXPXPXPXPXPXKXGXsX. q 4XxXzXzXr.@ 5.{.7.7.7.7.7.7.7.8.6.$.U ,.1.1.7.3.1.%.4 * Y T W W T * X $ J b b b b b b b b v z j g g g h 6 > : @ o   X X + + +       O > a s d d j i p F M.N.B.N.N.D.<.] l > + + 8 6.:XgX9X>X}.4.q.8.>.Q W W W U U E W U T q *     > s d d j M B V N N C N C C C C C C C V V V C C C C C C C C C C C C V V V V V V C A C C A C C C C C C C C C C C V C C V V V V V V V V C C V C C C C C V C V V V V C C C C C C C C D D C C C C V V C C V M M V V V C C C C C N N C C Z C C C C C N m d d s y > : + X # q T L E =.=.>.>.=.:.:.#.Q R L E 3.`. X>X-X|.&.q 5 @ + + - < y v J ) ) _ ) ) ] ) - o < j p V ` F F F A A D ` F A C / u ] M.[ [ F ] S k F [ } l o * #X1X1X1X1X>X#.5 s.u.:.,.,.,.*.,.,.,.:.:.,.*.*.,...U w + 8 ^ W W W T 5 . h.mXMXNXBXmXAXHXPXPXPXPXPXPXPXPXPXPXPXPXPXPXPXPXPXPXPXPXPXPXPXPXPXPXPXPXPXPXPXPXPXPXPXPXPXPXPXPXPXPXPXPXPXPXPXPXPXPXPXPXPXPXPXPXPXPX",
"PXPXPXPXPXPXPXPXPXPXPXPXPXPXPXPXPXPXPXPXPXPXPXPXPXPXPXPXPXPXPXPXPXPXPXPXPXPXPXPXPXPXPXPXPXPXPXPXPXPXPXPXPXPXPXPXPXPXPXPXKXGXsXX H >XxXzXcXr.@ 5.[.7.7.7.7.7.7.7.7.7.*.P ,.1.1.6.3.1.%.= * Y T W W Y * X : J v b b b b b b v v v j j j j j j g a y < : @ @ @ @ @ @ @ > 6 s d d k p p p C c.c.N.N.A.;.) h > @ o , @.+XgXgX3X Xe.4.q.7.>.Q W W T U T L R W U w *     > h j k k c M M N Z Z Z N N C N N N N N M M N N N N N M M M M M M M V V V V V M M C C C C C C C C C C C C C C C C V V V V N N V V C C C V V V V M V V C M C V M C C V V V V V V V V S S V V V V M V S V V V V V N N V C V C N N N N N N N Z Z Z A N B k k d u 1 < > +   # e ! H L E =.>.>.=.>.$.o.o.W L L P 3.{.-X>X>X#X].:.T 0 & o o + - : > 6 h h h 0 +   < j p V ` ` F F A C C D A A D b u { M.[ [ ' ] S j D [ } h o : +X1X1X1X1X>X#.5 d.f.:.:.,.*.*.,.,.,.$.,.,.*.*.,.P U I + 8 T W P P T 5 . h.mXMXNXBXmXAXHXKXPXPXPXPXPXPXPXPXPXPXPXPXPXPXPXPXPXPXPXPXPXPXPXPXPXPXPXPXPXPXPXPXPXPXPXPXPXPXPXPXPXPXPXPXPXPXPXPXPXPXPXPXPXPXPXPXPX",
"PXPXPXPXPXPXPXPXPXPXPXPXPXPXPXPXPXPXPXPXPXPXPXPXPXPXPXPXPXPXPXPXPXPXPXPXPXPXPXPXPXPXPXPXPXPXPXPXPXPXPXPXPXPXPXPXPXPXPXPXKXFXsX# H >XxXzXcXi.@ &.[.8.8.8.8.8.7.7.3.7.$.U ,.7.1.6.3.3.&.= * T @.W W Y * X : v v b b b b b c b b b j z c j z j j i d g h h 0 6 6 6 1 1 a g j k p p p m C [ A.A.<.) g 1 @ o   : *.+XgXjX8X-X'.4.4.4.3.Q W R W W T U U L P W K *     - a j j k k V M V B / / C M C C N N N N C C V C C V V V V V V V V V V V C N N N N C V C V V V V V V V C V V V C C C C V C C V V V C C C C V C C C C C M M M M V B V M V V V C C C C C C M M M M V M V C C C C V V V V V C C V C C C C C C N C C C C C B m m m d u 1 1 , +   X 8 ~ U h R o.>.>.,.:.#.#.#.o...P H L =.'.#X>X>X>X-X Xi.r.+.0 $ o o o o O O   X   6 j p V ` ' F F D C C D A A S z u } ;.[ [ ' ] S j D [ } l o : #X1X1XwX1X>X$.5 d.s.:.:.,.,.,.,.1.,.,.,.,.*.*.#.K T Y + 8 T W E P T 4 . h.mXMXNXmXmXAXHXKXPXPXPXPXPXPXPXPXPXPXPXPXPXPXPXPXPXPXPXPXPXPXPXPXPXPXPXPXPXPXPXPXPXPXPXPXPXPXPXPXPXPXPXPXPXPXPXPXPXPXPXPXPXPXPXPXPX",
"PXPXPXPXPXPXPXPXPXPXPXPXPXPXPXPXPXPXPXPXPXPXPXPXPXPXPXPXPXPXPXPXPXPXPXPXPXPXPXPXPXPXPXPXPXPXPXPXPXPXPXPXPXPXPXPXPXPXPXPXKXFXsX# H >XxXzXcXi.@ &.[.7.7.8.8.8.8.7.7.6.*.P ,.7.6.6.3.3.&.= * T T W W Y * X : v v b c b b b b b v z z S ] V k k j i i d j j g g g x j i i d k k m j b _ <.<.| l 6 - + + o , 0.-X8XjXgX3X{.4.4.4.2.:.o.R W R R L R L L P T r =     - h x j k m B C V / x g s x x x c c c c c J J J J J J J J J J J J J J J J J J J c c c c B c c c c c c c c c c c x x v v x v v x x x x x x x j z z z c z j x v v v J J v x x x x x x x v v x x x x x d d x d d d j j j j j x j x c c c d d c x j v b V V V m m m f d s 1 < 6 $ X   = ! W K h E o.:.>.,.:.#.#.$.,.o.P h h R :.{.-X>X>X>X>X>X#X+X@Xa.^ 0 > -       6 j p V ` ' ` F F D C C A C C z u } [ [ [ ' ] S j D [ [ l o * #X1X1XwX1X3X$.5 d.i.:.:.,.,.1.1.1.,.,.,.,.*.*.W K T Y + 8 T W E P T 4 . h.mXMXMXmXBXAXHXKXPXPXPXPXPXPXPXPXPXPXPXPXPXPXPXPXPXPXPXPXPXPXPXPXPXPXPXPXPXPXPXPXPXPXPXPXPXPXPXPXPXPXPXPXPXPXPXPXPXPXPXPXPXPXPXPXPX",
"PXPXPXPXPXPXPXPXPXPXPXPXPXPXPXPXPXPXPXPXPXPXPXPXPXPXPXPXPXPXPXPXPXPXPXPXPXPXPXPXPXPXPXPXPXPXPXPXPXPXPXPXPXPXPXPXPXPXPXPXHXFXsX# H >XxXzXcXi.@ &.{.8.7.8.8.7.8.8.6.1.1.+.1.1.7.6.3.1.&.= * T T W W Y *   : v v b c b b c b b z z z V A.;._ m k k k k j j x j x x d s s j x b ) Q >.Q h > @ o X + * I f.5XgX9X9X3X X4.4.4.3.2.o.P L L R R R R L L R W w # .   : a g j c k B B B / s - o o O - + + + + + + @ + @ @ @ @ @ @ @ @ + + + + + + + + + + + + + + + + + + + + + + + + + + + + + + + + + + + + + + + + + + + + + + + + + + + + + + + + + + + + + @ @ + + + + + + + + + + + + + + @ @ @ + + + @ + + + - - - - - y J M m N f f d i u 1 6 $   . % 0 Y U H L W Q #.#.#.:.:.:.:.:.:.o.P 9 0 L =.'.#X>X3X3X3X3X3X3X3X3X#Xa.&   6 j p V ` ' ' ` F F C S A A C k i } [ [ [ [ ] S j D [ [ l o : #X1X1XwX1X3X*.5 d.i.:.:.,.*.,.,.,.$.$.,.,.*.#.U P ^ ! @ 8 T W P P @.4 . h.mXMXMXmXBXAXHXKXPXPXPXPXPXPXPXPXPXPXPXPXPXPXPXPXPXPXPXPXPXPXPXPXPXPXPXPXPXPXPXPXPXPXPXPXPXPXPXPXPXPXPXPXPXPXPXPXPXPXPXPXPXPXPXPXPX",
"PXPXPXPXPXPXPXPXPXPXPXPXPXPXPXPXPXPXPXPXPXPXPXPXPXPXPXPXPXPXPXPXPXPXPXPXPXPXPXPXPXPXPXPXPXPXPXPXPXPXPXPXPXPXPXPXPXPXPXPXHXFXsX# H >XxXzXcXi.@ &.{.7.7.8.8.8.8.8.7.7.7.7.7.7.7.6.1.1.&.= * U T W W Y *   $ v v b c b b j z z z z z V A.D.A.[ C M m k k k z j v x 1 6 0 h 0 6 5 : @ + + @ 4 e I 0.-X5X8X9X4X>X X4.2.2.4.>.:.W P L L L L R R R L L W 0 @     : h j j k m m m B V J < O & 4 , > , , : > : , , : , : , , , , , , , , : : : : : , , , , 5 > 5 > 4 > > 3 4 3 5 5 5 5 , > < < < < < < < < < 6 6 6 6 5 5 5 5 5 5 < < < 6 < 6 6 5 5 5 6 5 6 6 6 6 6 6 6 6 6 6 6 6 6 < < 6 6 6 6 6 6 6 5 , , , : : : : 2 : @ O - 6 b B m f N m d i u 1 6 3 X . o 4 w I U L R R W Q :.:.:.:.$.$.$.*.+.+.P h h h E 3.[. XoXoX$X>X#X|.&.X o 6 j p S ` ` ` ` ` ` C C C A C j p } [ l.l.[ ] S j D [ [ l o : +X1X1XwX1X3X#.> d.i.:.:.,.*.,.,.,.,.,.,.,.*.W L T +.! + 8 ~ P P P @.4 . h.mXMXMXmXBXAXHXHXPXPXPXPXPXPXPXPXPXPXPXPXPXPXPXPXPXPXPXPXPXPXPXPXPXPXPXPXPXPXPXPXPXPXPXPXPXPXPXPXPXPXPXPXPXPXPXPXPXPXPXPXPXPXPXPXPX",
"PXPXPXPXPXPXPXPXPXPXPXPXPXPXPXPXPXPXPXPXPXPXPXPXPXPXPXPXPXPXPXPXPXPXPXPXPXPXPXPXPXPXPXPXPXPXPXPXPXPXPXPXPXPXPXPXPXPXPXPXHXGXsX# H >XxXxXcXi.& &.|.8.7.8.8.8.8.8.7.8.8.8.7.7.8.8.3.1.&.= * U T W W Y *   $ v v v c c b c z z z z z V M.B.D.D.A.} F C V M c b b v : o o o o   # $ 8 Y %.0.+XfXgX8X8X3X>X X`.4.4.2.2.>.:.Q W R R R R R R R R L U T 0 @   o > h x c k c m m B V V h - - 6.|.{.^.^.^././././.<.e.}.^.^.^././././././././././././.^.^.<.^././././././././././././././././././././././././././././././././././././././././././././././././././././././././././././././././././././././.<.<.<.<.<.<.>.| Q J - @ a / B m N m m f d u 1 6 < +     & q K T H h H L W W #.#.#.#.#.$.+.#.#.#.#.W L h h l v Q =.>.,.L *   # 6 j p S ` ' ' ' ` ` D C A A C p p ;.;.l.l.[ ] S j D [ [ l o :  X1X1XwX1X3X#., d.i.,.:.,.*.,.,.,.,.:.$.:.#.U U T +.! + 8 ^ W P P @.4 . h.mXMXMXmXmXAXHXHXPXPXPXPXPXPXPXPXPXPXPXPXPXPXPXPXPXPXPXPXPXPXPXPXPXPXPXPXPXPXPXPXPXPXPXPXPXPXPXPXPXPXPXPXPXPXPXPXPXPXPXPXPXPXPXPXPX",
"PXPXPXPXPXPXPXPXPXPXPXPXPXPXPXPXPXPXPXPXPXPXPXPXPXPXPXPXPXPXPXPXPXPXPXPXPXPXPXPXPXPXPXPXPXPXPXPXPXPXPXPXPXPXPXPXPXPXPXPXHXGXsX# h >XxXxXcXr.& &.|.8.7.8.8.8.7.7.8.8.8.7.7.7.7.6.1.1.&.= * T T W W Y *   $ v v b c c b b b z z z z V M.N.S.D.D.D.D.M.} ] ` _ _ J :   X + + e 5.g.@X:X3X8X4X>X>X X X`.4.4.4.3.2.>.:.Q R R R R R R R R R E P P K 5 +   O < g z c v c c M m m V b < - a $XeXOXY.U.J.H.G.S.M.D F.OXP.U.U.U.J.U.U.U.J.J.J.J.J.U.U.P.{ { XX.XY.Y.K.K.K.H.H.H.G.G.H.G.G.G.G.D.A.M.v.v.n.n.v.v.v.v.z.z.z.c.c.c.c.v.c.c.} } } ( v.G.G.G.G.G.G.G.S.S.G.G.S.S.S.S.S.m.v.v.v.M.M.M.B.M.M.B.M.A.D.D.D.D.D.D.n.n./.H + - h / B B B B m d d u ; 1 6 * +   + 4 q U L H L L L L W Q ........o.#.#.#.#.#.o.Q W K K q : $ # * X   < g p b ` ' ' ' ` ` ` D A A C p k <.;.l.l.[ ] S j D [ [ l o & |.1X1XwX1X3X$.5 d.i.,.:.,.*.,.,.,.,.,.$.$.T U L +.$.! @ 8 +.W P P @.4 . h.mXMXMXmXBXAXHXHXPXPXPXPXPXPXPXPXPXPXPXPXPXPXPXPXPXPXPXPXPXPXPXPXPXPXPXPXPXPXPXPXPXPXPXPXPXPXPXPXPXPXPXPXPXPXPXPXPXPXPXPXPXPXPXPXPX",
"PXPXPXPXPXPXPXPXPXPXPXPXPXPXPXPXPXPXPXPXPXPXPXPXPXPXPXPXPXPXPXPXPXPXPXPXPXPXPXPXPXPXPXPXPXPXPXPXPXPXPXPXPXPXPXPXPXPXPXPXKXJXsX% 0 >XxXxXcXr.$ *.{.3.7.8.8.6.6.8.8.8.8.7.7.7.7.7.3.6.&.3 : Y T T T Y *   $ J v b c x b b c b x b z V M.D.S.S.D.S.S.S.D.M.c.c.{ ) :   r a.5 6 *.s.'.'.`.`.`.4.2.>.>.>.2.3.3.,.#.W W R R R R R R R E L E E W q &     O 1 v c m B c c c B N m / a - - =.qXqXOXC.Z.V.b.b.z.c.m ;.XXH.H.G.G.S.G.N.N.N.N.G.G.N.V.N.A._ D OX).G.G.G.V.B.N.N.N.Z.Z.Z.V.B.N.N.N.c.l.k.k.k.l.l.c.l.l.l.l.l.l.l.l.l.l.l.[ ' ` ` m c.A.v.v.v.v.v.z.z.B.B.B.B.B.B.B.B.B.B.B.B.z.B.B.z.B.B.z.z.M.B.v.v.B.N.M.c.' A.e.< O - x V N m m m B m d u t ; 6 6 + o   X 3 K U U L L L L P P ........W #.Q Q Q Q Q ^ ^ I = X $ q Y @ o 6 g p V ] ' [ ' ' ` F C C S V i c ;.} l.[ [ ] S j _ [ [ l o * +X1X1XwX1X3X#.5 d.r.,.:.,.*.,.,.,.,.*.$.#.T U W #.*.Y * 8 +.P P P ~ 4 . h.mXMXMXMXBXCXHXHXPXPXPXPXPXPXPXPXPXPXPXPXPXPXPXPXPXPXPXPXPXPXPXPXPXPXPXPXPXPXPXPXPXPXPXPXPXPXPXPXPXPXPXPXPXPXPXPXPXPXPXPXPXPXPXPXPX",
"PXPXPXPXPXPXPXPXPXPXPXPXPXPXPXPXPXPXPXPXPXPXPXPXPXPXPXPXPXPXPXPXPXPXPXPXPXPXPXPXPXPXPXPXPXPXPXPXPXPXPXPXPXPXPXPXPXPXPXPXKXJXsX% H 4XxXxXcXi.$ *.{.3.7.8.8.6.6.6.8.8.8.6.7.7.7.7.3.1.&.3 : Y T T T Y :   $ J v b c x b b x v v b c V M.B.D.H.S.S.N.N.D.M.[ c.} _ :   O.jX#Xh > 0 Q >.o.E Q o.=.=.=.=.:.#.Q L L L L R R R P R R R R R R W 0 +     @ 0 l c B m B B c b V m V x - O h oXqX&X_.Z.V.b.b.b.z.c.m M.XXH.H.G.G.S.Z.N.B.Z.Z.G.G.Z.C.Z.A._ D OX).H.G.G.G.N.N.N.N.Z.V.Z.V.B.N.N.N.z.l.k.k.k.l.l.l.l.l.l.l.l.l.c.c.c.l.k.k.' ` ( f c.A.v.v.v.v.v.z.B.B.B.B.B.B.B.B.B.B.B.B.B.z.z.z.z.B.B.B.B.v.v.v.v.B.N.M.l.` { ^.4.4 O - x V N Z N N B B d u u ; 1 6 : +     + 8 I U U R L L L P P Q Q Q Q o.Q Q Q W ^ ! : + , I ^ ~ @ o 6 g p V ] ` [ ' ' ` F C C S V i V ;.c.l.[ [ ] S j _ [ [ l o * +X1XwXwX1X3X#.5 g.r.,.:.,.*.,.,.,.*.*.*.+.I I ..$.#.Y * 8 ^ P P P ~ 4 . h.mXBXNXBXBXCXHXHXPXPXPXPXPXPXPXPXPXPXPXPXPXPXPXPXPXPXPXPXPXPXPXPXPXPXPXPXPXPXPXPXPXPXPXPXPXPXPXPXPXPXPXPXPXPXPXPXPXPXPXPXPXPXPXPXPX",
"PXPXPXPXPXPXPXPXPXPXPXPXPXPXPXPXPXPXPXPXPXPXPXPXPXPXPXPXPXPXPXPXPXPXPXPXPXPXPXPXPXPXPXPXPXPXPXPXPXPXPXPXPXPXPXPXPXPXPXPXKXJXsXX H >XxXxXcXi.$ *.{.3.7.8.8.6.6.6.8.8.8.8.7.7.7.7.3.6.&.3 : Y T T T Y :   $ J v v b x v b x x v b c V M.D.D.D.S.S.N.M.B.M.l.c.} _ > o O.jXlX3XQ : - 0 U W Q Q ..E E E R L L U L L W W W W L L L L R R K 4     o - h x z c m m B b M m M V b 1 - ; ^.qXqX%XK.V.V.b.b.z.z.M.m A.XXG.G.G.G.S.G.G.Z.G.G.G.Z.N.C.V.A.M D OX).H.G.S.B.B.N.S.S.B.V.G.V.B.N.N.N.z.l.k.k.k.l.l.l.l.l.l.l.l.l.l.l.l.l.k.k.' ` C f c.M.v.v.v.v.z.v.B.B.B.B.B.B.B.B.B.B.B.B.B.B.B.B.B.B.B.z.z.B.B.B.B.B.B.M.c.` ` ` /.,.: o - J / Z N N N B B k d u 1 1 6 < - o .   + 0 I U U W R L R E E E R E W W ~ r 4 o : q T ~ W U @ o 6 j p V ] G ' ' ' ' ` C C S V i C ;.c.l.[ [ ] S j _ [ [ v o * +X6XwXwX6X3X#.5 d.r.,.:.,.,.,.:.:.*.*.#.T I U #.,.$.Y * 8 W P P P ~ 4 . h.mXBXNXMXBXCXHXKXPXPXPXPXPXPXPXPXPXPXPXPXPXPXPXPXPXPXPXPXPXPXPXPXPXPXPXPXPXPXPXPXPXPXPXPXPXPXPXPXPXPXPXPXPXPXPXPXPXPXPXPXPXPXPXPXPX",
"PXPXPXPXPXPXPXPXPXPXPXPXPXPXPXPXPXPXPXPXPXPXPXPXPXPXPXPXPXPXPXPXPXPXPXPXPXPXPXPXPXPXPXPXPXPXPXPXPXPXPXPXPXPXPXPXPXPXPXPXKXGXsXX H 4XxXxXcXi.$ *.{.3.7.8.8.6.6.6.8.8.8.8.8.7.7.7.3.6.&.3 : Y T T T Y :   $ J v v b c b v x x v b c V M.D.D.D.D.G.S.N.D.N.l.l.} ) > o K gXlXgX>X6.5 @ 5 q T P P L L R L L L W R L R R R R L L W T I 8 +     + < x b V c B m m V b M m V J h - - b ,XqX&XQ.V.G.b.b.b.z.k.c.k A..XS.G.G.G.G.Z.Z.B.G.G.G.G.Z.Z.Z.A.V F OX(.H.G.S.S.S.S.S.S.S.G.G.G.B.N.N.N.z.l.l.k.k.l.l.k.c.c.l.l.l.l.k.k.k.l.k.[ ' ` C f M.M.v.v.v.B.B.B.B.B.B.B.B.B.B.B.B.B.B.B.B.B.B.B.B.B.z.v.B.B.v.v.v.z.v.c.} ` ` ` x.^.:.: + > v A Z N N N B B m d i u y y 1 < $ +     X 4 q K T U L L R R P P ^ Y q # # 4 I U R W L U @ o < j p V ] G ' ' ' ' ` C C S V i _ ;.c.[ [ [ ] V j _ [ [ v + * +X6XwXwXwX3X#.5 d.r.,.:.,.,.,.:.:.$.*.+.P U T $.,.#.Y * 8 W P P P ~ 4 . h.mXMXNXMXBXAXHXHXPXPXPXPXPXPXPXPXPXPXPXPXPXPXPXPXPXPXPXPXPXPXPXPXPXPXPXPXPXPXPXPXPXPXPXPXPXPXPXPXPXPXPXPXPXPXPXPXPXPXPXPXPXPXPXPXPX",
"PXPXPXPXPXPXPXPXPXPXPXPXPXPXPXPXPXPXPXPXPXPXPXPXPXPXPXPXPXPXPXPXPXPXPXPXPXPXPXPXPXPXPXPXPXPXPXPXPXPXPXPXPXPXPXPXPXPXPXPXKXFXsXX 0 >XxXxXcXi.$ *.{.8.8.8.8.8.8.8.6.8.7.8.8.8.7.7.3.1.&.4 : Y W W +.T :   $ J v b b b b b c b b b c M M.D.D.S.H.G.S.N.B.N.l.l.c.] > o K 9XlX9X#Xs.0.I $ * 0 U U U U L L L L R L R L W W R E Q U 0 *     o : 6 x b M B V M M M M z m m J h > - 0 }.qXqX.XZ.V.v.v.b.b.v.l.M.p A..XN.G.G.G.G.N.N.N.G.G.G.G.G.G.G.A.c ] OXU.D.D.S.D.S.S.G.G.G.G.G.G.Z.B.B.B.c.l.l.k.k.c.c.k.c.c.l.l.v.k.k.v.x.l.k.' ' ` V m M.M.M.B.B.B.B.B.B.v.B.N.B.B.B.B.B.B.v.v.v.B.B.B.B.B.B.v.B.B.B.B.B.z.z.c.} ` ` ' ' [ /.,.: O - h C N N N N N N B f d s y y y 6 < : +   . X & 4 9 r Y T T @.T 8 : + 4 r r K U R R W U @   < j p V ` G [ ' ' ' ` A C S V i ] } c.[ [ [ ] V j _ [ [ l o * +X6XwXwXeX3X#., g.r.,.:.,.,.,.,.,.$.$.T U U +.,.,.#.Y & 8 T P P W ~ , . h.mXMXBXBXBXCXHXKXPXPXPXPXPXPXPXPXPXPXPXPXPXPXPXPXPXPXPXPXPXPXPXPXPXPXPXPXPXPXPXPXPXPXPXPXPXPXPXPXPXPXPXPXPXPXPXPXPXPXPXPXPXPXPXPXPX",
"PXPXPXPXPXPXPXPXPXPXPXPXPXPXPXPXPXPXPXPXPXPXPXPXPXPXPXPXPXPXPXPXPXPXPXPXPXPXPXPXPXPXPXPXPXPXPXPXPXPXPXPXPXPXPXPXPXPXPXPXKXFXsXX 0 >XxXuXcXr.$ *.{.8.7.8.8.6.6.6.7.8.7.6.7.7.7.7.3.1.&.4 : Y W W +.T : o $ J v b b b b b c b b b c M M.D.D.S.H.G.S.N.B.N.M.l.} ) >   U 9XlXrX Xe.s.r.r $ + 5 w I U L L L L R R R L W W U K 0 * o   o - 6 h x c b V V M M M V V M m V J > - < 4.qXqXOXK.V.V.B.B.b.b.v.l.M.d A..XB.G.G.G.G.B.B.B.G.G.G.G.G.G.G.A.d ] OXU.S.D.D.G.D.D.G.G.G.G.G.G.Z.B.B.B.c.l.l.k.c.c.c.c.c.c.k.z.v.k.k.v.x.l.' ' ` ` m m M.M.M.B.B.B.B.B.B.B.B.B.B.B.B.B.M.B.v.v.z.v.v.B.v.v.v.v.B.B.B.B.B.z.c.M.[ F F ' G ' ] ^.>.> @ $ x / V N N N N B m m k i u u y a 1 < : +     X X & = 0 w 8 * + @ 0 $.*.K H H L R W K +   < j p V ` G [ ' ' ' ` A C C M p { } c.[ [ [ ] V j _ [ [ v o * |.6XwXwXwX3X+., d.r.,.>.,.,.,.,.:.*.+.U T T $.,.,.#.Y & 8 W W P W ~ , . h.mXMXNXBXBXCXHXKXPXPXPXPXPXPXPXPXPXPXPXPXPXPXPXPXPXPXPXPXPXPXPXPXPXPXPXPXPXPXPXPXPXPXPXPXPXPXPXPXPXPXPXPXPXPXPXPXPXPXPXPXPXPXPXPXPX",
"PXPXPXPXPXPXPXPXPXPXPXPXPXPXPXPXPXPXPXPXPXPXPXPXPXPXPXPXPXPXPXPXPXPXPXPXPXPXPXPXPXPXPXPXPXPXPXPXPXPXPXPXPXPXPXPXPXPXPXPXKXFXsXX 0 >XxXuXcXr.$ *.{.8.7.8.8.6.6.6.7.6.7.7.7.7.6.7.3.1.&.4 : Y W W +.Y : o $ J v x b b b b c b b b c M M.D.D.S.D.S.S.B.B.D.M.l.} ] >   T 9XzXrX#XP.`.d.5.r * + , w U W R L L R R E W W H 0 % .     - 6 H x b m m B b b M M M m M V V c < O O E $XqX%XQ.V.B.B.B.B.V.V.v.c.A.d A..XM.G.G.G.G.Z.Z.Z.G.G.G.G.G.G.G.A.i [ OXY.D.D.G.D.D.G.G.G.G.G.S.G.V.B.B.B.c.l.l.x.x.c.c.c.c.c.k.z.v.x.x.v.x.' ' ' ' ` m B M.M.B.B.B.N.B.z.B.B.B.B.B.B.B.B.v.B.B.B.v.v.v.B.v.v.v.v.B.B.B.B.B.z.M.M.c.G F F F ` M C /.q.> # - a b C Z Z Z B m m k k j s y t y y 1 1 > # +           X + 4 ~ 6.3.:.h h L L U R K +   < j p V ` ' [ ' [ [ ] C C C m p } } } [ [ [ ] V z _ [ [ v o $ |.1XwXwXwX3X+.5 {.9.,.:.>.,.,.:.$.,.W U U +.*.,.,.#.Y & 8 W Q P W ~ , . h.nXMXNXBXBXCXHXKXPXPXPXPXPXPXPXPXPXPXPXPXPXPXPXPXPXPXPXPXPXPXPXPXPXPXPXPXPXPXPXPXPXPXPXPXPXPXPXPXPXPXPXPXPXPXPXPXPXPXPXPXPXPXPXPXPX",
"PXPXPXPXPXPXPXPXPXPXPXPXPXPXPXPXPXPXPXPXPXPXPXPXPXPXPXPXPXPXPXPXPXPXPXPXPXPXPXPXPXPXPXPXPXPXPXPXPXPXPXPXPXPXPXPXPXPXPXKXHXGXsXX h >XxXxXcXi.$ 5.|.3.3.8.8.8.8.7.7.8.8.8.8.7.7.7.3.1.&.3 * Y T ~ @.Y : o : J v b b c v b c v b b c V A.D.D.H.D.N.N.N.N.D.B.j.l.] 6   O.gXlXeXoXe.'.p.6.+.Y 5 + & 0 K U P L W U U q 4 +     o @ < h v z V V V V V V B c M M M M C b < @ O h oXqXqX.XZ.B.B.B.B.B.B.B.v.c.A.d F.(.B.H.G.G.D.G.G.G.G.G.G.G.S.Z.G.A.i ;.OXY.S.G.G.G.G.G.G.G.G.G.B.B.V.B.B.S.v.c.x.k.k.c.v.v.v.v.c.v.v.k.k.v.k.' ' ' ` ` p C S.M.M.M.M.M.N.B.B.B.V.V.V.B.M.S.S.S.B.V.v.v.v.S.v.v.v.B.B.B.B.z.v.z.c.c.l.F A A A ` V p } .XF.1 X o < J / Z Z N B m n n m n j u u t t a a y < ; - -   . , W 2.3.2.q.:.h H L L L L K + o < j k V ' ' [ [ [ [ ' C C S m k } } [ [ [ [ ] b j ` [ [ l o $ |.6X1XwX6X>X.., @X9.,.>.>.,.,.*.1.%.T U P *.*.:.#.#.Y & 8 W W E W @., . h.mXMXMXmXMXAXKXKXPXPXPXPXPXPXPXPXPXPXPXPXPXPXPXPXPXPXPXPXPXPXPXPXPXPXPXPXPXPXPXPXPXPXPXPXPXPXPXPXPXPXPXPXPXPXPXPXPXPXPXPXPXPXPXPXPX",
"PXPXPXPXPXPXPXPXPXPXPXPXPXPXPXPXPXPXPXPXPXPXPXPXPXPXPXPXPXPXPXPXPXPXPXPXPXPXPXPXPXPXPXPXPXPXPXPXPXPXPXPXPXPXPXPXPXPXPXKXHXFXsXX h 4XxXxXcXa.$ *.{.3.3.8.0.8.8.8.7.8.8.7.7.7.7.7.3.1.&.4 * r T ~ @.Y : o : J v v b c b b v v b b c M A.D.D.H.H.G.N.N.B.D.M.j.l.] <   ! gXrXeX#Xe.'.p.6.^ ~ T w : @ , 0 K K 0 5 * o     o - 6 h v b b V V V V V V V V V M M M V J 6 - - 6  XeXqXXXZ.N.B.B.B.B.B.B.V.z.c.A.d P.(.B.G.H.H.D.G.G.G.G.G.G.G.S.Z.G.A.i <.OXY.M.S.G.G.G.G.G.G.G.G.B.B.B.S.S.S.v.c.c.k.k.c.c.x.v.v.c.v.v.c.k.l.k.' ' ' ' ` k C N.M.M.M.M.B.N.S.B.B.B.V.V.V.S.S.S.B.B.G.B.v.v.S.v.v.v.B.B.B.B.M.B.M.c.c.l.F F A A ` V d J.S.(.^.H O O - a / C N N N m m m m m k j u u u u y y a a 6 # X I e.<.<.2.4.>.h h L L L U K + o < j k V [ ' [ [ [ [ G D C C k m } c.[ [ [ [ ] z j ] [ [ l o * |.6X1XwX6X3X..5 @X0.,.>.,.,.*.*.*.+.T U ..*.*.*.#.+.Y & 8 T W E P T , . h.mXmXMXmXBXAXHXKXPXPXPXPXPXPXPXPXPXPXPXPXPXPXPXPXPXPXPXPXPXPXPXPXPXPXPXPXPXPXPXPXPXPXPXPXPXPXPXPXPXPXPXPXPXPXPXPXPXPXPXPXPXPXPXPXPX",
"PXPXPXPXPXPXPXPXPXPXPXPXPXPXPXPXPXPXPXPXPXPXPXPXPXPXPXPXPXPXPXPXPXPXPXPXPXPXPXPXPXPXPXPXPXPXPXPXPXPXPXPXPXPXPXPXPXPXPXPXKXFXsXX h ,XxXuXcXi.$ *.{.3.3.8.0.0.8.8.7.8.7.7.7.7.7.7.3.1.&.4 * r T ~ @.Y *   2 J v v b c v b v v b b c M A.D.D.D.D.G.G.N.B.D.M.l.l.] < o Y gXuXeX#Xe.'.i.3.^ T T ~ Y 8 @ + & +       o @ > 6 x v c B B B V V V V V V V V M V V V J 6 @ O 1 }.qXqXOXK.N.B.B.B.B.B.B.N.Z.z.c.A.d P.(.B.Z.H.H.D.G.G.G.G.G.G.G.D.Z.G.A.u F.OXU.B.B.G.G.G.G.G.G.G.G.G.S.S.D.D.D.v.c.c.l.l.c.x.x.x.z.c.c.c.c.k.l.k.' ' ' [ ` p ` B.B.M.M.B.N.B.B.B.S.B.B.V.B.M.M.M.v.B.V.B.v.v.S.S.S.S.B.B.B.B.B.B.M.B.l.c.` F F A _ / d (.S.c.F./.<.> + o > H S C N N N B B m m c k d i u u t u u 6 $ + T q.<.<.3.<.=.h h L L L U U + o < g j V [ ' [ [ ' [ ' F C V k V } c.[ [ [ ] ] z z ` ' [ l o * |.6X1XwX6X3X..5 g.6.,.,.,.,.*.*.*.@.I U #.*.$.$.#.+.T & 8 T P E P T , . h.mXMXMXmXBXAXHXKXPXPXPXPXPXPXPXPXPXPXPXPXPXPXPXPXPXPXPXPXPXPXPXPXPXPXPXPXPXPXPXPXPXPXPXPXPXPXPXPXPXPXPXPXPXPXPXPXPXPXPXPXPXPXPXPXPX",
"PXPXPXPXPXPXPXPXPXPXPXPXPXPXPXPXPXPXPXPXPXPXPXPXPXPXPXPXPXPXPXPXPXPXPXPXPXPXPXPXPXPXPXPXPXPXPXPXPXPXPXPXPXPXPXPXPXPXPXPXKXGXsXX h >XxXuXcXi.$ *.{.3.3.8.8.9.8.8.8.8.8.7.7.7.7.7.3.1.&.4 * Y T @.@.Y : o 2 J v v b x b b z z z z z V M.N.Z.D.H.Z.Z.N.N.D.M.j.l.` < o I gXuX6X#Xe.p.t.3.W P P P P Y q +   X @ @ > < a g j c c c B M B M M M V M M V M V V / J 6 @ O 6 ^.qXqX%XY.B.B.B.B.B.B.B.B.N.Z.z.c.A.d P.(.N.Z.G.G.D.G.G.G.G.G.H.G.N.Z.G.A.u F.OXH.N.G.G.G.G.G.G.G.G.G.G.G.S.D.D.D.c.c.c.c.c.c.c.x.x.v.c.c.c.c.c.c.k.[ ' ' [ F p ] S.S.M.M.M.S.S.S.S.S.S.S.S.S.S.A.B.B.B.B.v.v.v.S.S.B.B.v.v.v.v.B.B.M.B.l.c.' F ` ' _ V k (.J.c.c.S.(.<.h - o $ < x V C N N N N m m m B c j i u u i a + + P 4.<.<.<.<.o.h h H L L U I +   > g j V ] ' [ [ [ [ [ ` C V k C } c.[ [ [ ] ] z z _ G [ v o * |.6X1XwX6X3X..5 g.8.,.:.,.,.*.*.$.T K T *.*.$.$.#.+.T & 8 W W E P T , . h.mXMXMXmXBXAXHXKXPXPXPXPXPXPXPXPXPXPXPXPXPXPXPXPXPXPXPXPXPXPXPXPXPXPXPXPXPXPXPXPXPXPXPXPXPXPXPXPXPXPXPXPXPXPXPXPXPXPXPXPXPXPXPXPXPX",
"PXPXPXPXPXPXPXPXPXPXPXPXPXPXPXPXPXPXPXPXPXPXPXPXPXPXPXPXPXPXPXPXPXPXPXPXPXPXPXPXPXPXPXPXPXPXPXPXPXPXPXPXPXPXPXPXPXPXPXPXPXJXsXX 0 >XxXxXcXr.@ *.{.3.3.8.8.9.8.8.8.8.8.7.7.7.6.7.3.1.&.= & Y W @.@.Y : o 2 J x x b x b b z z z z z V M.N.Z.N.Z.N.N.N.N.D.M.j.l.` < o I gXuX6X#Xt.p.t.6.W W W W W T I +   = 0 0 y u u k m c b c B V V V M M M M M M V M / J a - O 6 `.qXqX%XE.G.V.B.B.B.B.B.B.B.N.Z.v.c.} d (.(.N.G.G.G.G.G.G.G.N.G.H.Z.N.V.Z.} i P.OXH.N.G.G.G.G.G.G.G.G.G.G.G.D.S.S.D.c.c.c.c.c.c.v.v.v.v.c.c.c.c.c.c.l.[ ' ' ' A p [ S.S.A.M.A.S.S.S.S.S.S.G.S.S.S.S.S.S.B.B.v.v.v.S.S.S.S.S.m.S.S.M.B.M.B.l.c.' F ' ' ` c c (.J.v.v.} v.L.(.| 6 + o - 1 c B N N m N m m m V V c u i p y O + W 4.<.<.2.2.o.h H K L L U I +   > g p ) ] ` ] [ [ [ [ ` C M k ` } } [ [ [ ] ] b z ` ' [ v + & [.6X1XwX6X3X..5 g.8.,.:.,.,.*.*.+.I K +.,.*.$.#.#.+.Y @ 8 W W E P Y , . h.mXMXMXmXBXAXHXKXKXKXPXPXPXPXPXPXPXPXPXPXPXPXPXPXPXPXPXPXPXPXPXPXPXPXPXPXPXPXPXPXPXPXPXPXPXPXPXPXPXPXPXPXPXPXPXPXPXPXPXPXPXPXPXPXPX",
"PXPXPXPXPXPXPXPXPXPXPXPXPXPXPXPXPXPXPXPXPXPXPXPXPXPXPXPXPXPXPXPXPXPXPXPXPXPXPXPXPXPXPXPXPXPXPXPXPXPXPXPXPXPXPXPXPXPXPXPXPXJXsXX 0 >XxXxXcXr.@ 5.|.3.3.8.8.9.8.8.8.8.8.7.7.7.6.7.3.1.&.= * Y W @.@.Y : o 2 J x x b x v b z z z z z V M.N.Z.Z.Z.N.N.N.S.D.M.l.l.] < o I gXuXeX#Xt.t.t.,.W W P W W P K +   = g y u u i c m V V V V M M M M V M M M M V b l < - - g `.qXqXOXE.Z.Z.Z.B.Z.B.B.B.B.M.B.V.z.c.} d (.U.N.Z.G.G.G.G.G.G.G.G.G.Z.N.Z.G.} u (.XXH.N.G.G.G.G.G.G.G.G.G.G.G.G.S.S.S.c.c.c.c.c.c.v.v.v.v.c.c.c.c.c.c.l.' ' ' ' C p { S.S.S.A.S.S.S.D.D.S.D.S.S.S.A.A.S.S.B.v.v.v.n.S.S.S.S.m.m.S.S.n.m.v.z.l.l.` F F ' ` k V (.G.v.M.c.l.b.G.(./.| > O O - 1 x V V m B N B m c j u i i y O + W q.<.<.2.3.Q h h L K K K K +   > g j ) ] ] ` ] ] ] [ ] C M k ` } [ } [ [ [ ] b z _ [ [ v + @ [.6X1XwXeX3X..5 d.6.:.$.,.*.*.*.T U U $.*.$.$.#.#.+.Y + 8 T W E W @., . h.mXMXMXmXBXAXHXKXKXPXPXPXPXPXPXPXPXPXPXPXPXPXPXPXPXPXPXPXPXPXPXPXPXPXPXPXPXPXPXPXPXPXPXPXPXPXPXPXPXPXPXPXPXPXPXPXPXPXPXPXPXPXPXPXPX",
"PXPXPXPXPXPXPXPXPXPXPXPXPXPXPXPXPXPXPXPXPXPXPXPXPXPXPXPXPXPXPXPXPXPXPXPXPXPXPXPXPXPXPXPXPXPXPXPXPXPXPXPXPXPXPXPXPXPXPXPXPXJXsXX h >XxXxXcXr.@ 6.|.3.3.8.8.9.8.8.8.8.8.7.7.7.6.7.3.1.&.= & Y W +.@.Y : o 2 J x x b x v b z z z z z V M.N.Z.Z.Z.N.Z.N.S.D.M.z.l.] < o I gXzXeX#Xt.t.r.,.W P W E E W K + o : a y y y u c c B B B C N V V M V V V V V M g - + + h }.qXqX&X(.S.N.V.Z.V.Z.B.B.B.S.B.B.B.z.c.{ d (.U.N.Z.Z.G.D.G.G.G.G.G.G.Z.N.Z.G.{ u (.XXH.N.G.G.G.G.G.G.G.G.G.G.G.G.G.G.B.c.c.c.c.c.c.v.v.v.v.c.c.c.c.c.c.k.' ' ' ' A p } S.S.D.D.D.D.D.D.D.D.D.S.S.S.M.M.B.B.v.v.v.v.v.S.S.S.S.m.m.S.S.n.m.v.B.l.l.` F F ( ` d _ (.A.c.M.v.z.l.G j.G.).`.Q - + # 2 6 j c B B B B B c u i d a o + ^ w.4.4.4.2.#.h h h K K K K +   > g j ) ] ] ` ` ] ` ] ] D m c ] } } [ [ [ ] ] b z ` ' [ v + @ f.6X1XwXrX3X..5 d.6.:.$.*.*.*.*.T K @.*.*.$.$.#.#.+.Y + 8 T W E ..@., . h.mXMXMXmXBXAXHXKXKXPXPXPXPXPXPXPXPXPXPXPXPXPXPXPXPXPXPXPXPXPXPXPXPXPXPXPXPXPXPXPXPXPXPXPXPXPXPXPXPXPXPXPXPXPXPXPXPXPXPXPXPXPXPXPXPX",
"PXPXPXPXPXPXPXPXPXPXPXPXPXPXPXPXPXPXPXPXPXPXPXPXKXPXPXPXPXPXPXPXPXPXPXPXPXPXPXPXPXPXPXPXPXPXPXPXPXPXPXPXPXPXPXPXPXPXPXPXPXJXsXX h ,XxXxXcXw.@ *.|.8.8.8.8.8.8.8.8.8.8.8.7.7.8.6.3.1.%.4 * Y W +.+.Y ,   $ J x x b c v b z x v x c M M.N.N.N.Z.Z.Z.V.Z.D.B.z.l.] >   U 9XuXeX#Xe.p.r.,.W P W W W W K +   : y y y u s b b b V M M C / V C C C N V z 6 $ O - E $XqXqXOXE.Z.Z.G.V.V.B.Z.B.B.B.G.S.N.B.z.c.{ d (.U.S.G.G.G.G.G.G.G.G.G.G.G.V.Z.S.` u (..XH.N.N.G.G.G.H.H.H.H.H.G.G.G.S.N.B.l.l.c.c.c.c.c.c.c.c.c.c.c.c.c.c.[ [ G k.' / d M.M.S.S.G.G.G.G.S.S.S.S.S.G.G.S.S.S.v.v.v.v.v.v.m.S.S.S.m.n.A.M.M.M.B.B.c.c.` F ` ( ) j <.(.M.v.v.c.c.c.l.l.l.z./.}.}.l - X . < b m m B B m z u i p u o # >.4.<.4.4.<.o.h h H K K L I +   > g j _ [ ' ' ` ` ' ' ] ` m m [ } } [ [ [ ] ` c k ` G ] v O $ f.9X1XwXrX3X..5 f.6.:.:.*.$.*.+.U K %.*.$.$.#.#.#.#.Y + 8 +.W Q W T , . h.mXMXMXBXBXAXHXKXKXPXPXPXPXPXPXPXPXPXPXPXPXPXPXPXPXPXPXPXPXPXPXPXPXPXPXPXPXPXPXPXPXPXPXPXPXPXPXPXPXPXPXPXPXPXPXPXPXPXPXPXPXPXPXPXPX",
"PXPXPXPXPXPXPXPXPXPXPXPXPXPXPXPXPXPXPXPXPXPXPXPXKXPXPXPXPXPXPXPXPXPXPXPXPXPXPXPXPXPXPXPXPXPXPXPXPXPXPXPXPXPXPXPXPXPXPXPXPXJXsXX h >XxXxXcXw.@ *.|.8.8.8.8.8.8.8.8.8.8.8.7.8.8.6.3.1.%.4 * Y T ^ +.Y :   $ J v x b c v b z v v b b V M.N.N.N.Z.Z.N.N.Z.D.B.z.l.` >   U 9XuXeX#Xe.r.r.,.W P P W P P K +   : y y y u s b b V V V V V C V N V / J h > O - < q.>XqXqXOXI.B.Z.Z.Z.V.B.B.Z.B.B.B.B.N.N.B.z.c.{ k (.U.S.G.G.G.G.G.G.G.G.G.G.G.Z.Z.S._ i .X.XZ.N.G.G.G.G.H.H.H.H.H.G.G.G.S.S.B.l.l.c.c.c.c.c.l.c.c.c.c.c.c.c.l.[ c.j.' ` / p A.M.M.S.S.G.B.v.S.S.S.S.S.S.S.S.S.S.A.v.v.v.v.n.A.A.S.m.m.n.S.M.M.M.M.B.c.c.` F ` ( ) p F.(.M.v.v.c.c.c.c.z.z.l.[ [ F.}.].5   - v M m B B m z u i p u O 4 +XoX`.F.4.4.=.h h L K K L I +   , g j _ [ ' ` ` ` ' ' ] ` M C } } } [ [ [ ] ` c c ] G ] v O @ d.9XwXwXeX3X..5 f.6.:.:.*.$.*.+.K U $.,.*.$.$.#.#.#.Y + 8 +.W Q W T , X h.mXMXMXBXBXAXHXKXKXPXPXPXPXPXPXPXPXPXPXPXPXPXPXPXPXPXPXPXPXPXPXPXPXPXPXPXPXPXPXPXPXPXPXPXPXPXPXPXPXPXPXPXPXPXPXPXPXPXPXPXPXPXPXPXPX",
"PXPXPXPXPXPXPXPXPXPXPXPXPXPXPXPXPXPXPXPXPXPXPXPXPXPXPXPXPXPXPXPXPXPXPXPXPXPXPXPXPXPXPXPXPXPXPXPXPXPXPXPXPXPXPXPXPXPXPXPXPXJXsXX h >XxXzXcXr.@ 5.|.8.8.8.8.6.6.8.8.8.8.8.7.6.6.6.3.1.%.3 * I T W ^ Y ,   * J v b b x v b b b b b b V M.B.N.Z.Z.Z.N.N.Z.S.B.z.l.] >   U 8XrXeX#Xe.e.w.,.W W P W P P K +   : y y y u s b b V M V N V V V V b h 5 $ O - v }.$XqX&XXXH.Z.Z.B.V.V.V.B.B.G.B.B.B.B.M.B.B.z.c.{ k .XU.B.G.G.G.G.G.G.G.G.G.G.S.N.Z.S./ d .X.XD.D.S.H.G.H.H.H.H.H.H.G.G.G.G.G.B.l.l.c.c.c.c.c.x.c.c.v.v.c.c.c.[ [ } ' k.` V d A.M.M.B.S.S.B.B.S.S.S.S.G.S.B.S.S.S.A.v.M.B.M.v.S.v.M.M.A.A.S.B.M.M.M.B.c.c.' F ` ( _ p ^.U.M.M.v.M.c.c.c.c.z.v.k.' A ] F.h O > z m m B B m z s i p u o *  X1X,X$X}.4.X.h h K H K L U +   > g j _ } ' ` ` ` ' ' ] ] D ` c.c.[ [ [ [ [ ] c c [ [ ] J O @ d.6XwXeXrX3X..8 d.6.:.:.*.$.#.T H ^ *.,.,.$.$.$.$.%.Y + 8 +.W Q P Y , . h.mXMXMXBXBXAXHXKXKXKXPXPXPXPXPXPXPXPXPXPXPXPXPXPXPXPXPXPXPXPXPXPXPXPXPXPXPXPXPXPXPXPXPXPXPXPXPXPXPXPXPXPXPXPXPXPXPXPXPXPXPXPXPXPXPX",
"PXPXPXPXPXPXPXPXPXPXPXPXPXPXPXPXPXPXPXPXPXPXPXPXPXPXPXPXPXPXPXPXPXPXPXPXPXPXPXPXPXPXPXPXPXPXPXPXPXPXPXPXPXPXPXPXPXPXPXPXPXJXsXX 0 >XxXzXcXr.@ 5.{.8.8.8.8.7.7.7.7.7.7.7.8.7.7.6.3.1.%.3 * I T W T Y :   $ J v b b c v x b b b x z M M.B.Z.D.H.Z.Z.N.N.D.N.z.l.] 6   U 8XrXeX#Xe.w.r.,.W W P W E P w X   : 1 y y u s b V M M M M V S / h < - o - 6 q.oXqXqX&X_.H.Z.B.B.V.B.S.S.B.B.S.B.B.B.B.M.B.B.z.c.{ k .XU.S.G.G.G.G.G.G.G.G.G.S.S.N.Z.S.V k XX.XD.S.S.G.G.H.H.H.H.H.H.G.G.G.G.V.B.l.k.c.x.c.c.k.k.x.c.v.v.c.c.c.[ k.[ ' k.] B m A.B.S.B.B.S.S.B.M.M.M.S.G.S.v.S.S.S.A.M.B.M.M.v.S.v.M.M.M.A.B.v.B.z.M.B.z.c.' F A ( / p (.P.M.v.v.M.M.M.z.c.c.v.l.[ F ` / ; O > z m m B B m z s u p u o :  X1X,X,X,X X=.h h H K K L I +   > h j _ } [ ` ` ` ` ` ] [ [ [ } c.[ [ [ ` ] ` c b [ G ] J O + d.6XwXeXeX3X..8 g.6.:.:.$.$.+.T H +.*.*.:.$.$.$.$.%.Y + 8 +.W Q W Y , . h.mXMXmXBXBXAXHXKXPXPXPXPXPXPXPXPXPXPXPXPXPXPXPXPXPXPXPXPXPXPXPXPXPXPXPXPXPXPXPXPXPXPXPXPXPXPXPXPXPXPXPXPXPXPXPXPXPXPXPXPXPXPXPXPXPX",
"PXPXPXPXPXPXPXPXPXPXPXPXPXPXPXPXPXPXPXPXPXPXPXPXPXPXPXPXPXPXPXPXPXPXPXPXPXPXPXPXPXPXPXPXPXPXPXPXPXPXPXPXPXPXPXPXPXPXPXPXPXFXsXX 0 >XxXxXzXr.@ 5.{.8.8.6.8.7.7.7.6.6.7.7.7.7.7.6.3.1.%.3 * I T T T Y : o $ J v b b c v b z b c x z M M.B.Z.D.H.G.G.Z.N.D.M.z.l.] 6   K 8XrXeX#Xe.w.r.,.W W W W E P w X   : 1 y y u u V V M M M b b h < - O - ; | XX,XqXqXOXE.G.Z.Z.V.V.V.B.S.S.S.V.B.B.B.B.B.M.M.B.z.l.{ k .XU.S.G.G.G.G.G.G.G.G.G.S.S.N.Z.S.B c OX.XH.D.G.G.G.G.H.H.G.G.G.G.G.G.G.V.B.z.l.c.l.c.l.k.k.x.k.x.v.v.c.c.k.k.[ ' k.] B m A.B.S.B.B.S.S.M.A.A.A.S.S.G.S.S.S.S.M.M.M.M.M.M.M.M.M.M.M.A.v.v.B.z.M.B.z.c.' F A ( V p (.P.M.v.c.M.c.M.c.c.l.c.[ [ F ` / < o > z m m B m m z s u p u o :  X1X,X,X1X>X2.h h H H L L U +   > h j ] } [ [ ` ` ` ` ` [ } [ } c.[ [ [ ` ] ` z b [ G ` J O + d.6X1XwXwX3X@.5 g.6.,.$.$.$.+.U K $.*.*.$.$.$.$.$.%.Y + 8 ^ W Q W Y , . h.nXMXmXMXBXAXHXKXPXPXPXPXPXPXPXPXPXPXPXPXPXPXPXPXPXPXPXPXPXPXPXPXPXPXPXPXPXPXPXPXPXPXPXPXPXPXPXPXPXPXPXPXPXPXPXPXPXPXPXPXPXPXPXPXPX",
"PXPXPXPXPXPXPXPXPXPXPXPXPXPXPXPXPXPXPXPXPXPXPXPXPXPXPXPXPXPXPXPXPXPXPXPXPXPXPXPXPXPXPXPXPXPXPXPXPXPXPXPXPXPXPXPXPXPXPXPXPXFXsXX h >XxXxXzXr.@ 5.|.8.8.7.8.7.7.7.7.7.7.7.7.7.7.6.3.1.%.4 * I T W T Y :   $ J v b b c v b z b c x z V M.B.N.S.H.H.G.Z.D.D.S.z.l.] 6   K 8XrXeX#Xe.e.r.,.W W Q W E P w X   * 1 1 y u s V V M M V g - @ o - ; ) $XqXqXqX%X_.H.G.G.G.V.V.V.B.S.S.S.S.V.B.B.B.B.B.M.B.B.z.c.] k .XU.S.G.G.G.G.G.G.G.S.G.G.S.B.N.D.B V OX).S.S.G.G.G.G.G.G.G.G.G.G.G.G.G.V.b.z.z.z.l.c.l.k.k.c.c.x.v.v.x.x.k.k.} ' ' ] B m A.G.G.S.S.S.M.A.S.S.S.v.m.G.S.S.S.S.v.v.v.M.M.B.B.M.M.M.M.v.v.v.B.M.M.B.z.c.' F A ( V j (.F.c.c.c.c.c.c.c.l.l.c.c.[ F ` / > o > z m m B m m c s u p u o :  X1X1X,X,X>X3.h h H H L L U +   > g j ] } [ [ ' ' ` ' ` } } [ } c.[ [ [ ` ] _ z b [ G ` J O + d.9X1XwXwX3X@.5 f.6.,.$.$.$.+.K U *.*.$.$.$.$.$.$.%.Y + 8 ^ W Q W Y , . h.nXMXmXmXBXAXHXKXKXPXPXPXPXPXPXPXPXPXPXPXPXPXPXPXPXPXPXPXPXPXPXPXPXPXPXPXPXPXPXPXPXPXPXPXPXPXPXPXPXPXPXPXPXPXPXPXPXPXPXPXPXPXPXPXPX",
"PXPXPXPXPXPXPXPXPXPXPXPXPXPXPXPXPXPXPXPXPXPXPXPXPXPXPXPXPXPXPXPXPXPXPXPXPXPXPXPXPXPXPXPXPXPXPXPXPXPXPXPXPXPXPXPXPXPXPXPXPXGXsXX 0 >XxXxXcXr.@ 5.|.7.8.8.8.7.7.7.6.7.7.7.7.1.7.6.1.1.&.3 * Y T W T Y :   $ J v v b z b b z b v x z V M.M.Z.S.H.H.G.Z.N.D.S.z.l.] 6   U 8XrXeX#Xe.e.r.,.W W W W E P w X   * 6 1 y u i V B M V b 1 o + 8 =.oXqXqXqXOXXXR.H.S.D.S.G.G.V.V.B.B.S.D.G.V.B.B.B.B.B.B.B.B.z.c.] z .XU.D.G.G.G.G.G.G.G.N.S.H.S.B.N.D.m V OX).S.S.G.G.G.G.H.G.G.G.G.G.G.G.G.V.B.l.k.v.c.c.c.k.x.c.c.x.x.x.k.k.k.k.c.G k.] k B A.G.G.S.S.B.M.S.S.S.S.S.v.m.S.S.S.S.v.v.v.M.M.B.M.B.M.M.c.v.v.M.v.M.B.B.z.c.' F A ( c k (.D.c.c.c.c.c.c.c.c.c.z.c.[ G ( / > o > z M M V m m c s i p u o *  X1X,X,X,X>X4.9 H H H K L U +   > g j ] } } [ [ ' ' ' [ } } [ } c.l.[ [ ] ] ` k V ' G ` J @ @ d.6XwXeXwX3X@.5 f.8.,.$.$.$...K T *.*.$.:.$.$.$.*.%.Y + 5 ^ W Q W Y , . h.mXMXmXmXmXAXHXKXPXPXPXPXPXPXPXPXPXPXPXPXPXPXPXPXPXPXPXPXPXPXPXPXPXPXPXPXPXPXPXPXPXPXPXPXPXPXPXPXPXPXPXPXPXPXPXPXPXPXPXPXPXPXPXPXPX",
"PXPXPXPXPXPXPXPXPXPXPXPXPXPXPXPXPXPXPXPXPXPXPXPXPXPXPXPXPXPXPXPXPXPXPXPXPXPXPXPXPXPXPXPXPXPXPXPXPXPXPXPXPXPXPXPXPXPXPXPXKXGXsXX 0 >XxXxXcXr.$ 5.|.7.7.7.8.8.8.3.7.7.7.7.7.7.7.6.1.6.%.3 * r T W T Y :   $ v v v b x b b b b v x z M M.D.S.D.D.S.G.S.N.N.G.c.} { 6 o K 8XrXeX#Xe.e.w.,.W W W W E P w X   * 1 y y u i V V V V / > o <  XeXqXqX&XOX).H.G.G.G.G.G.G.B.B.B.G.B.V.V.G.G.G.B.V.B.B.B.B.B.z.c.` c XXH.B.G.G.G.H.G.G.G.S.G.G.S.B.S.D.k _ OXE.N.S.G.G.G.G.H.H.G.G.G.H.G.G.G.V.B.l.l.c.l.c.c.x.x.z.z.x.x.c.c.c.c.[ [ ' [ ] k V A.B.S.S.S.S.S.S.S.S.S.S.S.S.S.m.v.S.v.v.M.v.M.M.v.v.l.M.M.A.M.M.B.B.M.v.z.B.' F F ` j z .XD.c.c.c.c.v.z.z.z.c.c.c.[ F ` / ; o > l m M B M m z i i p y o : |.6X,X,X,X>Xw.h K K K K L U +   > g k ] } [ [ [ ' ' } [ c.} } [ } [ [ ] ] ` D k V [ G ] R + @ s.6XwXeXrX3X@.5 d.6.*.*.*.#.P K ..*.*.,.,.$.$.$.$.*.Y + 5 ^ W E W Y : X h.mXMXMXmXBXAXHXKXKXPXPXPXPXPXPXPXPXPXPXPXPXPXPXPXPXPXPXPXPXPXPXPXPXPXPXPXPXPXPXPXPXPXPXPXPXPXPXPXPXPXPXPXPXPXPXPXPXPXPXPXPXPXPXPXPX",
"PXPXPXPXPXPXPXPXPXPXPXPXPXPXPXPXPXPXPXPXPXPXPXPXPXPXPXPXPXPXPXPXPXPXPXPXPXPXPXPXPXPXPXPXPXPXPXPXPXPXPXPXPXPXPXPXPXPXPXPXKXGXsX# 0 >XxXxXcXr.$ 5.|.3.7.7.8.6.6.7.8.7.7.7.7.7.7.6.1.6.%.3 * r T T T Y :   $ v v x b c b b b b v x z M M.B.D.D.S.S.S.S.N.N.N.M.} { 6 o K 8XzXrX#Xe.w.w.,.W W W W E P w X   : 1 a y u i V M V V / > o H 4XqXOXXX).J.G.G.G.G.G.G.G.B.B.B.S.B.B.B.B.B.B.S.B.B.B.B.M.M.B.z.l.F V XXD.B.G.G.G.G.H.G.H.S.S.G.N.N.D.A.p ] OXE.Z.S.S.G.G.H.H.H.H.H.H.G.G.G.G.G.B.l.l.c.k.l.l.k.x.z.v.v.v.c.c.x.x.[ ' k.k.] k m A.B.S.S.S.S.G.G.S.S.S.S.S.S.S.m.v.v.v.v.v.v.M.M.v.v.} { { { M.M.l.z.z.v.B.B.' F ` ( j b }.D.c.c.c.c.c.z.z.v.c.c.c.[ F ` / - o > z M M V M m z i i p y o : |.6X,X,X,X>Xw.h h K K K L U +   > g k ] } [ [ [ ' ' } [ } c.} [ } [ [ ] ` ` D k V ' G ] R + @ s.6X6XeX6X3XT 5 g.6.,.,.*.#.T K #.*.*.,.,.$.:.:.$.*.Y + 8 ^ W E W Y : X h.mXMXMXmXBXAXHXKXKXPXPXPXPXPXPXPXPXPXPXPXPXPXPXPXPXPXPXPXPXPXPXPXPXPXPXPXPXPXPXPXPXPXPXPXPXPXPXPXPXPXPXPXPXPXPXPXPXPXPXPXPXPXPXPXPX",
"PXPXPXPXPXPXPXPXPXPXPXPXPXPXPXPXPXPXPXPXPXPXPXPXPXPXPXPXPXPXPXPXPXPXPXPXPXPXPXPXPXPXPXPXPXPXPXPXPXPXPXPXPXPXPXPXPXPXPXPXKXGXsX# 0 >XxXxXcXr.$ 5.|.3.7.7.8.6.7.7.7.7.7.7.7.7.7.6.1.6.%.3 * r T T T Y :   $ l v x v c b b b v b c c M M.B.B.D.S.S.S.S.Z.N.Z.M.} { 6 o K 8XrXrX#Xe.w.w.,.W W W W E P w X   : 1 y u u u m M M V / > o H 4XOXU.H.G.G.G.G.G.G.G.B.S.B.B.B.B.S.G.G.G.B.G.G.B.B.B.B.M.M.B.z.l.D V XXD.B.G.G.G.G.G.G.H.S.S.S.N.N.G.A.p ] OXY.N.S.G.G.G.H.H.H.H.H.G.G.G.G.G.G.B.l.l.x.k.l.l.k.x.z.v.x.v.c.c.c.c.[ ' k.k.` d V A.B.S.S.S.S.S.S.S.S.S.S.S.S.S.v.v.v.A.v.v.z.M.M.c.{ B d p m { } c.z.v.b.B.B.' F ` ( j V }.D.c.c.c.c.c.v.z.c.c.c.c.[ F ` / - o > z M m B M M z i i p y o & |.6X1X,X,X>Xw.h h K K K L U +   > j k ] } [ [ [ ' ' } } [ [ [ [ } [ [ ] ` ` D k V ' G ] R + @ s.6X6XeX6X3XT , g.0.,.,.*.+.T U *.*.*.,.,.$.*.$.$.*.Y + 8 ^ W P P Y : . h.mXMXMXmXmXAXHXKXKXPXPXPXPXPXPXPXPXPXPXPXPXPXPXPXPXPXPXPXPXPXPXPXPXPXPXPXPXPXPXPXPXPXPXPXPXPXPXPXPXPXPXPXPXPXPXPXPXPXPXPXPXPXPXPXPX",
"PXPXPXPXPXPXPXPXPXPXPXPXPXPXPXPXPXPXPXPXPXPXPXPXPXPXPXPXPXPXPXPXPXPXPXPXPXPXPXPXPXPXPXPXPXPXPXPXPXPXPXPXPXPXPXPXPXPXPXPXKXGXsXX 0 >XxXxXcXr.@ 5.|.7.7.7.8.7.7.8.7.7.7.7.7.7.7.6.1.6.&.3 * r P T T T : o $ v v x v b b b b b b c c V M.D.D.D.S.S.H.S.B.N.Z.M.} { 6   K 8XrXrX#Xe.w.w.,.W W W W E W w X   * 1 1 y u u M M M V / >   H 4XXXN.G.G.G.V.G.G.G.G.G.B.B.B.B.G.G.G.G.G.G.G.G.B.B.B.B.S.B.v.z.c.C V XXD.B.G.G.G.H.H.G.G.S.S.B.B.N.G.n.i ;.OXK.N.N.H.G.G.G.H.H.H.H.G.G.G.G.G.G.B.l.l.c.l.l.l.x.x.c.v.k.c.c.c.c.x.k.' ' [ ] k C A.S.S.G.G.G.G.G.S.B.S.S.G.G.S.v.v.M.M.v.v.v.M.M.} V u d c i k } M.z.v.V.B.B.[ ` ` A j ) .XM.l.c.c.c.c.z.z.c.c.c.c.[ F ( B ; o > l m m B M M z i i p y o : {.6X,X1X,X>Xw.h K K K K U U +   > j z | ;.[ [ c.} [ } [ [ [ } [ c.[ [ ] ` ` S k V ' G ` E @ @ s.6XwXeXrX3XT 4 g.0.,.:.$.+.U T *.*.*.,.:.$.$.$.$.*.Y + 5 ^ W Q W Y , . h.mXmXMXmXmXAXHXKXKXPXPXPXPXPXPXPXPXPXPXPXPXPXPXPXPXPXPXPXPXPXPXPXPXPXPXPXPXPXPXPXPXPXPXPXPXPXPXPXPXPXPXPXPXPXPXPXPXPXPXPXPXPXPXPXPX",
"PXPXPXPXPXPXPXPXPXPXPXPXPXPXPXPXPXPXPXPXPXPXPXPXPXPXPXPXPXPXPXPXPXPXPXPXPXPXPXPXPXPXPXPXPXPXPXPXPXPXPXPXPXPXPXPXPXPXPXPXKXGXsXX 0 >XxXxXcXr.@ 5.|.3.7.6.6.7.7.7.7.6.6.7.7.7.7.6.3.6.&.3 * r P T T T : o $ l v x v b b b b b b c c M M.D.D.H.D.S.S.S.Z.H.H.M.} { 6   K 8XrXeX#Xe.w.w.,.W W W W W W w X   : 1 y y u u c M M V / > o H $X.XB.G.V.G.G.G.G.G.G.S.B.B.G.G.G.G.B.G.G.G.G.G.B.B.B.B.S.B.v.z.c.C S XXD.B.G.G.G.H.G.G.G.B.S.B.G.H.G.c.i A.OXK.N.N.G.G.G.H.H.H.H.H.G.G.G.G.G.G.N.' ' c.c.c.c.c.k.x.x.k.x.c.x.k.k.k.[ k.x.] k C A.G.S.G.G.G.G.G.m.v.S.S.S.S.m.v.M.M.n.n.v.z.c.A.) u k ( ` C i V } M.v.B.B.B.[ ` ` A i _ .XB.c.c.c.c.c.z.z.c.c.c.c.[ F ( B ; o > z M m B V m z i i p y o : {.6X,X1X,X>Xe.h K K K K U U +   > j c | } } [ c.c.c.c.c.c.c.c.l.c.l.[ ] ` ` C k S ' F ` E + @ s.6XwXwXeX3X~ 5 g.0.,.:.#...K T *.*.*.,.$.$.$.$.$.*.Y + 5 ^ W Q W Y , . h.mXmXMXmXmXAXJXKXKXKXPXPXPXPXPXPXPXPXPXPXPXPXPXPXPXPXPXPXPXPXPXPXPXPXPXPXPXPXPXPXPXPXPXPXPXPXPXPXPXPXPXPXPXPXPXPXPXPXPXPXPXPXPXPXPX",
"PXPXPXPXPXPXPXPXPXPXPXPXPXPXPXPXPXPXPXPXPXPXPXPXPXPXPXPXPXPXPXPXPXPXPXPXPXPXPXPXPXPXPXPXPXPXPXPXPXPXPXPXPXPXPXPXPXPXPXPXKXGXsXX h >XxXxXcXr.@ 6.|.3.8.6.6.7.7.7.3.6.6.6.7.7.6.6.3.6.&.3 * r T T T Y : o $ l J x v b b b b b b v c M M.D.D.H.S.S.S.S.D.Z.Z.B.} { 6   K 8XrXeX#Xe.w.w.,.W W W W W W w X   : 1 y y u u m M m V / > o H $X.XB.G.V.G.G.G.G.G.G.G.B.G.G.G.G.B.B.G.G.G.G.G.B.B.B.S.S.B.B.z.c.C _ XXD.B.G.G.G.H.S.G.G.B.S.B.S.D.G.} i P.OXH.N.N.G.G.G.H.G.H.H.H.H.G.G.G.G.S.N.G F c.l.l.c.c.x.x.z.k.l.c.k.k.' k.l.k.x.` d _ A.b.G.G.G.G.G.G.v.v.S.S.S.m.v.A.M.v.v.v.v.v.c.<.b u S G ' { k d } c.z.B.z.B.[ F ` F s ] .XM.c.c.c.c.c.z.v.c.c.c.c.[ F ( V ; o > z M M V V m z i i p y o : {.6X,X1X,X>Xe.h K K K K U U +   > j k | c.[ [ [ c.c.c.l.[ [ c.[ c.c.[ ] F F C k _ ' F ] E @ @ s.rXwXwXeX3X~ 5 g.6.,.,.#.W K W *.*.$.*.$.$.$.$.$.*.Y + 5 ^ W Q W Y , . h.mXMXMXmXBXAXJXKXKXKXKXPXPXPXPXPXPXPXPXPXPXPXPXPXPXPXPXPXPXPXPXPXPXPXPXPXPXPXPXPXPXPXPXPXPXPXPXPXPXPXPXPXPXPXPXPXPXPXPXPXPXPXPXPXPX",
"PXPXPXPXPXPXPXPXPXPXPXPXPXPXPXPXPXPXPXPXPXPXPXPXPXPXPXPXPXPXPXPXPXPXPXPXPXPXPXPXPXPXPXPXPXPXPXPXPXPXPXPXPXPXPXPXPXPXPXPXKXGXsXX h ,XxXxXzXw.@ 6.{.3.7.7.6.6.7.3.3.7.7.7.7.7.8.6.3.6.&.3 * r T W T Y : o $ J J J b b b b b b b b c M M.D.D.H.S.S.S.D.Z.N.N.B.} { 6   K 8XrXrX#Xe.w.w.,.W W W W W Q K #   : 1 y y u u M C V C / > o H $X.XN.G.G.G.G.G.H.G.G.G.G.B.G.G.G.G.G.G.G.G.G.G.B.B.B.G.S.S.B.z.c.N ] XXD.N.G.G.G.H.G.G.G.S.G.B.N.N.S.{ i ^.OXZ.N.N.H.G.G.G.G.G.H.H.H.G.G.S.S.B.M.G A c.[ k.k.c.v.v.v.k.l.l.l.l.k.k.[ [ [ ` p ` A.b.G.G.G.G.G.G.v.v.m.S.S.v.v.v.v.v.v.v.v.v.c.{ d j ] ' k.} ` i ` c.l.z.z.B.l.` ` ` u ] .XM.l.M.v.c.c.z.v.l.l.c.l.[ F F V > o > z m M V V m z i i p y o & {.6X,X1X,X>Xe.h H h K K U U +   > j k ] } [ [ c.l.x.c.c.c.c.c.[ c.c.[ ] F F V k _ ' G ] E @ @ s.rXwXwXrX3XT 5 g.6.,.,.#.T K #.*.*.$.$.$.$.$.$.$.*.Y + 5 @.W E W Y , . h.mXMXNXBXBXAXJXKXKXKXKXPXPXPXPXPXPXPXPXPXPXPXPXPXPXPXPXPXPXPXPXPXPXPXPXPXPXPXPXPXPXPXPXPXPXPXPXPXPXPXPXPXPXPXPXPXPXPXPXPXPXPXPXPXPX",
"PXPXPXPXPXPXPXPXPXPXPXPXPXPXPXPXPXPXPXPXPXPXPXPXPXPXPXPXPXPXPXPXPXPXPXPXPXPXPXPXPXPXPXPXPXPXPXPXPXPXPXPXPXPXPXPXPXPXPXPXKXGXsX% 0 >XxXxXcX6.@ 6.|.3.3.7.7.6.7.7.1.7.7.7.6.7.7.6.1.1.&.= * r T W W Y , o : J J J v c b b b b v b z V M.D.S.G.G.G.G.Z.N.D.D.N.l.| 6   U 8XrXeX#Xe.w.w.,.W P T W W P K +   : 1 1 y u u M V V C b - o H $X.XS.G.G.H.H.H.H.G.G.G.V.V.G.G.G.G.G.G.G.G.G.G.G.B.B.Z.G.V.B.c.c.m ] XXD.N.G.G.H.H.G.G.G.S.G.B.G.N.D.] i (.XXZ.N.G.G.S.G.G.G.G.G.G.G.G.G.S.S.S.A.' A } [ k.k.v.c.v.v.k.l.l.l.l.k.k.k.[ ' ` p ` A.v.G.G.G.G.v.v.v.v.m.G.G.v.v.v.v.v.v.v.v.v.c.` i V { [ k.c.{ d V v.v.B.B.B.l.' ` ` u | }.M.l.c.c.c.c.v.c.c.c.c.l.[ F ` b > o > z M m B B m z i i p y o * [.4X,X1X1X>Xt.H h H H K L K + o < g c ] } } [ } } [ [ x.x.x.c.} } c.[ ] ` ` M p D ' G ` E @ $ i.rXwXwX6X3XT 5 d.8.,.$.#.P K #.*.*.$.*.*.$.*.$.$.*.Y % 5 @.W P P Y : X h.mXMXMXBXBXAXJXKXHXPXPXPXPXPXPXPXPXPXPXPXPXPXPXPXPXPXPXPXPXPXPXPXPXPXPXPXPXPXPXPXPXPXPXPXPXPXPXPXPXPXPXPXPXPXPXPXPXPXPXPXPXPXPXPXPX",
"PXPXPXPXPXPXPXPXPXPXPXPXPXPXPXPXPXPXPXPXPXPXPXPXPXPXPXPXPXPXPXPXPXPXPXPXPXPXPXPXPXPXPXPXPXPXPXPXPXPXPXPXPXPXPXPXPXPXPXPXKXGXsX% 0 >XxXxXcX8.@ 6.{.3.3.3.7.6.7.7.1.7.7.7.6.7.7.6.1.1.&.= * r T T T Y , o $ v J x c b b b b b b b z V M.D.S.G.G.G.S.Z.N.D.D.N.l.| 6   U 8XrXeX#Xe.w.w.,.W P P U E P K +   : 1 1 y u u m M V C b -   H $X.XN.G.H.H.H.H.H.H.G.G.G.G.G.G.G.G.G.G.G.G.G.G.G.Z.B.G.N.B.B.c.c.m } .XZ.N.G.G.H.G.H.G.G.N.S.B.B.N.D._ i (.XXZ.N.G.S.S.G.G.G.G.G.S.G.G.G.S.S.S.A.' A } k.c.c.v.c.v.v.k.k.k.l.[ k.k.k.[ ' ` p ` A.v.G.G.G.v.v.v.v.v.v.G.G.v.v.v.v.M.B.M.A.v.} C i _ { [ k.c.} V k c.z.B.B.B.c.' ` ` a | (.M.l.c.c.c.c.v.c.c.c.M.l.[ F ` b > o > z M m B B m z i i p y O * [.4X,X,X1X>Xp.L H K H K L U + o < j c ] } } } c.c.[ [ [ [ [ l.c.c.c.[ ] F ` M p _ ' G ` J @ $ d.rXwXwXrX3XT 5 f.8.,.$.+.P U $.*.*.$.*.*.$.*.$.$.*.Y % 5 @.P P P Y : X h.mXMXMXBXBXAXHXKXHXPXPXPXPXPXPXPXPXPXPXPXPXPXPXPXPXPXPXPXPXPXPXPXPXPXPXPXPXPXPXPXPXPXPXPXPXPXPXPXPXPXPXPXPXPXPXPXPXPXPXPXPXPXPXPXPX",
"PXPXPXPXPXPXPXPXPXPXPXPXPXPXPXPXPXPXPXPXPXPXPXPXPXPXPXPXPXPXPXPXPXPXPXPXPXPXPXPXPXPXPXPXPXPXPXPXPXPXPXPXPXPXPXPXPXPXPXPXKXGXsXX 0 >XxXxXcX8.@ 6.[.3.3.7.8.6.6.7.7.7.7.7.6.7.7.8.3.1.&.3 * r P T T Y : o $ v J x x b b z b b b b z V M.D.S.G.G.G.S.N.N.D.D.B.l.{ 6   I 8XzXrX#Xe.w.w.,.W P T W W P r X   : 1 1 y u u m M C C b - o R $X.XS.G.H.H.G.G.H.G.G.V.G.G.G.G.G.G.G.G.G.G.G.G.G.Z.B.B.S.B.v.c.c.m <..XN.N.G.G.G.G.G.G.N.N.G.B.G.S.D._ p }.XXZ.G.G.B.S.G.G.G.G.G.G.G.G.G.S.S.S.A.' Z ' k.c.c.v.c.v.v.k.k.k.[ [ x.x.k.[ ' ` p ` A.v.G.G.G.G.B.v.G.m.b.b.G.v.v.z.v.A.v.v.v.M.} M p ` { l.k.[ } _ p } z.B.B.B.c.' ` ` s | (.M.l.c.c.c.c.v.c.c.c.c.l.[ F ` b > o > z M m B B m z i i p y o & [.4X1X,X1X4Xt.L H H H K L U + o < j c { c.c.c.} [ [ c.l.l.l.l.l.l.c.} ] F _ M p _ ' G ` E @ $ d.rXwXwXeX3XT 5 f.8.,.#.+.P P *.*.*.*.*.*.*.*.$.$.*.Y + 5 @.P P P Y * X h.mXMXMXBXBXAXHXKXHXPXPXPXPXPXPXPXPXPXPXPXPXPXPXPXPXPXPXPXPXPXPXPXPXPXPXPXPXPXPXPXPXPXPXPXPXPXPXPXPXPXPXPXPXPXPXPXPXPXPXPXPXPXPXPXPX",
"PXPXPXPXPXPXPXPXPXPXPXPXPXPXPXPXPXPXPXPXPXPXPXPXPXPXPXPXPXPXPXPXPXPXPXPXPXPXPXPXPXPXPXPXPXPXPXPXPXPXPXPXPXPXPXPXPXPXPXPXPXFXsXX 0 >XxXxXcX8.$ 6.{.3.2.8.8.6.6.7.7.7.7.7.7.8.7.6.1.6.&.3 & Y T T T Y : o @ l v x x b b j b b v b b V M.D.S.G.G.G.S.N.N.D.D.B.l.] 6   U gXzXrX#Xe.w.w.,.W P W W E P r X   * 1 1 y u u c M V C V >   H $X_.S.G.H.H.G.G.G.G.G.B.S.G.G.G.G.G.G.G.G.G.G.G.G.B.B.B.S.G.v.c.c.m A..XN.Z.G.G.G.G.G.G.B.S.S.G.G.S.D.V p XX.XZ.G.S.N.G.G.G.G.G.G.G.G.G.G.G.S.S.A.' Z [ c.c.c.v.v.v.v.x.k.k.[ k.x.x.k.' ' ` p ` A.V.G.b.G.G.G.G.G.G.G.b.m.v.v.v.v.A.A.A.v.v.[ m d ` } l.k.l.} ` k ` c.B.B.B.c.' ` ` s <.(.M.l.z.c.c.c.v.z.c.l.l.l.[ F F / - o > l M M c M M c i i p y o & [.4X1X1X1X>Xt.H h H H K L U + o > j c | } c.c.} [ l.c.[ [ l.l.[ l.l.[ ] F D V k _ ` G ` E @ $ i.6X1XwXeX3XT 5 d.8.,.$.+.P W *.*.*.*.,.,.*.*.$.$.*.Y + 8 Y W P P Y : . h.mXVXMXBXBXAXHXKXPXPXPXPXPXPXPXPXPXPXPXPXPXPXPXPXPXPXPXPXPXPXPXPXPXPXPXPXPXPXPXPXPXPXPXPXPXPXPXPXPXPXPXPXPXPXPXPXPXPXPXPXPXPXPXPXPX",
"PXPXPXPXPXPXPXPXPXPXPXPXPXPXPXPXPXPXPXPXPXPXPXPXPXPXPXPXPXPXPXPXPXPXPXPXPXPXPXPXPXPXPXPXPXPXPXPXPXPXPXPXPXPXPXPXPXPXPXPXPXGXsXX h >XxXxXcX8.$ 6.[.3.2.7.8.6.7.7.7.6.1.1.6.7.7.6.1.1.&.4 & Y T T T Y :   $ l v x x j j z b b b b b V M.D.S.G.G.G.S.Z.N.D.N.N.l.{ 6   I 8XuXrX#Xe.w.w.,.W P W W P P r X   * 1 y y u u c M C C b -   R $X.XS.G.G.G.G.G.G.G.G.B.B.B.B.B.B.B.B.B.G.G.G.G.Z.B.B.B.G.S.v.c.c.m F.).N.S.G.G.G.D.G.G.S.S.G.G.G.S.D.M k oX.XN.N.S.S.G.G.G.G.H.H.G.G.G.G.G.G.S.A.[ Z ' c.c.c.v.v.v.v.x.x.x.c.c.x.k.k.[ } ` p ` A.G.G.G.G.G.G.G.G.G.v.G.b.G.v.v.v.v.A.M.v.M.] k k { c.l.k.' } { m C c.M.B.B.c.' ` ` s <.(.M.l.c.c.c.c.c.c.c.c.l.l.[ F F V - o > j m M c M M z i p p y o & [.4X,X,X1X>Xp.H h H H K L U + o > j c | } c.c.c.[ [ c.[ [ l.l.l.c.[ [ G F ` M k ` ` G ] E @ $ i.6X1XwXrX3XT 5 d.8.,.$.+.T W *.*.*.*.,.,.*.$.$.$.*.Y + 8 Y W P W Y : . h.mXNXMXBXBXAXHXKXPXPXPXPXPXPXPXPXPXPXPXPXPXPXPXPXPXPXPXPXPXPXPXPXPXPXPXPXPXPXPXPXPXPXPXPXPXPXPXPXPXPXPXPXPXPXPXPXPXPXPXPXPXPXPXPXPX",
"PXPXPXPXPXPXPXPXPXPXPXPXPXPXPXPXPXPXPXPXPXPXPXPXPXPXPXPXPXPXPXPXPXPXPXPXPXPXPXPXPXPXPXPXPXPXPXPXPXPXPXPXPXPXPXPXPXPXPXPXPXJXsXX 0 >XxXxXcX8.$ 6.[.3.2.7.8.6.7.7.7.7.6.6.6.7.7.6.1.1.&.4 & Y T T T Y :   $ l v x x c b b b b b b b V M.D.S.G.G.G.S.Z.N.D.N.N.l.| 6   I 8XlXrX#Xe.w.w.,.W P W T P P r X   * 1 y y u u c M C C b -   H $X.XS.G.G.G.G.G.G.G.S.S.S.G.G.G.G.G.G.G.G.B.Z.Z.B.B.B.B.S.S.v.c.} m P.).N.B.G.G.G.D.G.G.S.N.V.V.S.S.A.B c OX).N.N.N.G.G.G.G.G.H.H.G.G.G.G.G.D.S.A.} C ' c.c.c.v.v.v.v.v.x.c.c.x.x.k.k.[ ' ` p ` A.G.G.G.G.G.G.G.G.b.m.v.v.m.S.v.v.v.A.M.v.M.] p V { c.l.l.[ } } B N M.M.B.B.c.[ ' ` s <.(.M.l.c.c.c.c.c.c.c.c.c.l.[ F A / - o > z M M V M m c i p p y o & [.6X,X,X1X>Xp.H h H H K L U + o > j c | } c.c.c.l.[ c.[ [ l.l.l.c.[ [ ` F ` M k ` ` G ] E @ $ i.eX1XwXrX3XT 5 d.0.,.$.+.T +.*.*.*.,.*.*.*.*.$.$.*.Y & 8 T W P W Y : . h.mXNXMXBXBXAXHXKXPXPXPXPXPXPXPXPXPXPXPXPXPXPXPXPXPXPXPXPXPXPXPXPXPXPXPXPXPXPXPXPXPXPXPXPXPXPXPXPXPXPXPXPXPXPXPXPXPXPXPXPXPXPXPXPXPX",
"PXPXPXPXPXPXPXPXPXPXPXPXPXPXPXPXPXPXPXPXPXPXPXPXPXPXPXPXPXPXPXPXPXPXPXPXPXPXPXPXPXPXPXPXPXPXPXPXPXPXPXPXPXPXPXPXPXPXPXPXPXJXsXX 0 >XxXxXcX8.@ 6.[.3.2.7.8.7.7.7.7.7.7.7.7.7.7.6.1.1.&.4 & Y T T T Y : o $ l v x x b b b b b b b b V M.D.N.G.G.G.G.N.N.D.N.N.M.| 6   I 8XrXrX#Xe.e.w.,.W P W T P P r X   * 1 y y u i m V V C V - o R $X_.S.G.S.G.G.G.G.G.S.N.S.G.G.G.G.G.G.G.B.B.G.G.B.B.B.B.v.S.v.c.} m (.).S.N.G.G.G.S.G.G.B.B.B.B.B.B.A.B V OX).B.N.N.G.G.G.G.D.S.G.G.G.D.D.S.S.S.D.} N ' c.c.c.v.v.v.v.v.c.c.} [ x.x.[ ' [ ` p ] A.G.G.S.B.G.G.V.m.m.m.v.v.v.v.v.v.v.M.v.v.c.` i V { c.c.l.l.c.} C B M.M.B.B.c.[ ] ` s | (.M.l.c.c.c.c.c.c.l.c.c.l.[ G ` J - o < j M m V M m z i i p y O & [.8X1X,X1X>Xp.K h H H K L U + o > g c | } c.c.l.l.l.c.[ l.l.l.[ [ [ [ ` ` ` M k ] F G ] E $ $ i.6X1XwXrX3XT 5 d.0.,.$.+.U +.*.*.*.,.*.*.,.*.$.$.*.Y + 8 T W P W Y : . h.mXMXMXmXmXAXHXKXKXPXPXPXPXPXPXPXPXPXPXPXPXPXPXPXPXPXPXPXPXPXPXPXPXPXPXPXPXPXPXPXPXPXPXPXPXPXPXPXPXPXPXPXPXPXPXPXPXPXPXPXPXPXPXPXPX",
"PXPXPXPXPXPXPXPXPXPXPXPXPXPXPXPXPXPXPXPXPXPXPXPXPXPXPXPXPXPXPXPXPXPXPXPXPXPXPXPXPXPXPXPXPXPXPXPXPXPXPXPXPXPXPXPXPXPXPXPXKXJXdXX 0 >XxXxXcXq.@ 5.{.3.1.8.8.7.6.6.7.7.7.7.7.7.7.7.1.1.%.4 * r P P T Y : o $ l x c x v b c z b b b b V M.N.N.Z.N.N.N.N.B.D.N.B.l.{ 6   K 8XuXrX#Xt.w.e.,.W T W W P P w X   : 1 1 y u u m M V A / - o R $X_.S.S.G.G.G.G.G.H.S.N.G.G.G.G.G.G.S.G.S.G.G.G.V.V.v.V.V.B.c.v.} m (.Y.S.S.G.G.G.G.G.G.S.N.S.S.B.B.S.m C OX).B.N.G.H.G.G.G.D.S.S.G.S.S.M.M.G.S.D.} V ` [ c.c.z.k.x.c.c.c.c.} [ x.k.' k.' ( i ` M.S.S.B.v.B.S.v.B.B.B.v.v.B.v.v.v.v.v.v.v.v._ u _ } l.c.} l.l.c.C c } M.B.B.v.[ ' ` u | (.M.l.c.c.c.c.c.l.l.c.M.c.[ F ` J - o < z M m M M M z i p p y # * [.8X1X,X1X>Xp.H K 0 0 K L U +   > g c { } c.c.c.[ l.c.} c.c.l.l.l.l.] F ` D z k ] F G F E @ @ i.6X1XwXrX3XT , g.0.,.#...T #.*.*.*.*.*.*.,.*.$.$.*.Y + 5 +.W P T Y : . h.mXMXMXmXmXAXHXKXKXPXPXPXPXPXPXPXPXPXPXPXPXPXPXPXPXPXPXPXPXPXPXPXPXPXPXPXPXPXPXPXPXPXPXPXPXPXPXPXPXPXPXPXPXPXPXPXPXPXPXPXPXPXPXPXPX",
"PXPXPXPXPXPXPXPXPXPXPXPXPXPXPXPXPXPXPXPXPXPXPXPXPXPXPXPXPXPXPXPXPXPXPXPXPXPXPXPXPXPXPXPXPXPXPXPXPXPXPXPXPXPXPXPXPXPXPXPXKXJXdX. 0 >XxXxXcXr.+ 6.{.3.1.3.7.1.6.7.7.7.7.7.7.7.7.7.1.1.%.4 * r T T T Y : o $ l x c x v b c z b v b b M M.B.B.N.N.N.N.N.N.D.S.B.l.| 6   K 8XuXrX#Xe.w.w.,.T W W W P W w #   : 1 y y u i c M V A / - o H $X).S.G.G.G.G.G.H.G.G.B.G.G.G.G.H.H.G.G.G.G.G.G.V.V.V.V.V.B.c.c.[ m .XY.S.S.G.G.G.G.G.G.G.N.S.S.B.N.A.f ` OXY.B.G.G.G.G.G.G.S.S.S.S.S.S.S.N.G.S.A.} V ` } c.c.v.z.x.c.c.c.c.} [ x.k.' k.' ` i ` M.G.S.B.v.B.B.B.B.B.G.B.v.B.B.v.v.v.v.v.S.v.C u _ } l.c.} l.l.c.( k } M.B.z.v.[ ] ` i ] (.M.c.c.c.c.c.c.c.l.[ } l.[ ` ` J - o < z M m b M M z i p p y # * [.8X1X,X1X>Xp.H K 0 h K L U +   < g m { } } c.c.[ l.c.} c.c.c.l.l.[ ] F ` D z c ] G G ] Q - @ i.6X1XwXeX3XT , g.0.,.#...P *.,.*.*.*.*.*.,.*.*.$.*.Y + 5 @.P P P Y : . h.mXMXMXMXmXAXHXKXKXPXPXPXPXPXPXPXPXPXPXPXPXPXPXPXPXPXPXPXPXPXPXPXPXPXPXPXPXPXPXPXPXPXPXPXPXPXPXPXPXPXPXPXPXPXPXPXPXPXPXPXPXPXPXPXPX",
"PXPXPXPXPXPXPXPXPXPXPXPXPXPXPXPXPXPXPXPXPXPXPXPXPXPXPXPXPXPXPXPXPXPXPXPXPXPXPXPXPXPXPXPXPXPXPXPXPXPXPXPXPXPXPXPXPXPXPXPXHXHXdXX 0 >XxXxXcXr.+ 5.{.3.1.1.7.1.6.6.7.7.7.6.6.7.6.7.1.1.&.3 & r W T T Y , o $ J x v x v b z j v v x c M ;.B.B.B.B.B.M.N.S.D.G.B.l.| 6   K 8XuXrX#Xe.w.w.,.T W P ^ W W r #   : 1 y y s i c M V A / - o H $X).S.G.G.G.H.H.H.H.G.B.G.G.G.G.H.H.G.G.G.G.G.G.G.G.V.G.V.B.l.c.' m .XL.S.S.S.G.G.G.G.G.S.S.S.S.B.N.n.d ] OXY.B.B.V.B.G.G.G.S.D.G.S.G.G.S.S.G.S.A.} C ` [ c.c.v.v.v.c.c.c.c.x.[ x.k.' k.k.` i ` M.B.S.B.v.v.v.S.S.S.G.G.B.B.S.S.S.S.v.v.v.c.C u _ } l.c.} l.l.c._ k { M.z.z.v.[ ' ` i _ (.A.c.c.c.l.c.c.c.l.[ [ l.[ ` ` J - o < z M M V M M z i p p y # * {.8X1X,X1X>Xi.H h 0 h K L U +   > g m { c.c.} [ [ l.c.} } c.} [ [ [ ] F ` _ z M ] G G F Q - @ s.6X1XwXeX3XT , g.0.*.....T *.,.,.,.,.,.,.,.*.*.$.*.Y + 4 @.P P P T : . h.mXMXMXMXmXAXHXKXPXPXPXPXPXPXPXPXPXPXPXPXPXPXPXPXPXPXPXPXPXPXPXPXPXPXPXPXPXPXPXPXPXPXPXPXPXPXPXPXPXPXPXPXPXPXPXPXPXPXPXPXPXPXPXPXPX",
"PXPXPXPXPXPXPXPXPXPXPXPXPXPXPXPXPXPXPXPXPXPXPXPXPXPXPXPXPXPXPXPXPXPXPXPXPXPXPXPXPXPXPXPXPXPXPXPXPXPXPXPXPXPXPXPXPXPXPXPXHXGXdX. 0 >XxXxXzX8.@ 5.|.3.1.1.7.1.7.7.7.6.1.1.1.7.7.7.1.1.O.3 & r T W W T : o @ l x v b x b c z b v c c M M.B.N.Z.B.B.B.H.S.D.S.B.M.;.6   K 8XrXeX#Xe.w.w.,.T P P W W W r #   : 1 y y u i c M V C / - o H $X).N.G.G.G.H.H.H.G.G.B.G.G.G.G.G.G.G.G.G.G.G.G.G.G.V.V.V.v.l.c.' N .XH.S.S.G.G.G.G.H.G.S.B.S.S.N.B.} p ;.OXI.Z.G.N.S.G.S.S.S.S.G.G.G.G.S.S.B.M.A.c.V ` [ c.c.z.v.v.c.c.c.c.c.x.x.x.[ ' ' ( i ` M.S.S.B.v.z.B.B.S.M.S.B.B.B.S.S.S.S.m.v.v.c.M u ) } l.c.} [ l.c.` d { M.M.B.v.c.' ` j V (.M.l.c.c.c.c.l.c.c.c.} l.[ [ ` / - o < j M M V M M z i p p y o & [.9X1X,X,X>Xp.K h K K K L U + o < j m { } c.} c.c.[ c.} c.c.c.[ [ [ F F F S k z [ G G ] Q - @ i.6X1XwX6X3XT , d.0.*.#.+.T *.*.,.,.*.,.,.$.*.:.$.%.r + 4 ~ W P P T : . h.mXmXmXmXMXAXKXKXPXPXPXPXPXPXPXPXPXPXPXPXPXPXPXPXPXPXPXPXPXPXPXPXPXPXPXPXPXPXPXPXPXPXPXPXPXPXPXPXPXPXPXPXPXPXPXPXPXPXPXPXPXPXPXPXPX",
"PXPXPXPXPXPXPXPXPXPXPXPXPXPXPXPXPXPXPXPXPXPXPXPXPXPXPXPXPXPXPXPXPXPXPXPXPXPXPXPXPXPXPXPXPXPXPXPXPXPXPXPXPXPXPXPXPXPXPXPXHXGXsX. 0 >XxXxXcX8.@ 5.|.3.1.3.7.1.7.7.7.6.1.1.1.7.7.7.1.1.&.3 & r T W W Y : o $ l v v b x b z j x x c c M M.B.N.Z.B.B.z.G.S.D.S.B.M.;.6   K 8XrXeX#Xe.w.w.,.T P P W W W r #   : 1 y y u i c M V C / - o H $X).N.G.G.G.G.G.G.G.G.V.G.G.G.G.G.G.G.G.G.G.G.G.G.G.V.V.V.v.l.c.F C .XH.S.S.G.G.G.G.S.S.S.B.S.S.M.M.} d F.OXI.Z.G.N.G.G.S.S.D.S.G.G.G.G.S.S.B.M.A.c.C A [ c.c.v.v.v.c.c.c.c.} } x.x.' ' ' ` i ` M.S.S.B.v.z.B.B.v.v.v.M.M.M.A.S.S.S.v.v.v.c.M u ) } l.c.c.l.l.c.{ d ] M.M.z.v.c.[ ] j V (.A.l.c.c.c.c.c.c.c.M.M.l.[ ' ` / - o < j M m b M z z i p p y o & [.9X1X,X,X>Xt.K h K K K L U + o > j m { } c.} } [ [ c.} c.c.} [ [ [ ` F F D k M ] G G ] E @ @ i.6X1XwX6X3XT , d.0.*.$.+.W *.*.,.*.*.,.,.$.*.:.$.%.r + 4 ~ W P P T : . h.mXmXMXmXMXAXKXKXPXPXPXPXPXPXPXPXPXPXPXPXPXPXPXPXPXPXPXPXPXPXPXPXPXPXPXPXPXPXPXPXPXPXPXPXPXPXPXPXPXPXPXPXPXPXPXPXPXPXPXPXPXPXPXPXPX",
"PXPXPXPXPXPXPXPXPXPXPXPXPXPXPXPXPXPXPXPXPXPXPXPXPXPXPXPXPXPXPXPXPXPXPXPXPXPXPXPXPXPXPXPXPXPXPXPXPXPXPXPXPXPXPXPXPXPXPXPXKXGXdXX 0 >XxXxXcX8.$ 5.|.3.3.3.1.1.7.7.6.6.1.1.3.7.7.7.1.1.%.3 & r P T T Y : o $ l x v b x b c z b b x z M M.B.N.V.B.B.z.N.B.D.S.B.M.;.0   K 5XrXeX#Xe.w.w.,.T P P ^ W W r X   : 1 y y u i c V V C V - o H $X).S.G.G.G.G.G.G.G.G.G.G.G.G.G.G.G.G.G.G.G.G.G.G.G.V.V.V.B.l.l.F F .XH.S.G.G.S.G.G.N.S.S.S.S.S.B.B.{ p P.OXK.V.G.Z.G.G.S.S.D.S.S.G.G.G.S.S.B.M.A.c.C C [ c.c.z.z.v.c.c.c.c.} [ k.k.' ' ' ` i ` M.B.S.B.v.z.B.B.M.M.M.M.M.M.M.S.S.S.v.v.v.c.m i | c.l.c.} c.l.c.{ k ] M.M.z.v.c.[ ` j c (.D.c.c.c.c.c.c.c.l.[ [ l.[ ' ` / - o < j M M V M M z i p p y o & [.9X1X,X,X>Xr.H h K K K L U + o > g b { } c.} [ [ c.c.} } } [ [ [ [ ` F F D j V ] F G ] E @ + i.6X1XwX6X3X~ , d.6.*.$.+.+.*.*.,.*.*.,.,.$.$.,.$.%.Y + 4 ~ T P P T : . h.mXmXMXMXBXAXHXKXPXPXPXPXPXPXPXPXPXPXPXPXPXPXPXPXPXPXPXPXPXPXPXPXPXPXPXPXPXPXPXPXPXPXPXPXPXPXPXPXPXPXPXPXPXPXPXPXPXPXPXPXPXPXPXPXPX",
"PXPXPXPXPXPXPXPXPXPXPXPXPXPXPXPXPXPXPXPXPXPXPXPXPXPXPXPXPXPXPXPXPXPXPXPXPXPXPXPXPXPXPXPXPXPXPXPXPXPXPXPXPXPXPXPXPXPXPXPXKXGXdXX 0 >XxXxXcXq.$ 6.{.3.7.7.1.1.7.7.7.7.6.6.7.7.7.7.1.1.&.3 & w T W T Y : o $ l x v v x c c z b b b z V M.B.N.N.N.B.z.N.M.D.S.B.M.;.0   I 5XrXeX#Xe.e.w.,.T P P ~ W W r #   : 1 y y u i m V N C V - o R $X).S.G.G.G.G.G.G.G.G.G.G.G.G.G.G.G.G.G.G.G.G.G.G.V.V.V.V.z.l.c.C ` .XH.B.G.G.G.G.G.S.S.S.S.S.N.B.B.{ i (.XXK.Z.G.S.G.G.S.S.D.S.S.G.G.G.D.S.S.N.B.M.C C [ c.c.v.z.x.c.c.c.c.x.k.x.x.' ' ' ` d ` M.B.S.B.v.z.v.S.M.v.M.M.M.A.B.S.S.B.v.z.v.c.k p ` c.c.c.c.c.l.c.{ k _ v.v.z.c.c.[ ' j k (.D.c.c.v.c.c.c.c.c.c.} l.[ ` ` / - o < z M M V M M z i i p y o & [.8X1X,X4X>Xe.H K K K K K K + o < j m { } } } c.l.c.c.} } [ [ [ [ [ ` F F _ j V ` ' G ] E @ + i.6X1XwX6X3X~ , d.6.*.#.+.+.*.*.,.*.*.,.,.$.$.$.$.*.Y + 4 T T P P T : . h.mXMXMXMXBXAXHXPXPXPXPXPXPXPXPXPXPXPXPXPXPXPXPXPXPXPXPXPXPXPXPXPXPXPXPXPXPXPXPXPXPXPXPXPXPXPXPXPXPXPXPXPXPXPXPXPXPXPXPXPXPXPXPXPXPX",
"PXPXPXPXPXPXPXPXPXPXPXPXPXPXPXPXPXPXPXPXPXPXPXPXPXPXPXPXPXPXPXPXPXPXPXPXPXPXPXPXPXPXPXPXPXPXPXPXPXPXPXPXPXPXPXPXPXPXPXPXKXGXdXX 0 >XxXxXzX8.@ 6.{.3.7.7.1.1.7.7.7.7.7.7.7.7.7.6.1.1.&.3 & r P W W Y : o $ v v x x c c z z b b b z M M.M.B.N.N.B.z.Z.B.D.S.B.M.;.0 o I 8XrX9X#Xe.r.w.,.W P P ~ W T r #   : 1 1 y s i m V N C V -   R $X).S.G.G.G.G.G.G.G.G.G.G.G.G.G.G.G.G.G.G.G.G.G.G.V.V.V.Z.c.l.} C } .XG.B.G.G.G.G.H.G.G.S.S.N.B.B.N.` d (.XXG.N.N.B.S.D.S.S.S.S.S.S.S.D.G.G.S.S.B.M.C V [ c.c.c.c.x.x.c.x.c.x.k.x.' ' ' ' ` d ` M.B.B.B.v.v.B.S.M.v.B.M.v.n.S.v.M.M.v.c.z.c.c p ] c.c.c.c.c.c.c.[ k _ } v.M.l.l.l.' b i (.D.c.v.c.c.l.c.c.c.c.c.l.[ ` F / - o < z m V V B B z i p d y o & [.6X1X6X4X>Xe.L h K K K K U +   < j m { } c.c.c.c.c.c.c.c.[ [ [ } ] ` F F _ j C ' ' G ] E @ @ s.6X1XwX6X3X+., d.8.*.$.+.#.$.,.,.,.,.,.,.$.$.$.$.%.Y + , @.T P P Y : . h.mXmXMXmXBXAXHXPXPXPXPXPXPXPXPXPXPXPXPXPXPXPXPXPXPXPXPXPXPXPXPXPXPXPXPXPXPXPXPXPXPXPXPXPXPXPXPXPXPXPXPXPXPXPXPXPXPXPXPXPXPXPXPXPXPX",
"PXPXPXPXPXPXPXPXPXPXPXPXPXPXPXPXPXPXPXPXPXPXPXPXPXPXPXPXPXPXPXPXPXPXPXPXPXPXPXPXPXPXPXPXPXPXPXPXPXPXPXPXPXPXPXPXPXPXPXPXKXGXdXX 0 >XxXxXcX8.@ 6.{.3.6.6.7.1.1.7.7.7.7.7.6.7.7.6.1.1.O.= & r P W ^ Y : o $ v v x c c b b b b v x z V M.B.B.N.N.B.z.Z.B.D.D.B.M.;.6   K 5XeX6X#Xe.e.w.,.W P P ~ T T r #   : 1 y y s u c C N C V -   R $X).S.G.G.G.G.G.G.G.G.B.G.G.G.G.G.G.G.G.G.V.G.G.V.V.V.V.V.z.l.} V A.(.G.B.G.G.G.G.H.G.G.G.B.N.N.B.B._ d .XXXG.B.N.B.S.D.S.S.G.G.S.S.S.S.G.S.B.M.M.M.F N [ c.k.c.c.x.x.c.c.c.x.k.x.k.' ' ' ` d ` M.B.B.B.B.S.B.B.M.M.B.S.v.v.n.v.v.B.z.v.v.} k p ] c.c.c.c.c.c.M.[ m V c.v.B.z.l.l.' b i (.D.c.c.c.c.l.c.c.c.c.c.l.[ ' ` b - o < z m m V M B z i i p y o & [.6X1X6X4X>Xe.L h K K K U K +   < j m { } c.c.c.c.c.c.c.c.c.[ [ [ ] _ F F _ i _ [ ' G ] E - @ s.6X1XwX6X3X+.5 d.8.*.$.#.$.$.*.,.,.,.,.,.$.$.$.$.%.Y + 4 @.T P P Y : . h.mXmXMXmXBXCXHXKXPXPXPXPXPXPXPXPXPXPXPXPXPXPXPXPXPXPXPXPXPXPXPXPXPXPXPXPXPXPXPXPXPXPXPXPXPXPXPXPXPXPXPXPXPXPXPXPXPXPXPXPXPXPXPXPXPX",
"PXPXPXPXPXPXPXPXPXPXPXPXPXPXPXPXPXPXPXPXPXPXPXPXPXPXPXPXPXPXPXPXPXPXPXPXPXPXPXPXPXPXPXPXPXPXPXPXPXPXPXPXPXPXPXPXPXPXPXPXKXGXdXX 0 >XxXuXcX8.@ 5.{.3.1.6.7.6.1.7.7.7.7.7.1.1.1.6.1.1.O.= * Y T W +.T : o $ v x x c c b b z b x x c V M.B.N.N.N.B.z.N.M.A.M.N.M.;.6   K 5XeX6X#Xe.e.w.,.W P T ~ T T r +   : 1 y y s u c C N C V -   R $X).S.G.H.G.G.G.G.G.G.B.G.G.G.G.G.G.G.G.V.V.G.G.V.V.V.V.V.z.l.c.V D.(.B.B.G.G.H.H.H.H.G.G.B.B.S.B.M./ d .XXXG.B.N.B.S.D.S.S.G.G.G.B.v.S.G.S.S.M.M.M.F m ' l.[ k.c.c.c.c.x.c.x.k.x.[ ' ' ' ` d ` M.B.v.B.S.S.B.z.v.B.v.S.v.v.v.v.v.v.c.M.v.} k k { c.c.c.c.l.c.M.} M V M.c.c.z.l.c.' V u (.D.c.c.c.c.l.c.c.c.c.c.c.[ [ ` b - o < z m m V M M z i i d y o & [.6X1X6X4X>Xe.h h K K K K U +   < j m { } c.c.c.c.c.c.c.c.c.[ [ [ ] D F F _ i _ [ ' G ] E - @ s.6X1XwX6X3X+.5 f.8.*.*.$.$.#.*.,.,.,.,.,.$.$.#.$.%.r X 4 @.T P P Y : . h.mXmXMXmXBXCXHXHXPXPXPXPXPXPXPXPXPXPXPXPXPXPXPXPXPXPXPXPXPXPXPXPXPXPXPXPXPXPXPXPXPXPXPXPXPXPXPXPXPXPXPXPXPXPXPXPXPXPXPXPXPXPXPXPXPX",
"PXPXPXPXPXPXPXPXPXPXPXPXPXPXPXPXPXPXPXPXPXPXPXPXPXPXPXPXPXPXPXPXPXPXPXPXPXPXPXPXPXPXPXPXPXPXPXPXPXPXPXPXPXPXPXPXPXPXPXPXKXGXdXX 0 >XxXxXcX8.$ 6.{.8.6.6.8.6.6.7.7.7.7.7.1.1.1.6.1.1.&.= * Y P W ^ Y ,   $ v v x c c b b z b v x c V M.M.N.N.N.B.z.N.M.D.B.N.M.;.6   q 5XeXeX#Xe.w.w.,.W P P ~ P P r #   : 1 1 y u u c V N Z V - o H $X).S.G.G.G.G.G.G.H.G.B.G.G.G.G.G.G.G.G.G.G.G.G.G.V.V.B.V.l.c.} N P.(.B.B.B.G.G.G.H.G.S.N.B.M.B.M.M.V k XXXXG.G.B.B.S.D.S.S.S.G.G.S.v.G.G.S.B.M.M.M.` N ' c.c.c.c.c.c.c.x.x.x.x.x.k.' ' ' ` d _ M.S.B.B.S.S.S.z.v.B.B.v.v.v.v.v.z.z.c.M.z.} k p [ c.c.c.c.c.c.c.} M V } v.M.z.l.c.' V u ^.F.c.v.c.c.c.c.c.l.[ [ c.[ [ ` b - o < z M m V V B z i i d y o & [.6X,X6X4X>Xw.h h K w K K K +   > g c { [ [ } c.} c.c.c.c.} [ [ [ ` D F F / u _ ` ' G ] E - @ s.6X1XwX6X3X+.5 d.0.*.$.$.*.#.*.,.,.,.,.,.*.*.:.$.%.r + 8 @.W W P Y * . *XmXMXMXNXBXCXHXPXPXPXPXPXPXPXPXPXPXPXPXPXPXPXPXPXPXPXPXPXPXPXPXPXPXPXPXPXPXPXPXPXPXPXPXPXPXPXPXPXPXPXPXPXPXPXPXPXPXPXPXPXPXPXPXPXPX",
"PXPXPXPXPXPXPXPXPXPXPXPXPXPXPXPXPXPXPXPXPXPXPXPXPXPXPXPXPXPXPXPXPXPXPXPXPXPXPXPXPXPXPXPXPXPXPXPXPXPXPXPXPXPXPXPXPXPXPXPXKXGXdXX 0 >XxXxXcX8.$ 6.{.3.6.6.7.6.6.7.7.7.7.7.1.1.6.6.1.1.&.= * Y P W W Y :   $ v v x c c b b z b v c c V M.B.N.N.N.z.z.N.M.D.B.N.M.;.6   q 5XeX6X#Xe.w.w.,.W P P ~ P T r #   : 1 1 y u i c C N C V - o H $X).S.G.G.G.G.G.G.H.G.B.G.G.G.G.G.G.G.G.G.G.Z.Z.G.V.V.B.B.l.c.} V (.U.B.B.B.G.G.G.G.G.G.N.B.B.N.B.A.M c XX.XG.G.B.B.S.D.S.S.S.G.G.m.v.G.G.G.B.M.M.M.[ N ` l.[ c.c.c.c.c.x.x.x.x.x.k.' ' ' ` d ( M.B.B.B.B.S.B.v.v.V.v.v.v.v.v.v.z.z.v.M.c.} k p { c.c.c.c.c.c.c.c.V c } M.M.l.l.c.[ ) u F.J.c.c.c.c.c.c.c.c.[ } c.[ [ ` b - o < z M m V M B z i i d y o & [.6X,X4X4X>Xw.h h K w K K K +   < g c { [ } } c.c.c.l.c.c.[ [ [ [ ` D F F V u ` F ' G ] E - @ d.6X1XwX6X3X@., d.8.*.$.$.$.#.*.,.,.,.,.,.*.*.:.$.%.I + 8 T W W P Y * . h.mXMXMXBXBXAXHXPXPXPXPXPXPXPXPXPXPXPXPXPXPXPXPXPXPXPXPXPXPXPXPXPXPXPXPXPXPXPXPXPXPXPXPXPXPXPXPXPXPXPXPXPXPXPXPXPXPXPXPXPXPXPXPXPXPX",
"PXPXPXPXPXPXPXPXPXPXPXPXPXPXPXPXPXPXPXPXPXPXPXPXPXPXPXPXPXPXPXPXPXPXPXPXPXPXPXPXPXPXPXPXPXPXPXPXPXPXPXPXPXPXPXPXPXPXPXKXKXGXdXX 0 >XxXxXcX8.@ 6.{.3.6.6.7.6.6.7.7.6.6.7.7.6.6.6.1.1.&.= * r T T T T ,   $ v v x c c b b z b v c c V M.B.B.N.B.z.l.B.M.D.B.N.M.;.6   q 5XeX6X#Xe.w.w.,.W P P ~ P T r #   : 1 1 y u u c V N Z V - o H $X.XS.G.G.G.G.G.G.H.G.B.G.G.G.G.G.G.G.V.G.G.Z.Z.G.V.V.B.B.l.c.' V (.J.G.G.G.G.G.G.G.G.G.N.N.B.G.B.M.B V XX.XG.S.B.B.S.D.S.S.S.G.b.m.v.G.G.G.B.M.B.M.[ N ` [ [ c.l.c.c.c.x.x.x.x.x.k.' ' ' ] d C M.B.B.B.B.v.v.B.V.V.v.v.v.v.v.z.z.v.B.M.c.} k p } c.c.c.c.c.c.l.c.C c c.M.B.l.c.c.} / u A.J.c.c.c.c.c.c.c.c.[ } c.[ [ ` b - o < z M m V M B z i i p y o & [.6X,X6X4X>Xw.h h h w K K K +   < g c { [ } } c.c.c.c.c.[ [ [ [ [ F D F F V s ] F ' G ] E @ @ s.6X1XwX6X3X@., d.8.*.$.$.$.#.*.,.,.,.,.,.*.*.:.$.%.I + 8 T W W P Y * . h.mXMXMXBXMXAXHXPXPXPXPXPXPXPXPXPXPXPXPXPXPXPXPXPXPXPXPXPXPXPXPXPXPXPXPXPXPXPXPXPXPXPXPXPXPXPXPXPXPXPXPXPXPXPXPXPXPXPXPXPXPXPXPXPXPX",
"PXPXPXPXPXPXPXPXPXPXPXPXPXPXPXPXPXPXPXPXPXPXPXPXPXPXPXPXPXPXPXPXPXPXPXPXPXPXPXPXPXPXPXPXPXPXPXPXPXPXPXPXPXPXPXPXPXPXPXPXKXGXdXX 0 >XxXxXzXr.@ 5.{.7.1.7.7.1.6.7.7.7.6.6.7.7.3.6.1.1.O.3 * r P T T Y , o $ h x c x b b b z x b x z M M.N.N.N.N.l.c.N.N.B.N.B.M.;.6 o q 8XeX9X#Xe.e.w.:.W P P P P T I #   : 1 y y u u k C N A V - o H $X.XS.G.H.G.G.G.G.G.G.N.G.H.G.G.H.G.G.G.V.V.G.G.V.G.V.B.B.l.c.` C (.H.B.N.G.G.G.H.H.S.G.G.B.B.Z.B.A.c S XXQ.N.S.S.B.S.S.S.S.S.m.S.S.S.S.G.S.S.B.B.B.c.m ` } [ c.l.l.k.c.x.x.x.x.x.x.[ ' ' ] p C A.B.S.S.B.v.v.v.v.v.v.v.v.v.v.v.v.v.S.M.v.} k p } c.c.c.c.c.c.c.c.C k c.c.M.z.c.c.c.) u { P.z.z.v.c.l.c.c.c.l.[ c.[ [ F b - o < c M m V M M c u i p y o & [.9X1X6X1X>Xw.h h K H K U K + o > g z { [ [ [ } c.c.c.c.x.} } } [ F D D D V i { ` ' G ] E @ @ s.6X1XwX9X3X@., d.0.*.$.$.$.*.,.,.,.,.,.,.,.*.$.*.*.r + 8 T W P P T * . h.mXMXMXMXmXAXHXPXPXKXKXPXPXPXPXPXPXPXPXPXPXPXPXPXPXPXPXPXPXPXPXPXPXPXPXPXPXPXPXPXPXPXPXPXPXPXPXPXPXPXPXPXPXPXPXPXPXPXPXPXPXPXPXPXPX",
"PXPXPXPXPXPXPXPXPXPXPXPXPXPXPXPXPXPXPXPXPXPXPXPXPXPXPXPXPXPXPXPXPXPXPXPXPXPXPXPXPXPXPXPXPXPXPXPXPXPXPXPXPXPXPXPXPXPXPXPXKXGXdXX 0 >XxXxXzXr.& 5.{.7.1.7.8.6.7.7.7.7.1.1.7.7.7.7.1.1.O.3 * r P T W Y : o $ l x c x v b c z x v x c M M.N.N.N.N.l.c.N.N.N.N.B.c.;.6 o w 5XeX9X#Xe.e.w.:.W P P P P P K #   : 1 y y y u k C N A V - o H 4X).B.G.H.G.G.G.G.G.G.N.G.H.G.G.H.G.G.G.G.B.G.G.B.G.G.B.v.l.c.F F ).H.B.G.N.G.G.G.G.S.G.G.B.B.V.B.n.k _ OXQ.N.D.S.B.S.S.S.S.S.B.S.S.B.B.B.S.S.B.B.B.c.m F } [ l.c.l.k.c.x.x.x.x.x.x.[ ' ' ] p V S.B.M.S.B.v.v.b.v.v.v.v.z.v.v.v.v.v.M.M.M.[ k p } c.c.c.c.c.v.c.c.D k } c.M.z.c.c.l.) u _ P.B.v.M.c.l.c.c.c.c.l.c.[ [ ` b - o < x m m M M B c u i p y o & [.8X1X6X6X>Xw.h K K H K K r + o > s k { } [ [ c.c.c.c.x.x.} } } ] ` C D S V p ] ` G G ] E + $ d.6X,XwX6X3X@., d.0.*.$.$.*.*.,.,.,.,.,.,.*.*.$.*.*.I + 5 T T P P T * . h.mXMXMXMXmXAXKXPXPXPXKXKXPXPXPXPXPXPXPXPXPXPXPXPXPXPXPXPXPXPXPXPXPXPXPXPXPXPXPXPXPXPXPXPXPXPXPXPXPXPXPXPXPXPXPXPXPXPXPXPXPXPXPXPXPX",
"PXPXPXPXPXPXPXPXPXPXPXPXPXPXPXPXPXPXPXPXPXPXPXPXPXPXPXPXPXPXPXPXPXPXPXPXPXPXPXPXPXPXPXPXPXPXPXPXPXPXPXPXPXPXPXPXPXPXPXPXKXGXdXX 0 >XxXxXzXr.& 5.{.7.1.7.7.7.7.7.6.7.6.1.1.7.7.6.1.1.O.4 * r P T ^ T , o $ l J v x v b c z b x j b V M.N.N.N.N.l.z.Z.N.N.N.z.M.;.6 o w 5XeXeX#Xe.e.w.:.W T T P P Y w $   * 1 1 y y u k C N C V - o H $X).B.S.G.G.G.G.G.G.G.G.G.G.G.G.G.B.B.V.V.B.G.G.B.G.B.B.z.l.} C [ ).H.N.G.B.G.G.G.G.G.G.G.B.B.B.B.} d | OXI.N.S.S.S.S.S.S.S.S.S.S.G.G.G.G.S.S.B.B.M.c.V C } [ [ c.c.c.c.x.x.x.x.x.x.[ k.[ ] p M S.M.v.B.B.v.v.G.v.v.v.v.v.v.v.v.v.v.v.B.c.[ k p } } c.c.v.c.c.c.c._ k } c.M.v.z.c.l.` i V P.B.c.c.c.l.c.c.c.c.c.[ [ [ ` b - o < x m M M M B c u i p y o & [.9X1X1X1X>Xw.h K h H K K K + o > g c { c.c.c.c.c.c.c.x.c.} { { ] F C D S M p [ ` F G ] J @ $ s.6X,XwX6X3X@., d.0.$.$.$.*.*.,.,.,.,.,.,.*.*.$.$.*.r + 5 T P P P T : X ;XmXMXMXMXmXAXKXPXPXPXKXKXPXPXPXPXPXPXPXPXPXPXPXPXPXPXPXPXPXPXPXPXPXPXPXPXPXPXPXPXPXPXPXPXPXPXPXPXPXPXPXPXPXPXPXPXPXPXPXPXPXPXPXPXPX",
"PXPXPXPXPXPXPXPXPXPXPXPXPXPXPXPXPXPXPXPXPXPXPXPXPXPXPXPXPXPXPXPXPXPXPXPXPXPXPXPXPXPXPXPXPXPXPXPXPXPXPXPXPXPXPXPXPXPXPXPXKXGXdXX 0 >XxXxXzXr.@ 5.d.7.1.7.8.7.7.7.6.6.7.6.1.7.7.6.1.1.O.4 * r T T ^ T 4 o $ l J v x v b c z b x x b V M.N.N.N.N.l.z.G.Z.N.N.z.M.;.0 o w 5XeXeX#Xe.w.w.:.W T T W P Y w $   * 1 1 u y u k C N C V - o H $X).B.S.G.G.G.G.G.G.G.G.H.G.G.G.G.B.V.G.G.B.G.G.B.B.B.B.z.l.} C M.(.H.B.N.S.G.G.G.G.G.G.S.B.B.B.B.} p ;.OXI.N.S.S.S.S.S.S.D.G.S.G.G.G.G.G.S.S.B.B.M.M.V C } } l.c.c.c.c.c.x.x.c.x.x.' k.[ ] k M S.v.v.B.B.S.V.G.B.B.B.v.v.v.v.m.v.v.v.c.c.[ k p } } c.l.c.c.c.c.c._ k } c.M.v.c.c.l.{ j z (.S.c.c.c.l.c.c.c.c.c.[ [ [ _ b - o < x M M M M B c u i p y o & [.9X1X6X6X>Xw.h K h H K K K @ o < g c { } c.c.c.c.c.c.[ c.c.{ [ ` D C D S M k { ` F G ] R @ $ s.6X,XwX6X3XT , d.8.$.$.$.*.,.,.,.,.,.,.,.*.,.$.$.*.I + 4 T P P P T : X *XmXMXMXMXMXAXHXPXPXPXKXKXPXPXPXPXPXPXPXPXPXPXPXPXPXPXPXPXPXPXPXPXPXPXPXPXPXPXPXPXPXPXPXPXPXPXPXPXPXPXPXPXPXPXPXPXPXPXPXPXPXPXPXPXPX",
"PXPXPXPXPXPXPXPXPXPXPXPXPXPXPXPXPXPXPXPXPXPXPXPXPXPXPXPXPXPXPXPXPXPXPXPXPXPXPXPXPXPXPXPXPXPXPXPXPXPXPXPXPXPXPXPXPXPXPXPXKXGXdXX 0 >XxXxXzX8.+ 5.{.7.1.7.7.7.7.6.1.1.7.7.1.7.7.7.1.1.%.3 & r W W W Y , o $ l v v x v b b b b v c c V M.M.N.N.N.l.z.N.N.N.N.v.M.;.6 o w 8XrXeX>Xe.w.w.,.W P W W P Y w #   : 1 y y u s k C N A V > o H $X_.B.G.G.G.G.G.G.G.G.G.G.H.G.G.G.B.V.G.G.G.G.G.G.B.B.B.z.k.[ C D.(.B.N.N.G.B.G.G.G.G.G.S.S.B.B.B.} p A.OXZ.Z.S.S.S.S.S.S.D.G.S.S.G.G.G.v.S.S.B.B.M.M.V N [ } c.c.c.c.x.c.x.k.' x.' ' k.[ ] k m S.M.M.v.B.v.v.G.B.B.B.B.v.v.M.S.v.v.M.B.c.[ k k } c.c.c.c.c.c.c.c.` d } M.v.M.c.c.c.{ k k (.S.c.l.c.l.c.c.c.c.c.l.[ [ D J - o < b M M M M B c u i p y o & [.9X1X,X1X>Xq.h K K w K U K + o < g c { } c.c.c.c.c.c.} [ } } { ` ` C D S c k { ` ' G ] J @ @ d.6X,XwX6X3X@., d.0.$.$.*.*.*.,.,.,.,.,.,.*.*.*.#.%.r + 4 T P P P T : . ;XmXMXMXNXNXAXHXPXPXPXKXKXPXPXPXPXPXPXPXPXPXPXPXPXPXPXPXPXPXPXPXPXPXPXPXPXPXPXPXPXPXPXPXPXPXPXPXPXPXPXPXPXPXPXPXPXPXPXPXPXPXPXPXPXPX",
"PXPXPXPXPXPXPXPXPXPXPXPXPXPXPXPXPXPXPXPXPXPXPXPXPXPXPXPXPXPXPXPXPXPXPXPXPXPXPXPXPXPXPXPXPXPXPXPXPXPXPXPXPXPXPXPXPXPXPXPXKXGXsXX 0 >XxXxXzX8.+ 5.{.7.1.7.7.7.7.7.6.7.7.7.1.7.7.7.1.1.%.4 & r W W T T 3 o $ l x v x v b b b b v c c V M.M.N.N.N.l.z.N.N.N.N.v.M.;.6 o w 8XrXeX>Xe.w.w.:.P P P W P P r +   : 1 y y u s k C N C V > o H $X.XB.G.G.G.G.G.H.H.G.G.G.G.G.G.G.B.V.G.G.G.G.G.V.V.B.B.z.l.[ N P.U.B.N.Z.G.B.G.G.G.G.G.S.S.B.B.B.{ i F.OXZ.Z.S.S.A.S.S.S.S.G.S.S.G.G.G.G.S.B.B.B.M.M.C m [ [ c.c.c.x.x.c.x.x.k.x.k.[ k.[ ] m m S.M.M.v.v.v.v.v.B.B.B.B.v.v.M.m.v.v.v.z.c.[ k k { c.c.c.c.c.v.c.c.` d [ M.M.M.c.c.l.} c p /.D.c.l.c.l.c.c.c.c.c.l.[ [ _ J - o < b M M M M B c u i p y o & [.8X6X,X1X>Xq.h K K K K K K + o < g z { } c.c.c.c.c.c.} } } } ' ` ` D D S k k { ` ' G ] R @ $ s.6X,XwX6X3X+., d.0.$.#.$.*.*.,.,.,.,.,.,.*.*.,.#.%.r + 4 T P P T T : X ;XmXMXMXNXNXAXKXPXPXPXKXKXPXPXPXPXPXPXPXPXPXPXPXPXPXPXPXPXPXPXPXPXPXPXPXPXPXPXPXPXPXPXPXPXPXPXPXPXPXPXPXPXPXPXPXPXPXPXPXPXPXPXPXPXPX",
"PXPXPXPXPXPXPXPXPXPXPXPXPXPXPXPXPXPXPXPXPXPXPXPXPXPXPXPXPXPXPXPXPXPXPXPXPXPXPXPXPXPXPXPXPXPXPXPXPXPXPXPXPXPXPXPXPXPXPXPXKXGXdXX 0 >XxXxXzX8.+ 5.{.7.1.6.7.7.7.7.1.1.7.7.1.7.7.7.1.1.%.3 & r W W T Y , o : J x v x x x b b b v c c V M.M.N.N.M.G z.N.N.N.N.v.M.;.6   w 5XeX9X-Xe.w.w.:.W P U W P ..K +   : 1 y y u u k C N C V > o H $X.XN.S.H.H.G.G.G.G.G.G.G.G.G.G.G.B.V.G.G.G.G.V.B.B.B.B.l.l.[ N (.U.N.B.N.G.B.G.G.G.G.S.S.S.B.B.B.' i P.OXZ.Z.S.S.S.S.S.S.S.G.S.S.G.G.G.G.S.B.B.N.M.M.` n [ [ c.c.c.l.x.c.x.x.x.x.x.[ ' ' ] M m S.B.M.v.v.v.v.v.B.B.B.B.c.v.v.v.v.v.z.c.c.[ m p { } c.c.c.v.M.c.c.` k ] M.M.M.c.l.[ } M i F.F.c.l.c.l.c.c.c.c.c.l.[ [ ` / - o < b M M M M B c u i p y o & {.9X6X,X1X>Xw.h K K K K K K + o < g z { } c.c.c.c.c.c.[ c.c.} ] ` D _ D S k M { ] ' G ] E @ $ s.6X,XwX9X3X+., d.0.$.#.$.*.*.,.,.,.,.,.,.*.*.:.#.%.r + 4 T P P T T : X ;XmXMXMXNXNXAXKXPXPXPXKXKXPXPXPXPXPXPXPXPXPXPXPXPXPXPXPXPXPXPXPXPXPXPXPXPXPXPXPXPXPXPXPXPXPXPXPXPXPXPXPXPXPXPXPXPXPXPXPXPXPXPXPXPXPX",
"PXPXPXPXPXPXPXPXPXPXPXPXPXPXPXPXPXPXPXPXPXPXPXPXPXPXPXPXPXPXPXPXPXPXPXPXPXPXPXPXPXPXPXPXPXPXPXPXPXPXPXPXPXPXPXPXPXPXPXPXKXGXsXX 0 >XxXxXcX8.@ 5.f.3.1.6.6.6.6.6.1.6.7.7.1.7.7.6.1.6.&.3 * r T W T Y : o $ J v v v j c b b b b c z V M.B.N.B.B.G M.N.N.N.N.z.M.;.6 o w 5XrX9X#Xw.w.q.,.W P P P P P K @   * 1 y y s i k C C A V > o H $X.XN.G.G.G.G.G.G.G.G.G.G.G.G.G.G.G.G.V.G.G.B.B.B.B.B.M.k.k.` C (.U.M.B.V.B.B.B.B.S.G.S.S.S.B.S.A.` i ^.XXD.G.S.S.S.S.G.G.G.G.G.G.S.G.G.G.A.M.B.B.B.M.` p ] { } k.k.k.k.x.c.k.k.x.k.[ k.k.' M k A.A.v.v.v.v.v.v.B.B.B.z.z.v.v.c.c.c.c.c.c.} c j { c.c.c.c.c.c.c.v.{ k ] A.c.v.c.l.l.[ C i F.H.c.c.c.c.c.c.c.c.l.[ [ [ ` / - o ; b V M M M B k u i p y o & [.9X6X,X1X>Xq.h K K K K K r + o < g z } { } c.c.c.c.c.' } } ' ` ` A A C C k M [ ' ' G ] E @ @ s.6X,X1X6X3X+., a.r.$.#.$.*.*.*.,.,.,.,.,.*.*.:.$.%.r # 5 ~ P P P Y * . ;XmXMXMXNXBXAXHXPXPXPXKXKXPXPXPXPXPXPXPXPXPXPXPXPXPXPXPXPXPXPXPXPXPXPXPXPXPXPXPXPXPXPXPXPXPXPXPXPXPXPXPXPXPXPXPXPXPXPXPXPXPXPXPXPXPX",
"PXPXPXPXPXPXPXPXPXPXPXPXPXPXPXPXPXPXPXPXPXPXPXPXPXPXPXPXPXPXPXPXPXPXPXPXPXPXPXPXPXPXPXPXPXPXPXPXPXPXPXPXPXPXPXPXPXPXPXPXKXGXsX% 0 >XxXxXcX8.@ 5.d.3.1.7.6.6.6.7.6.7.7.7.1.7.7.6.6.6.&.= * Y T W ~ Y :   $ J v x v z c z z v v v z V ;.B.M.B.B.' B.B.N.N.B.z.M.;.6 o w 5XeX6X#Xe.e.q.,.P P P P P P K #   * 1 y y s i k C C A V ; o H $X.XS.G.G.G.G.G.G.G.G.G.G.G.G.G.G.G.G.V.G.G.S.B.B.B.B.z.c.c.F F (.J.S.B.V.B.B.S.A.S.G.S.S.S.B.B.M._ i (.XXS.D.G.D.D.G.G.G.G.G.G.G.S.S.S.S.S.S.B.B.B.M.' p ] { } c.c.k.k.l.k.k.k.c.k.} k.k.' V k M.S.A.M.v.v.v.B.B.B.B.B.v.v.v.v.M.M.c.c.c.} m j { c.c.c.} c.c.c.c.{ k ` A.c.v.c.l.l.[ _ i <.J.c.} c.c.c.l.l.[ [ [ [ [ ` / - o ; b B m M V N k u i p y o @ [.9X6X,X1X>Xw.H L K K K K r + o < g z } [ c.c.c.c.c.l.[ [ } ' ` ` ( F C _ k V [ ' ' G ] E @ @ s.6X1X1X6X3X+., a.r.$.#.$.*.*.*.*.,.,.,.,.*.*.:.#.%.r + 5 T P W P Y * . ;XmXmXMXBXBXCXHXKXPXPXKXKXPXPXPXPXPXPXPXPXPXPXPXPXPXPXPXPXPXPXPXPXPXPXPXPXPXPXPXPXPXPXPXPXPXPXPXPXPXPXPXPXPXPXPXPXPXPXPXPXPXPXPXPXPX",
"PXPXPXPXPXPXPXPXPXPXPXPXPXPXPXPXPXPXPXPXPXPXPXPXPXPXPXPXPXPXPXPXPXPXPXPXPXPXPXPXPXPXPXPXPXPXPXPXPXPXPXPXPXPXPXPXPXPXPXPXKXGXsX% 0 >XxXxXcX8.@ 6.f.1.1.7.6.6.6.1.6.7.7.7.1.7.7.6.6.6.&.= * r T W ~ Y : o $ J J x v c b z z b b b z V M.B.M.D.c.' M.B.M.M.N.z.M.;.6 o w 5XeX9X#Xe.r.q.:.W P P P ..P K #   * 1 y y s i k C N Z V ; o H $X.XS.G.G.G.G.G.G.G.G.G.G.G.G.G.G.G.G.G.G.G.G.S.B.B.B.z.v.c.C } .XH.G.B.V.B.S.S.A.S.G.S.S.S.B.S.M._ p (.XXD.S.S.S.G.G.G.G.G.G.G.G.S.S.S.S.S.S.B.B.B.M.[ p ` { } c.c.k.c.k.k.k.k.c.k.} k.k.' / d M.m.S.S.S.B.v.B.B.B.B.B.B.v.v.M.M.M.c.c.c.} V p ] c.c.c.} c.c.c.c.{ k _ A.c.v.c.l.l.[ _ u { U.M.} c.c.c.[ l.[ [ c.[ [ ` / - o ; b B c c M B k u i p y o @ [.9X,X,X1X>Xw.H L K K K U r + o < g z } [ } c.c.c.l.[ [ [ { ] ` ` ` F D S p C [ ' ' G ] E @ @ s.6X1X1X6X3X+., a.r.$.#.$.*.*.*.*.*.,.,.,.*.*.:.#.%.r + 5 ~ W W P Y * . *XmXmXMXmXmXCXHXPXKXKXKXKXPXPXPXPXPXPXPXPXPXPXPXPXPXPXPXPXPXPXPXPXPXPXPXPXPXPXPXPXPXPXPXPXPXPXPXPXPXPXPXPXPXPXPXPXPXPXPXPXPXPXPXPXPX",
"PXPXPXPXPXPXPXPXPXPXPXPXPXPXPXPXPXPXPXPXPXPXPXPXPXPXPXPXPXPXPXPXPXPXPXPXPXPXPXPXPXPXPXPXPXPXPXPXPXPXPXPXPXPXPXPXPXPXPXPXKXGXsX% 0 >XxXxXcX6.@ 6.f.3.1.7.6.6.6.6.6.3.7.7.6.7.7.6.1.6.&.= * r T W T Y : o $ J J x x b b b b b b b z V M.D.A.D.v.' A.D.M.M.B.z.M.;.0 o w 8XeX6X-Xe.r.q.,.W T P P ....K $   * 1 y y u u k C N Z V > o H $X.XS.G.G.G.G.G.G.G.G.G.G.G.H.G.G.G.G.G.G.G.G.G.S.B.B.z.n.} N A..XH.G.B.G.G.S.S.A.M.G.S.S.S.B.S.A./ k .XXXM.S.S.S.S.G.G.G.G.G.G.S.S.S.S.S.n.A.B.N.B.B.} p C { } c.c.c.c.k.k.k.k.l.k.[ k.k.' / p c.v.S.S.S.B.V.B.B.B.B.z.v.v.v.c.M.M.c.c.c.c.M i ] c.c.c.} c.c.c.c.{ k _ A.c.v.c.l.l.[ _ i _ U.M.c.c.c.l.c.c.l.[ c.} [ ` J - o ; b B V M M B k u i p y o & [.9X6X,X1X>Xq.h K K K K L r + o < g z } [ [ c.c.l.l.[ } [ { ] _ ` ` A C V p C ' ' ' G ] J @ @ s.6X1X1X6X3X+.: a.r.$.#.$.*.*.*.#.*.,.,.,.*.*.$.#.%.r + 5 ^ W W P Y * . *XmXmXMXmXmXCXHXPXKXKXKXKXPXPXPXPXPXPXPXPXPXPXPXPXPXPXPXPXPXPXPXPXPXPXPXPXPXPXPXPXPXPXPXPXPXPXPXPXPXPXPXPXPXPXPXPXPXPXPXPXPXPXPXPXPX",
"PXPXPXPXPXPXPXPXPXPXPXPXPXPXPXPXPXPXPXPXPXPXPXPXPXPXPXPXPXPXPXPXPXPXPXPXPXPXPXPXPXPXPXPXPXPXPXPXPXPXPXPXPXPXPXPXPXPXPXPXKXGXsX% 0 >XxXxXcX8.@ 6.f.2.1.6.6.6.6.7.6.1.7.6.1.7.7.6.1.6.&.= & r T T ~ Y : o $ J J x x b b b b b b b z V M.A.A.D.M.G M.D.B.B.N.z.M.;.0 o w 3XeX6X>Xt.r.q.,.W P T T P P K $   * 1 y y s u k N N A / > o H $X.XB.G.G.G.G.G.G.G.G.G.G.G.G.G.G.G.G.G.G.G.G.G.B.B.B.z.A.' m P.(.S.G.B.G.G.S.S.S.S.G.S.S.S.B.S.A.V m .XXXM.S.S.m.S.G.G.G.S.S.G.G.S.S.S.m.v.A.B.B.B.D.c.m V } c.c.c.v.k.k.k.k.k.k.k.' k.k.' / p } A.S.S.v.v.v.v.B.B.B.z.z.v.v.c.c.M.c.c.c.c.V i ` c.c.c.} } c.c.c.{ k D A.} v.c.l.[ l.{ i V U.M.c.c.c.l.c.c.l.l.c.} [ ` b - o ; c B M M M B k u i p y o @ [.9X6X,X1X>Xq.h H h K K U r + o < g c } [ [ c.c.l.l.[ [ [ [ ` D ( ( F D V p D ` ' ' G ] J @ @ s.6X1X1X6X3X+.: a.r.$.$.$.*.*.*.*.*.,.,.*.*.*.$.$.%.I + 5 ~ P W P Y * . ;XmXMXMXmXmXCXHXPXPXKXKXPXPXPXPXPXPXPXPXPXPXPXPXPXPXPXPXPXPXPXPXPXPXPXPXPXPXPXPXPXPXPXPXPXPXPXPXPXPXPXPXPXPXPXPXPXPXPXPXPXPXPXPXPXPX",
"PXPXPXPXPXPXPXPXPXPXPXPXPXPXPXPXPXPXPXPXPXPXPXPXPXPXPXPXPXPXPXPXPXPXPXPXPXPXPXPXPXPXPXPXPXPXPXPXPXPXPXPXPXPXPXPXPXPXPXPXKXGXsX# 0 >XxXxXcX8.@ 6.f.2.1.6.6.6.7.7.1.1.6.3.7.7.7.6.1.1.O.= & r T T ~ Y , o $ J J x x b b b b b b v z V ;.M.M.B.M.F M.M.B.M.B.z.M.<.0 o w 3XeX6X>Xe.w.w.,.W P T T P P K $   * 1 y y s u k V N A V > o H $X.XB.G.G.G.G.G.G.G.G.G.G.G.G.G.G.G.G.G.G.G.B.B.B.B.B.c.A.` m .XY.B.G.S.G.G.G.D.D.G.G.S.S.B.B.B.M.b C XX.Xv.S.A.m.G.G.G.G.G.S.G.G.m.v.S.S.A.A.S.B.B.D.M.m m { } c.c.c.k.k.k.k.k.k.k.} k.j.' _ p [ S.A.v.v.v.v.v.B.B.B.v.v.v.M.c.M.M.c.c.c.} / i _ c.v.c.} } c.c.v.{ k C A.} c.c.l.l.l.] j c J.S.c.c.c.c.c.c.l.l.} [ [ ` b - o ; b V M M M B k u i p a o & [.8X6X1X4X>Xw.h K 0 H K U r + o < g c } [ [ c.c.c.l.[ [ [ ] ` C _ D F D V p ` ` G G G ] J @ @ s.6X1X1X6X3X+.: a.r.$.$.$.$.*.*.*.,.*.*.*.$.$.$.$.%.I + 5 ~ W W P Y * . ;XmXMXMXMXBXAXHXPXPXKXKXKXPXPXPXPXPXPXPXPXPXPXPXPXPXPXPXPXPXPXPXPXPXPXPXPXPXPXPXPXPXPXPXPXPXPXPXPXPXPXPXPXPXPXPXPXPXPXPXPXPXPXPXPXPX",
"PXPXPXPXPXPXPXPXPXPXPXPXPXPXPXPXPXPXPXPXPXPXPXPXPXPXPXPXPXPXPXPXPXPXPXPXPXPXPXPXPXPXPXPXPXPXPXPXPXPXPXPXPXPXPXPXPXPXPXPXKXGXsX# 0 >XxXxXcX8.+ 6.f.3.1.7.6.6.6.6.1.1.1.1.1.6.7.6.1.1.O.* & r T T ~ ~ , o $ J J x c b b b z b v v z V ;.B.B.B.M.F N.B.M.M.B.z.v.;.6 o w 3XeX6X>Xe.w.7.:.W P T T P P K $   * 1 y y s i k C N A V - o H $X.XS.G.G.G.G.G.G.G.G.G.G.G.G.G.G.G.G.G.G.G.B.B.S.B.z.z.M.F N .XJ.B.V.G.G.S.G.D.S.S.S.S.S.S.S.B.M.z _ XX_.v.S.M.m.G.G.H.G.G.S.G.G.m.v.S.S.A.A.B.B.B.M.M.C p { c.c.c.c.k.k.c.k.k.k.k.c.k.j.' _ i ' A.A.v.v.v.v.v.B.B.B.z.z.v.v.c.M.M.c.c.c.c._ u _ c.v.c.} } c.c.v.{ k C A.c.c.c.c.l.c.{ x j D.G.v.c.c.c.c.c.l.l.} [ [ ` b - o ; b V M M B m c u i k a o & [.8X6X6X1X>Xw.h K h H K K r + o < g c } [ [ c.c.l.l.l.] [ ] D D _ C F C V p ` F G ' G ] J @ @ s.6X1X1X6X3X#.: a.r.#.$.$.$.#.*.,.*.*.*.*.*.*.$.$.%.I + 5 ~ W W P Y * . ;XmXMXMXMXBXAXHXKXPXKXKXKXPXPXPXPXPXPXPXPXPXPXPXPXPXPXPXPXPXPXPXPXPXPXPXPXPXPXPXPXPXPXPXPXPXPXPXPXPXPXPXPXPXPXPXPXPXPXPXPXPXPXPXPXPX",
"PXPXPXPXPXPXPXPXPXPXPXPXPXPXPXPXPXPXPXPXPXPXPXPXKXPXPXPXPXPXPXPXPXPXPXPXPXPXPXPXPXPXPXPXPXPXPXPXPXPXPXPXPXPXPXPXPXPXPXPXKXGXsXX 0 >XxXxXcX6.@ 5.d.8.1.6.7.1.1.7.1.1.1.1.1.6.7.6.1.1.&.3 * w P T T T : o $ v J x x v v v c x v b c V ;.M.M.M.M.F S.N.B.A.M.z.M.;.6 o 0 3XeXeX>Xe.e.w.:.W P T T T Y w #   : 1 y u u u k C N A V - o H $X.XS.G.H.H.G.G.G.G.G.H.G.G.G.G.G.G.G.G.G.G.v.V.G.B.z.c.c.N [ XXH.S.G.S.S.S.S.S.S.S.S.G.V.Z.N.S.M.j ` XX).Z.G.B.B.B.G.G.S.S.S.G.G.m.v.S.S.S.A.M.M.M.B.z.A p ] c.k.l.l.k.l.c.l.k.k.k.k.' [ [ ` p ` n.z.c.l.B.M.M.B.B.B.v.v.v.z.c.M.M.M.c.c.c._ i ` c.v.M.} c.c.c.c.} k M A.v.z.z.c.l.[ { V d A.D.z.l.c.c.c.c.c.l.c.[ [ F V - o < z M M V M m z i i p y o & [.9X1X1X1X>Xw.K K K H H K r + o < s c } ] [ l.l.l.c.} { [ ] ` C ` D C C V p ` [ G ` [ ] J O @ s.1X1XwX6X3X+.: a.r.#.$.$.#.#.*.*.*.*.*.*.*.$.,.*.%.r X 4 T W W P Y * . *XmXmXmXmXBXAXHXKXKXKXPXPXPXPXPXPXPXPXPXPXPXPXPXPXPXPXPXPXPXPXPXPXPXPXPXPXPXPXPXPXPXPXPXPXPXPXPXPXPXPXPXPXPXPXPXPXPXPXPXPXPXPXPXPXPX",
"PXPXPXPXPXPXPXPXPXPXPXPXPXPXPXPXPXPXPXPXPXPXPXPXPXPXPXPXPXPXPXPXPXPXPXPXPXPXPXPXPXPXPXPXPXPXPXPXPXPXPXPXPXPXPXPXPXPXPXPXKXGXsXX 0 >XxXxXcX6.@ 5.d.7.1.6.7.1.1.7.7.7.6.1.1.7.7.6.1.1.&.3 & w T ^ +.T : o $ J v x v c v b c x b b c V ;.M.B.B.M.F D.N.B.A.M.z.M.;.6 o 0 3XrXrX>Xe.e.w.,.W P T T T Y w #   : 1 y u u u k Z N A V > o H $X.XS.G.G.G.S.S.S.G.G.G.G.G.G.G.S.G.G.S.G.G.G.G.B.B.z.B.A.m D..XH.S.G.S.S.S.G.G.G.G.G.G.Z.V.B.S.M.j ] XX).V.G.S.B.B.S.S.S.G.G.S.S.S.S.S.S.S.A.M.M.M.A.M.` p ` c.l.l.l.l.k.c.k.k.k.k.' ' k.[ ` p _ S.M.B.B.M.B.B.B.B.B.v.v.v.v.B.M.M.M.M.c.c.` i _ c.c.c.} c.c.c.c.} m M A.v.z.z.c.l.c.[ V i | J.z.l.c.c.c.c.c.[ x.[ [ F V - O < z M M V M m k i i p y o * [.9X1X1X1X>Xw.h K h H H K r +   < s c } [ [ [ [ k.} [ { { ` F A ` D A C M p ` ' ' ` [ ] J @ @ s.1X1XwX6X3X+.: a.r.$.$.$.$.#.*.*.*.*.,.,.*.$.,.$.%.r X 4 T W P P Y * X *XmXmXmXmXBXAXHXKXKXPXPXPXPXPXPXPXPXPXPXPXPXPXPXPXPXPXPXPXPXPXPXPXPXPXPXPXPXPXPXPXPXPXPXPXPXPXPXPXPXPXPXPXPXPXPXPXPXPXPXPXPXPXPXPXPX",
"PXPXPXPXPXPXPXPXPXPXPXPXPXPXPXPXPXPXPXPXPXPXPXPXPXPXPXPXPXPXPXPXPXPXPXPXPXPXPXPXPXPXPXPXPXPXPXPXPXPXPXPXPXPXPXPXPXPXPXPXKXGXsX. 9 >XxXxXcX8.@ 5.d.6.1.1.7.7.7.7.7.7.1.1.1.7.7.6.1.1.&.4 * r T ^ +.Y : o $ J v x v c c b c x b b c V ;.M.B.B.c.F S.Z.N.A.B.z.M.;.6 o 0 3XrXrX>Xw.w.q.:.W T T T T Y w #   : 1 y u u u k C C A V > o H $X.XN.G.V.G.S.S.G.G.G.G.G.G.G.S.S.G.G.S.G.G.G.G.B.B.z.M.{ p (.).S.S.S.S.S.G.G.G.G.G.G.G.G.B.B.D.} i ;.OX).B.G.S.B.B.S.S.S.G.G.S.S.S.S.S.S.S.A.M.M.v.M.M.] p ` c.c.l.l.c.l.c.k.k.c.k.' k.k.[ ` p C A.v.B.B.B.M.S.v.B.B.B.B.v.M.M.B.M.M.M.c.c.` i _ c.c.c.} c.c.c.c.} B M A.v.v.l.l.l.c.[ _ i ] P.z.l.c.c.c.c.c.l.x.[ [ F V - O < b M M V M M k i i p y o * [.8X1XwX1X>Xq.h h h H H K I +   < s B } [ [ [ k.k.c.} { { ` A A ` C A C V k ` ' ' ` G ] J @ @ s.1X1X1X1X>X+.: a.r.*.#.$.$.$.*.*.*.,.,.,.*.*.$.#.%.r X 5 T T P P Y * . *XmXmXMXmXBXAXHXKXKXKXPXPXPXPXPXPXPXPXPXPXPXPXPXPXPXPXPXPXPXPXPXPXPXPXPXPXPXPXPXPXPXPXPXPXPXPXPXPXPXPXPXPXPXPXPXPXPXPXPXPXPXPXPXPXPX",
"PXPXPXPXPXPXPXPXPXPXPXPXPXPXPXPXPXPXPXPXPXPXPXPXPXPXPXPXPXPXPXPXPXPXPXPXPXPXPXPXPXPXPXPXPXPXPXPXPXPXPXPXPXPXPXPXPXPXPXPXKXGXdX. 0 >XxXxXcX6.$ 6.d.1.1.6.7.7.7.6.7.6.1.1.1.7.7.,.1.1.&.3 * r T W ^ Y :   $ J v x v x c b c x v b c V ;.B.B.N.c.F D.N.N.A.z.z.M.;.0 o 0 5XrXrX>Xw.w.q.:.W T T W T T w #   : 1 y y u u k C C A V - o H $X.XN.G.G.G.S.S.S.G.G.G.G.G.G.S.S.G.G.S.G.G.G.G.N.M.c.c.` m .X).B.S.S.S.S.G.G.G.G.G.D.S.G.N.N.D.{ i A.OXE.B.S.S.B.B.S.S.S.S.S.S.m.S.S.S.S.B.M.M.M.M.M.S.{ p A c.c.l.l.c.c.l.k.k.k.k.k.k.[ [ ` k M A.M.B.B.B.B.v.v.B.B.B.B.B.M.B.c.c.M.M.c.c.] i C c.v.c.} c.c.c.v.c.B m A.v.v.l.l.l.l.} ` i _ U.z.l.c.c.c.c.c.l.x.} [ F V - o < z M M V M M k i i p y o * [.9X1X1X1X>Xq.h h h H K K r + o < s B } [ [ l.l.l.c.} { ' F A A ` C A C m k ` ` ' ` F ] J @ @ s.1X1X1X1X>X+.: a.r.*.#.$.$.*.*.*.,.,.,.,.*.*.$.$.%.r X , T T P P Y * . *XmXmXMXmXBXAXHXKXPXPXPXPXPXPXPXPXPXPXPXPXPXPXPXPXPXPXPXPXPXPXPXPXPXPXPXPXPXPXPXPXPXPXPXPXPXPXPXPXPXPXPXPXPXPXPXPXPXPXPXPXPXPXPXPXPX",
"PXPXPXPXPXPXPXPXPXPXPXPXPXPXPXPXPXPXPXPXPXPXPXPXPXPXPXPXPXPXPXPXPXPXPXPXPXPXPXPXPXPXPXPXPXPXPXPXPXPXPXPXPXPXPXPXPXPXPXPXKXGXdX. 9 >XxXxXcX6.$ 0.d.1.1.7.7.7.7.7.7.7.6.1.1.7.7.,.1.1.%.3 * r T W T Y :   $ J v x v x b b c x v v c V ;.M.B.B.[ F D.N.B.M.z.z.M.;.0 o 0 8XrXrX>Xw.w.q.:.T T T W T ..r #   : 1 y y s u k C C A V - o H $X.XB.G.G.G.S.S.S.S.G.G.G.G.G.G.G.G.G.G.G.G.B.S.B.M.c.c.C m XXY.B.S.S.S.S.S.G.S.G.S.S.S.N.N.M.D.[ i F.OXY.B.S.S.S.G.G.S.S.S.S.S.S.S.S.S.G.B.M.M.B.B.M.S.} k V c.c.l.l.k.k.k.k.k.k.k.k.' k.[ ` m B A.v.B.B.z.v.v.M.B.M.M.M.M.M.M.M.M.M.M.M.v.] i V } c.c.c.c.c.l.c.} B k A.v.z.v.c.l.l.c.` d V (.M.l.c.c.c.c.l.[ x.[ [ F V - o < z m m B M M k i i p y o * [.9X1X1X6X>Xq.h H H H K K r + o < s c } [ [ l.[ l.c.} } ] ` ` F F C A C c k ` ` ' ` G ] J O @ s.1X1XwX1X>X+.: a.a.$.$.$.*.*.*.,.,.,.,.,.*.*.$.$.%.r + , T T P P Y * . ;XmXMXMXMXBXAXHXPXPXPXPXPXPXPXPXPXPXPXPXPXPXPXPXPXPXPXPXPXPXPXPXPXPXPXPXPXPXPXPXPXPXPXPXPXPXPXPXPXPXPXPXPXPXPXPXPXPXPXPXPXPXPXPXPXPX",
"PXPXPXPXPXPXPXPXPXPXPXPXPXPXPXPXPXPXPXPXPXPXPXPXPXPXPXPXPXPXPXPXPXPXPXPXPXPXPXPXPXPXPXPXPXPXPXPXPXPXPXPXPXPXPXPXPXPXPXPXKXGXdX. 9 >XxXxXcX6.$ 9.d.1.1.7.7.7.7.7.7.7.7.1.1.7.7.,.1.1.&.3 * r T W T Y :   $ J v x v c c b c x v b c V ;.M.B.M.[ F D.N.M.A.B.z.M.;.0 o 0 8XeXrX>Xe.e.w.:.P T T T T T w #   : 1 y u s u k C C A V - o H $X.XB.G.G.G.S.S.S.S.G.G.G.G.G.G.G.G.G.G.G.S.B.B.N.M.c.c.m ] XXL.V.B.S.S.S.S.S.S.S.S.D.S.N.N.B.D.] i P.OXU.Z.G.S.S.G.G.G.G.G.S.S.S.S.S.S.S.B.M.M.M.M.M.M.} m m } c.l.l.k.k.k.k.k.k.k.k.' k.[ ` m k A.c.B.B.z.v.v.M.M.M.M.M.M.M.M.M.M.M.M.M.v.] p b } c.c.} c.c.l.c.} M k A.v.v.v.c.l.l.l.{ k c P.D.l.c.c.c.c.l.[ x.[ [ F V - o < z m m c M M k i i p y o @ [.9X1X1X6X>Xq.h H H H K U r + o < s c } [ [ l.l.[ } } { ` ` ` A C C F D c c ] ` ' ] G ] J O @ s.6X1XwX1X>X+.: a.a.$.$.*.*.*.*.*.,.*.*.*.*.*.$.$.%.r + , T W P P Y * . ;XmXMXMXMXBXAXHXPXKXPXPXPXPXPXPXPXPXPXPXPXPXPXPXPXPXPXPXPXPXPXPXPXPXPXPXPXPXPXPXPXPXPXPXPXPXPXPXPXPXPXPXPXPXPXPXPXPXPXPXPXPXPXPXPXPX",
"PXPXPXPXPXPXPXPXPXPXPXPXPXPXPXPXPXPXPXPXPXPXPXPXPXPXPXPXPXPXPXPXPXPXPXPXPXPXPXPXPXPXPXPXPXPXPXPXPXPXPXPXPXPXPXPXPXPXPXPXKXGXdX. 0 >XxXxXzX6.$ 0.d.1.1.7.7.7.6.7.1.6.6.1.1.3.6.,.1.1.&.= * w T W T Y :   $ H v x b c c c x x v b c V ;.B.B.M.[ F H.N.M.A.B.z.M.;.0 o 0 8XrXrX>Xe.e.w.:.P T T P T Y w #   : 1 y u s u p C N Z V - o H $X).B.G.G.G.S.S.S.S.G.G.S.G.S.G.G.S.S.S.S.S.B.N.S.M.M.[ p F..XH.V.B.A.S.S.S.S.S.S.S.D.S.N.N.B.A.` j ^.OXK.V.G.S.B.G.G.S.S.S.S.S.S.S.m.m.m.B.S.M.M.M.M.B.c.M p [ k.k.k.l.l.l.k.k.k.k.k.k.' ' ' B d A.M.M.B.B.v.v.M.M.M.M.M.M.M.M.M.M.M.M.c.c.' p z } c.c.} c.c.l.c.} M k M.v.v.v.c.l.z.l.{ c d A.F.l.c.c.x.} [ [ x.[ [ F V - o < z m m m M M z i i p y o @ ].9X6X1X6X>Xq.h H H H K K r + + < s c } ] [ c.l.[ [ } ' ` ` C C ` F ` C k c ] ' ' ` G ] R @ @ s.6X1XwX6X3X+.: a.a.#.$.*.*.*.*.*.*.*.*.*.*.*.$.*.&.r + , @.P P P Y * . ;XmXMXMXMXBXAXHXPXKXKXPXPXPXPXPXPXPXPXPXPXPXPXPXPXPXPXPXPXPXPXPXPXPXPXPXPXPXPXPXPXPXPXPXPXPXPXPXPXPXPXPXPXPXPXPXPXPXPXPXPXPXPXPXPXPX",
"PXPXPXPXPXPXPXPXPXPXPXPXPXPXPXPXPXPXPXPXPXPXPXPXPXPXPXPXPXPXPXPXPXPXPXPXPXPXPXPXPXPXPXPXPXPXPXPXPXPXPXPXPXPXPXPXPXPXPXPXKXFXsX% H 4XxXxXzX6.$ 9.f.2.1.7.6.6.7.7.6.6.6.6.6.3.6.6.1.1.+.3 * r P P Y ! 4   $ l v v v x x x z v v v z V ;.N.M.M.] F Z.N.M.A.M.z.M.;.0 o 0 5XrXrX>Xw.w.q.$.P T W Y P P w X   : 1 y y u u p M C A / - o H $X).B.G.G.G.S.S.D.G.G.G.G.G.G.G.G.G.S.S.S.S.M.B.B.z.v.' p (.).Z.V.V.G.B.V.Z.N.B.B.S.N.D.D.B.B.A./ d (.XXH.S.S.N.B.B.B.S.S.S.S.A.M.A.A.A.A.M.S.S.M.B.B.B.A.C k ] [ k.l.k.k.c.c.k.k.k.k.k.' ' ' V d c.M.M.M.M.M.A.v.M.A.v.v.v.v.B.M.M.M.v.v.c.[ p k { c.l.c.c.l.l.c.} V k <.M.v.z.c.l.c.l.[ V u A.H.l.c.l.l.l.[ } [ [ [ ` J - O < z m m B M N c u i p u   # f.6X1X,X4X>X4.h I q K K U w +   < g c { ] [ c.l.k.[ } ` _ _ C F F A D C k M ] ' ' ` G ] E - @ s.6X1XwX6X3X#.: 9.i.$.*.*.$.$.$.$.$.*.*.*.*.*.$.$.%.r + 4 Y P P P I * . ;XmXMXMXmXBXAXKXPXKXKXKXPXPXPXPXPXPXPXPXPXPXPXPXPXPXPXPXPXPXPXPXPXPXPXPXPXPXPXPXPXPXPXPXPXPXPXPXPXPXPXPXPXPXPXPXPXPXPXPXPXPXPXPXPXPX",
"PXPXPXPXPXPXPXPXPXPXPXPXPXPXPXPXPXPXPXPXPXPXPXPXPXPXPXPXPXPXPXPXPXPXPXPXPXPXPXPXPXPXPXPXPXPXPXPXPXPXPXPXPXPXPXPXPXPXPXPXKXFXsX# H 4XxXxXzX6.$ 0.f.2.1.6.6.6.6.1.1.6.6.6.6.3.6.6.1.1.+.3 * r P P T ! 4   $ H J J v x x x z b v v z V ;.N.M.M.F F Z.N.B.A.M.z.M.;.6 o 0 3XrXrX>Xw.w.7.$.W T W ! P U r X   : 1 y y u i p M C A / - o H $X).B.G.G.G.S.S.G.G.G.G.G.G.G.G.G.G.S.S.G.S.M.B.B.z.v.` m .X).Z.V.V.G.V.Z.Z.N.B.B.S.N.D.D.B.B.A./ j (.XXK.v.M.N.B.B.B.A.S.S.S.M.A.S.S.S.S.S.M.S.S.M.B.B.M.` k ` k.k.l.k.k.c.k.c.c.k.' k.k.' ' C p } M.M.M.M.M.M.v.M.A.v.v.v.v.z.c.c.M.M.v.c.[ k k ' c.l.c.c.l.l.c.} V k ;.c.c.z.c.l.c.l.[ / u | H.l.l.l.l.l.l.[ l.[ [ ` b - o < z m m B M m k u i p y   # s.6X1X,X6X>X4.h I q w K U w +   < g m { ] [ c.l.k.[ [ ` D D F ` A C D C p M ] [ [ ` G ] E @ @ i.1X1XwX1X3X#.: 9.i.$.*.*.$.$.$.*.$.*.*.*.*.$.#.$.%.r + 8 Y P P P I * . *XmXMXMXMXBXAXKXKXPXPXKXKXPXPXPXPXPXPXPXPXPXPXPXPXPXPXPXPXPXPXPXPXPXPXPXPXPXPXPXPXPXPXPXPXPXPXPXPXPXPXPXPXPXPXPXPXPXPXPXPXPXPXPXPXPX",
"PXPXPXPXPXPXPXPXPXPXPXPXPXPXPXPXPXPXPXPXPXPXPXPXPXPXPXPXPXPXPXPXPXPXPXPXPXPXPXPXPXPXPXPXPXPXPXPXPXPXPXPXPXPXPXPXPXPXPXKXKXFXsX# H >XxXxXzX6.$ 9.f.2.1.1.6.6.7.6.6.6.6.6.3.3.6.6.1.1.+.3 * r P P T ! 4   $ l J J b x x x j v v v z V ;.N.M.M.D ] H.N.B.A.B.z.M.;.6 o 0 3XrXrX>Xw.w.q.$.P T W ! P U w +   : y y y u u p M C Z / - o H $X).B.G.G.G.G.G.G.G.G.G.G.G.G.G.G.G.S.S.G.G.S.G.B.z.M.C C XXY.N.B.V.G.Z.Z.Z.N.B.N.S.B.D.D.B.B.A.b c .XXXH.v.M.N.B.B.B.S.S.S.S.M.A.S.S.S.S.S.S.M.M.M.B.B.M.] p _ c.l.l.k.k.c.k.k.k.k.' k.k.' ' ( p ' M.M.B.M.M.M.v.M.M.v.v.v.v.z.c.M.M.M.v.c.[ z d ' c.c.c.c.l.l.l.} V p ;.c.c.c.c.c.c.l.[ _ u _ D.M.l.l.l.l.[ [ c.[ [ ` b - o < z m M B m m c u i p y   # s.6X1X6X4X>X4.h I q w K U w +   < g m { [ [ c.l.l.[ ' ` D D C ` A A F C p M ] [ ' ` G ] E - @ i.,X1XwX1X3X%.: 9.i.$.$.*.$.*.$.*.*.*.*.*.*.$.$.$.%.r + 8 Y P P P I * . *XmXmXMXMXBXAXKXPXPXKXKXKXPXPXPXPXPXPXPXPXPXPXPXPXPXPXPXPXPXPXPXPXPXPXPXPXPXPXPXPXPXPXPXPXPXPXPXPXPXPXPXPXPXPXPXPXPXPXPXPXPXPXPXPXPX",
"PXPXPXPXPXPXPXPXPXPXPXPXPXPXPXPXPXPXPXPXPXPXPXPXPXPXPXPXPXPXPXPXPXPXPXPXPXPXPXPXPXPXPXPXPXPXPXPXPXPXPXPXPXPXPXPXPXPXPXPXKXFXsXX h 4XxXxXzX6.$ 9.f.1.1.6.6.6.6.7.3.3.3.6.6.6.3.6.1.1.#.3 * r P P T Y 4   $ H J J x x x x j x v b b V ;.N.B.M.D ] H.N.B.A.B.z.M.;.0 o 0 3XrX6X>Xe.w.7.$.W P T ! P P w X   : 1 y y s i p M N Z / > o H $X).B.S.G.G.G.G.G.G.G.G.G.G.G.G.G.G.G.G.G.G.G.G.B.z.M.N ] XXH.B.V.V.G.Z.Z.Z.B.M.M.M.B.A.D.B.B.A.z c .XXXH.m.S.B.M.B.S.S.S.S.S.S.S.M.S.A.A.A.M.M.M.B.B.M.M.[ k C x.l.l.k.k.c.l.k.[ k.' k.k.' ' ( p ] M.M.M.M.M.v.M.M.M.M.v.v.v.c.c.c.M.v.v.v.c.V i ` c.c.l.c.l.l.c.} C p ;.M.c.c.c.l.c.l.' _ s b P.M.[ l.l.l.[ [ c.[ ` ` b - O < z m M B m m k u i p u   & f.6X1X6X4X>X4.h I q K K U w +   < s m } [ [ c.c.l.[ ' ` D C C F ` A C C p C ] ' ' ' ' ] E - @ t.,X1X1X1X3X#.: a.i.$.#.$.$.$.$.*.*.*.*.*.*.$.$.$.%.r + 4 Y P P P I * . *XmXmXMXmXBXAXKXPXKXKXKXPXPXPXPXPXPXPXPXPXPXPXPXPXPXPXPXPXPXPXPXPXPXPXPXPXPXPXPXPXPXPXPXPXPXPXPXPXPXPXPXPXPXPXPXPXPXPXPXPXPXPXPXPXPX",
"PXPXPXPXPXPXPXPXPXPXPXPXPXPXPXPXPXPXPXPXPXPXPXPXPXPXPXPXPXPXPXPXPXPXPXPXPXPXPXPXPXPXPXPXPXPXPXPXPXPXPXPXPXPXPXPXPXPXPXPXKXFXsXX h ,XxXxXzX6.$ 9.f.2.1.6.6.6.6.6.3.3.3.6.6.6.6.6.1.1.#.3 * r P T Y Y 4   $ l J J v x x x j x b b b V ;.M.B.M.S ;.H.N.B.A.B.z.M.;.0   0 3XeX6X>Xe.w.7.$.W P P Y U P w X   : 1 y y s i p V N A / > o H $X).M.S.G.G.G.G.G.G.G.G.S.S.G.S.S.G.G.G.G.G.G.G.B.M.c.m A.XXD.B.V.V.G.V.V.N.B.M.B.M.B.A.S.V.B.A.j V XXXXH.m.S.B.M.B.S.S.D.S.S.S.S.M.S.S.A.A.M.M.M.M.B.M.M.[ k V x.x.l.k.k.c.l.k.k.k.k.k.k.' ' ( p ` M.M.c.c.M.M.A.A.A.M.v.v.v.c.M.M.M.v.v.c.} V i ` c.c.l.l.l.l.c.} C p ;.c.v.c.c.l.c.l.G ` j i P.D.[ l.l.l.l.c.l.[ ` ` b - o < z m M B m m k u i p u o & s.8X1X6X4X>X4.h I w K L U w +   < s m } [ [ l.l.[ [ ' ` _ C C ` ` A C C p C ] ' ' [ ' ] E - @ t.,X1X1X1X3X#.: a.i.$.#.$.$.$.$.*.*.*.*.*.*.$.$.$.%.r + 4 Y P P P I * X *XmXmXMXmXBXAXKXKXKXKXKXPXPXPXPXPXPXPXPXPXPXPXPXPXPXPXPXPXPXPXPXPXPXPXPXPXPXPXPXPXPXPXPXPXPXPXPXPXPXPXPXPXPXPXPXPXPXPXPXPXPXPXPXPXPX",
"PXPXPXPXPXPXPXPXPXPXPXPXPXPXPXPXPXPXPXPXPXPXPXPXPXPXPXPXPXPXPXPXPXPXPXPXPXPXPXPXPXPXPXPXPXPXPXPXPXPXPXPXPXPXPXPXPXPXPXPXKXFXsXX h >XxXxXzX6.$ 9.f.3.1.1.6.6.6.6.3.6.6.6.6.6.3.6.1.1.#.3 * r L P Y Y 4   $ l J J v x x x z v v b b V ;.N.B.M.M ;.H.N.B.A.B.N.B.;.0   0 3X9X6X>Xe.w.7.$.P P P Y P T w +   : y y y s i p C N A V > o H $X).S.G.G.G.G.G.G.G.G.G.S.S.G.S.S.G.G.G.G.G.G.G.B.M.} m U..XZ.N.V.V.G.B.B.B.B.B.B.S.B.A.S.V.B.A.i / XXXXG.m.G.B.M.B.S.S.S.S.S.A.A.v.A.S.S.S.A.M.M.M.B.B.M.} M m [ x.l.k.k.c.c.l.k.k.x.k.k.' ' ` p C M.M.M.c.v.S.A.A.A.M.v.v.v.B.M.M.M.v.v.c.[ _ u ( c.c.l.l.l.l.c.} / p ;.c.v.c.c.l.c.l.G ] c u F.D.l.l.l.l.[ c.[ [ ` ` J - o < j m M B m m k u i p u o & s.8X1X,X4X>X4.h K w w K U w + o < s m { ] [ [ k.[ [ ` ` _ C F ` ` A C C p _ ] ' ' [ G ] E - @ t.,X1X1X1X3X#.: a.i.$.$.$.$.#.$.$.*.*.*.*.*.$.$.$.%.r + 4 Y P P P I * X *XmXmXMXmXBXAXKXKXKXKXKXPXPXPXPXPXPXPXPXPXPXPXPXPXPXPXPXPXPXPXPXPXPXPXPXPXPXPXPXPXPXPXPXPXPXPXPXPXPXPXPXPXPXPXPXPXPXPXPXPXPXPXPXPXPX",
"PXPXPXPXPXPXPXPXPXPXPXPXPXPXPXPXPXPXPXPXPXPXPXPXPXPXPXPXPXPXPXPXPXPXPXPXPXPXPXPXPXPXPXPXPXPXPXPXPXPXPXPXPXPXPXPXPXPXPXPXKXFXsXX h >XxXxXzX6.$ 9.f.3.1.6.6.6.6.6.6.3.6.6.6.6.1.6.1.1.+.3 * r P W ~ Y 4   $ l J J v x x x b b v b b V ;.N.M.M.M M.H.N.B.A.B.z.N.;.0   0 3X9X6X>Xe.w.7.$.P P P Y T W r +   - y y y s i p C N A V > o H $X.XS.G.G.G.G.G.G.G.G.G.S.S.S.G.G.G.G.G.G.G.G.G.B.M.' k (..XN.N.Z.G.G.B.B.B.B.M.M.M.B.A.A.B.B.A.i _ XX.XZ.b.G.B.B.B.S.S.S.S.S.S.S.v.M.S.S.S.S.S.N.M.B.B.M.M.V m ' x.l.k.k.c.c.c.k.k.x.k.k.' ' ] p V M.M.M.c.z.v.M.M.A.M.v.v.v.M.M.M.M.v.v.c.} _ u ( c.c.l.c.l.l.c.} ( p ;.c.v.c.c.l.M.l.G ] b u <.U.l.l.c.l.[ [ [ [ ` ` / - o < z m M B m m c i i p u o & f.8X1X,X4X>X4.h I w w K U K + o 6 s m } ] [ [ [ [ [ ` ` _ C F ` ` ` C C p _ ] ' [ [ ' ] E @ @ t.1X1X1X1X3X#.: a.i.$.*.*.$.#.#.$.*.*.*.*.*.$.$.*.%.r + 4 Y P P P Y * X *XmXmXMXmXBXAXKXKXKXPXPXKXPXPXPXPXPXPXPXPXPXPXPXPXPXPXPXPXPXPXPXPXPXPXPXPXPXPXPXPXPXPXPXPXPXPXPXPXPXPXPXPXPXPXPXPXPXPXPXPXPXPXPXPXPX",
"PXPXPXPXPXPXPXPXPXPXPXPXPXPXPXPXPXPXPXPXPXPXPXPXPXPXPXPXPXPXPXPXPXPXPXPXPXPXPXPXPXPXPXPXPXPXPXPXPXPXPXPXPXPXPXPXPXPXPXPXKXFXsX+ 0 >XxXxXzX6.$ 9.f.1.1.1.6.7.7.3.1.1.6.6.6.6.6.6.1.1.O.= * I P T T Y 3   $ l v v v c v x x v v v b V } M.M.M.z A.U.N.M.A.M.N.M.;.0   0 5XrX6X>Xe.w.7.*.P P P ~ T T I #   : y y y u i k V C Z V - o H $X).N.G.B.G.G.G.G.G.G.G.G.G.G.G.G.S.S.S.S.S.B.B.B.M.` m ).).B.N.S.N.S.V.G.S.S.S.S.S.M.A.M.B.B.<.a ] OX.XS.A.A.B.M.B.S.G.G.G.G.G.G.B.B.S.S.A.S.S.N.M.B.B.z.M.C m ` } x.k.l.l.l.c.x.k.[ k.k.' ' ' p B c.M.B.B.B.B.M.M.v.n.n.n.v.c.z.M.B.M.c.c.v.` i / } c.c.c.l.l.c.} ( d <.c.z.z.v.c.l.l.[ F _ u | P.l.l.l.k.[ ' [ [ ` ` / - o < x B M k m m z i i d y o & f.8X1X6X6X>Xq.h K K H K U K + o < s c } [ [ [ [ [ [ ` ` ( ` ` ( ` A ( V p ` [ [ [ [ [ ] E - @ t.1X1XwX1X3X#.* a.i.$.*.$.$.$.*.*.*.*.*.*.*.*.*.*.%.w + 5 T P P T Y * . ;XmXmXMXBXBXAXKXKXPXPXPXPXPXPXPXPXPXPXPXPXPXPXPXPXPXPXPXPXPXPXPXPXPXPXPXPXPXPXPXPXPXPXPXPXPXPXPXPXPXPXPXPXPXPXPXPXPXPXPXPXPXPXPXPXPX",
"PXPXPXPXPXPXPXPXPXPXPXPXPXPXPXPXPXPXPXPXPXPXPXPXPXPXPXPXPXPXPXPXPXPXPXPXPXPXPXPXPXPXPXPXPXPXPXPXPXPXPXPXPXPXPXPXPXPXPXPXKXFXsX+ 0 >XxXxXzX6.$ 9.f.1.1.1.6.6.6.3.1.1.6.6.6.6.6.6.1.1.O.= * I P T T Y 3   $ l v v v c v x j v v v b V } M.M.M.z F.H.N.M.A.M.N.B.;.0   0 5XrX6X>Xu.w.7.*.P P P ~ T T I #   : y y y u i k V C Z V - o H $X).B.S.B.G.G.G.G.G.G.G.G.G.G.G.G.S.S.S.S.S.B.B.B.M.A C _.E.B.N.S.N.S.G.G.G.S.S.S.D.B.A.M.B.B.<.a | OX.XS.A.A.B.B.N.S.G.G.G.G.G.S.N.B.S.S.A.S.S.N.M.B.c.z.D.` p _ } c.k.' l.l.l.x.k.[ k.k.k.[ ' m m } M.B.B.B.B.M.M.v.n.n.n.v.c.c.M.c.c.l.c.c.{ d B ' c.c.c.l.l.c.} ( d <.c.z.z.v.c.l.l.[ F _ s x (.M.l.c.c.[ [ [ [ ` ` / - o < x B M k m m c i p d y o & f.8X1X6X6X>Xq.h K K H K L K + o < s c } [ [ [ } [ ' ` ` ` ` ` ( ` A ( M p ` [ ' ` ' ' ] E - @ t.1X1XwX1X3X#.* a.i.$.*.$.$.$.*.*.*.*.*.*.*.*.*.$.%.r + 5 T P P P Y * X ;XmXmXMXBXBXAXKXKXPXPXPXPXPXPXPXPXPXPXPXPXPXPXPXPXPXPXPXPXPXPXPXPXPXPXPXPXPXPXPXPXPXPXPXPXPXPXPXPXPXPXPXPXPXPXPXPXPXPXPXPXPXPXPXPXPX",
"PXPXPXPXPXPXPXPXPXPXPXPXPXPXPXPXPXPXPXPXPXPXPXPXPXPXPXPXPXPXPXPXPXPXPXPXPXPXPXPXPXPXPXPXPXPXPXPXPXPXPXPXPXPXPXPXPXPXPXPXKXFXsXX 0 >XxXzXzX6.$ 9.f.1.1.1.6.3.3.1.1.1.6.6.6.6.6.6.1.1.O.= * I P P T Y 4   $ h v v v c v x j x x v b V } M.M.;.k P.H.N.M.A.M.N.M.;.0   0 5XrXrX>Xu.w.q.*.P P P ~ T T I #   * y y y u i k V C Z V > o H $X).M.N.B.G.G.G.G.G.G.G.G.G.G.G.G.S.S.S.S.G.G.N.B.M.C ` .XU.B.N.S.N.S.B.G.G.S.A.S.D.S.D.A.V.N.} u ;.OX).B.A.S.N.N.N.S.G.G.G.S.S.B.B.B.B.m.A.S.S.N.N.B.c.z.M.{ k C } c.k.l.l.l.x.x.k.k.k.k.k.[ { m k } c.B.B.z.B.M.M.v.n.m.n.v.c.c.B.c.c.l.c.v.} k k ' c.l.c.l.l.l.} ( d <.c.z.z.v.c.l.l.' F ` j u U.M.[ c.c.} [ [ [ ` ` / - o < x B M k m m k i i d y o & f.9X1X1X1X>X7.h h h H K K K + o < s c } c.l.c.} [ ` ` A ` ` ` ( ` A ( V p ] [ ' ` ' ' ] J - @ t.1X1XwX1X3X#.* a.i.$.*.$.$.$.*.*.*.*.#.*.*.*.#.#.%.r + 5 T P P P Y * . ;XmXmXMXBXBXAXKXKXPXPXPXPXPXPXPXPXPXPXPXPXPXPXPXPXPXPXPXPXPXPXPXPXPXPXPXPXPXPXPXPXPXPXPXPXPXPXPXPXPXPXPXPXPXPXPXPXPXPXPXPXPXPXPXPXPX",
"PXPXPXPXPXPXPXPXPXPXPXPXPXPXPXPXPXPXPXPXPXPXPXPXPXPXPXPXPXPXPXPXPXPXPXPXPXPXPXPXPXPXPXPXPXPXPXPXPXPXPXPXPXPXPXPXPXPXPXPXKXGXsXX h >XxXzXzX6.$ 9.f.1.,.1.6.6.6.1.1.1.1.1.6.6.6.6.1.1.O.* * I T P T Y 3   $ l v v v c v x j x x x c V } M.A.} p U.H.B.M.A.M.N.N.<.0   0 5XrXrX>Xe.w.q.$.W P P ~ T T I #   * y y y s i p V N Z V - o H $X).M.B.G.G.G.G.G.G.G.G.G.G.G.G.G.G.S.S.S.S.G.B.B.M.N { XXL.B.B.S.G.S.V.G.G.S.A.S.S.S.D.A.B.B.} u A.OX).B.A.A.B.M.B.S.S.G.G.S.S.B.B.B.S.S.S.S.M.B.N.M.B.B.M.} m M } c.k.l.l.k.k.k.k.[ k.k.' ' ' M k { M.B.B.B.z.M.M.B.n.m.m.v.z.c.c.M.c.c.l.c.} c i ' c.c.c.l.l.l.} ` d A.c.z.z.z.v.c.c.[ F ` V u A.D.c.c.c.c.[ ' ] ` ] / - o < x B M k m m k p i d 1 o & ].9X1X1X6X>Xq.h h h H K K K + o < s c } } } } } ' ` ` A ` ` A A A A ( V k ] [ ' ` ' G ] E - @ t.1X1XwX1X3X#.* a.i.$.*.$.$.#.*.*.*.#.#.*.*.*.#.$.+.r + 8 T P P U Y * . ;XmXmXMXMXBXAXKXKXPXPXPXPXPXPXPXPXPXPXPXPXPXPXPXPXPXPXPXPXPXPXPXPXPXPXPXPXPXPXPXPXPXPXPXPXPXPXPXPXPXPXPXPXPXPXPXPXPXPXPXPXPXPXPXPXPX",
"PXPXPXPXPXPXPXPXPXPXPXPXPXPXPXPXPXPXPXPXPXPXPXPXPXPXPXPXPXPXPXPXPXPXPXPXPXPXPXPXPXPXPXPXPXPXPXPXPXPXPXPXPXPXPXPXPXPXPXPXKXGXsXX h >XxXzXzX6.@ 9.f.1.,.1.6.7.6.1.1.1.1.1.6.6.6.6.1.1.O.* = I P P T Y 3   $ h v v v c x x x x x x c V } c.M.{ k (.H.B.M.M.M.z.B.<.0   0 5XrX6X>Xe.w.7.$.W T P ~ T T I #   * y y y s u k V N Z V - o H $X).M.S.G.G.G.G.G.G.G.G.G.G.G.G.G.G.S.S.S.B.B.B.B.c.m <.XXH.B.N.B.S.S.G.G.S.S.A.S.S.B.D.A.B.B.{ a F.OXQ.B.A.A.B.M.M.S.S.G.G.S.S.B.v.B.S.S.S.S.M.z.M.B.z.B.M.c.B m } c.l.l.l.l.k.k.x.k.k.k.k.' { C k ' M.c.B.M.M.B.B.v.n.n.n.v.z.c.c.z.c.c.l.c.} V i ] c.c.c.l.l.[ } ` p A.c.z.z.v.v.v.c.[ F ` / u _ P.c.c.c.c.[ ' ] ` ] / - O ; x m M k m m c p i d 1 o & ].8X1X,X1X>X7.0 h K H K L K + o < s c | } [ [ [ ` ` ` ` ` ` ` A A C ( m k ] [ ' ' ' G ] E O @ t.1X1XwX1X3X%.* a.i.$.$.$.$.#.*.*.*.#.*.*.*.*.#.$.#.r + 5 T P P P Y * . ;XmXmXMXBXBXAXHXKXPXPXPXPXPXPXPXPXPXPXPXPXPXPXPXPXPXPXPXPXPXPXPXPXPXPXPXPXPXPXPXPXPXPXPXPXPXPXPXPXPXPXPXPXPXPXPXPXPXPXPXPXPXPXPXPXPX",
"PXPXPXPXPXPXPXPXPXPXPXPXPXPXPXPXPXPXPXPXPXPXPXPXPXPXPXPXPXPXPXPXPXPXPXPXPXPXPXPXPXPXPXPXPXPXPXPXPXPXPXPXPXPXPXPXPXPXPXPXKXGXsXX 0 >XxXzXzX6.@ 9.f.3.1.3.6.7.6.1.1.1.1.6.6.6.6.6.1.1.O.* = I P T Y Y 3   $ h v v v c v v x b b b b V } M.A.{ k (.D.B.M.M.B.z.M.<.0   0 5XrX6X>Xw.w.q.$.W T P ~ T T I O   * y y y s u k V N Z V - o H $X).M.S.B.G.G.G.G.G.G.G.S.S.S.S.S.S.S.S.S.B.B.B.B.c.m F..XH.B.N.N.B.S.G.G.S.S.S.S.S.M.A.A.B.B._ a ^.OX).B.A.A.B.M.M.S.S.S.G.S.S.B.z.v.B.v.v.M.M.z.B.B.B.z.M.} C m ' c.l.l.l.l.k.k.x.c.k.k.k.' { ( d ` c.c.c.c.M.M.M.v.v.n.n.M.M.c.c.c.l.l.c.c.} / i ` c.c.c.l.l.[ } ` p A.v.v.z.v.v.v.c.[ F F ` d j (.A.c.c.c.[ ' ] ` ` / - O < x m m k m m c p i d 1 o & ].9X6X,X1X>X7.9 h K K K K K + o < s c | } [ [ [ ` ` ` ` A ` ` ` ( C ` c k ] [ [ ' [ ' ] E O + t.1X1XwX1X3X%.: a.i.$.*.$.$.#.*.*.*.*.*.*.$.*.$.$.#.r + 5 T P P P Y * . ;XmXmXMXmXBXAXHXKXPXPXPXPXPXPXPXPXPXPXPXPXPXPXPXPXPXPXPXPXPXPXPXPXPXPXPXPXPXPXPXPXPXPXPXPXPXPXPXPXPXPXPXPXPXPXPXPXPXPXPXPXPXPXPXPXPX",
"PXPXPXPXPXPXPXPXPXPXPXPXPXPXPXPXPXPXPXPXPXPXPXPXPXPXPXPXPXPXPXPXPXPXPXPXPXPXPXPXPXPXPXPXPXPXPXPXPXPXPXPXPXPXPXPXPXPXPXPXKXGXsXX 0 >XxXxXzX7.@ 9.d.3.1.3.6.6.6.1.1.1.6.7.6.6.6.6.1.1.O.* * Y P T Y U 4   $ l v v v x v b b b b b b V } M.M.` c (.S.B.M.A.B.z.M.<.0 o 0 5XrX6X>Xe.w.7.*.W P P ~ T T w O   * y y y s i k V C Z V - o H $X).B.S.G.G.G.G.G.G.G.G.S.S.S.S.S.S.S.S.S.S.z.N.B.c.m P..XN.B.N.B.B.S.G.G.G.S.S.S.S.M.M.B.B.M._ u (.OXQ.B.A.S.B.M.M.S.S.B.S.S.S.B.z.B.B.A.M.M.M.M.B.B.M.v.M.c.` m ` } l.l.c.l.k.k.k.c.k.k.' ' ' ( d ` M.l.l.c.M.B.v.z.v.A.n.v.c.c.l.l.l.c.c.c.{ _ i C c.c.c.l.l.[ } _ p A.v.v.z.z.c.c.c.[ F F ` m u /.A.c.c.c.[ ' ] ` ` / - o ; x m c c M m k i i d 1 o & f.9X6X1X1X>X7.h h K K K K K +   < s k | [ [ [ ] ` A ` ` A ( ` ` ` A ` k c ] [ [ [ [ ' ] E O @ r.6X1X1X,X3X%.: a.i.$.*.*.$.#.*.*.$.#.$.#.#.*.$.#.#.r + 5 Y P P U Y * . ;XmXmXMXmXmXAXHXKXPXPXPXPXPXPXPXPXPXPXPXPXPXPXPXPXPXPXPXPXPXPXPXPXPXPXPXPXPXPXPXPXPXPXPXPXPXPXPXPXPXPXPXPXPXPXPXPXPXPXPXPXPXPXPXPXPX",
"PXPXPXPXPXPXPXPXPXPXPXPXPXPXPXPXPXPXPXPXPXPXPXPXPXPXPXPXPXPXPXPXPXPXPXPXPXPXPXPXPXPXPXPXPXPXPXPXPXKXKXPXKXPXPXPXPXPXPXKXKXFXsXX 0 >XxXxXzX6.@ 9.f.1.1.3.3.3.1.1.1.1.6.1.6.6.6.6.1.6.O.* * r U P P I , o $ l v v v x x b b b x x z V } M.M.D C (.S.B.M.A.v.z.M.<.0 o 0 8XrXrX>Xe.w.7.*.P P W T T T w #   * 1 1 y s i k V V A / - o H $X).B.G.G.G.G.S.S.G.S.S.S.S.S.S.S.D.S.S.S.S.B.M.M.} N U._.Z.B.B.B.m.S.v.v.m.m.G.v.v.M.M.B.M.A.V i (.OXE.V.V.G.b.v.B.S.S.B.B.G.S.S.S.M.M.M.M.A.A.M.M.M.A.v.M.v.' m ` { c.c.c.l.k.k.k.k.k.k.[ ' ' ' d ( M.M.c.v.v.M.M.v.v.A.M.M.c.c.c.l.c.c.M.M.} _ i C } c.c.l.k.c.} _ i A.c.z.z.l.c.c.c.' D D ` V u <.F.c.c.c.} ' ` F ] J - o < c B V M m m k i p d y o @ p.8X1XwX6X>Xq.h h K K K L K +   > g k | ] { { ` ` A F ` ` F ` A ` C / k B [ ' ' ' ] ' { E @ @ r.6X,X1X6X3X#.: 9.a.#.#.$.$.#.$.$.$.$.*.*.$.*.*.#.#.w + 5 ~ P P P Y * . ;XmXmXmXMXBXAXHXPXPXKXKXKXPXPXPXPXPXPXPXPXPXPXPXPXPXPXPXPXPXPXPXPXPXPXPXPXPXPXPXPXPXPXPXPXPXPXPXPXPXPXPXPXPXPXPXPXPXPXPXPXPXPXPXPXPX",
"PXPXPXPXPXPXPXPXPXPXPXPXPXPXPXPXPXPXPXPXPXPXPXPXPXPXPXPXPXPXPXPXPXPXPXPXPXPXPXPXPXPXPXPXPXPXPXPXPXKXKXPXKXPXPXPXPXPXPXKXKXFXsXX 0 >XxXxXzX6.@ 9.f.1.1.1.1.1.1.1.1.1.6.6.3.1.1.,.1.1.O.* : K U P P I , o $ l v v v x x v b b x v z V [ M.;.M ` (.B.B.M.A.M.z.M.<.0 o 0 8XrXeX>Xe.w.7.*.P P W T T T w #   * 1 1 y s i p V V A / - o H $X).B.G.G.G.G.S.S.S.S.S.S.S.S.S.S.S.S.S.A.S.B.M.M.[ N U.).B.B.B.B.m.S.m.m.m.b.G.v.v.M.M.B.v.A.B i .XOXY.V.V.V.b.v.B.S.S.B.S.G.S.S.S.B.M.M.S.S.M.M.M.M.M.v.M.v.} m C { x.k.c.l.k.k.k.k.k.k.' ' [ ' d C M.B.B.v.v.M.M.v.v.M.v.v.z.z.c.c.c.c.c.c.} ] p m [ c.c.l.k.c.{ _ p <.c.z.z.l.c.c.c.' F D ] F u V ^.c.c.c.} [ ` F ] J - o < c m M M m m k i i d y o @ p.8X1XwX6X>Xq.h h H H K K K +   > g k | ] } [ ` ` A ` ` ` D D C ` A / k M [ ' ' ' ] ' { E @ @ r.6X,XwX1X3X#.: 9.a.#.$.$.$.#.$.$.$.$.$.*.*.*.*.#.#.w X 5 ~ P P P Y * X ;XmXMXMXMXBXAXHXPXPXKXKXPXPXPXPXPXPXPXPXPXPXPXPXPXPXPXPXPXPXPXPXPXPXPXPXPXPXPXPXPXPXPXPXPXPXPXPXPXPXPXPXPXPXPXPXPXPXPXPXPXPXPXPXPXPX",
"PXPXPXPXPXPXPXPXPXPXPXPXPXPXPXPXPXPXPXPXPXPXPXPXPXPXPXPXPXPXPXPXPXPXPXPXPXPXPXPXPXPXPXPXPXPXPXPXPXKXKXPXKXPXPXPXPXPXPXKXKXFXsXX 0 >XxXxXzX6.@ 9.f.1.1.1.1.1.1.1.1.1.6.6.1.1.1.,.1.6.~ * 3 K U P P I , o $ l v v v x x v b b x v z V [ M.;.k { (.M.B.M.A.A.z.M.<.0 o 0 8XeXeX>Xw.w.7.$.P P W T T T w #   * 1 1 y s i k V V A / - o H $X).B.G.H.G.G.G.G.S.S.S.G.S.S.S.S.S.S.M.v.S.N.N.M.[ C Y.Q.B.B.B.S.m.S.m.m.S.b.G.v.v.M.M.B.M.A.k d .XOXY.B.V.b.v.v.B.S.S.S.S.G.S.S.S.S.S.S.S.S.A.M.M.M.M.M.v.v.c.m V { k.k.c.l.k.k.k.k.k.k.' ' [ ' c M c.B.M.M.M.M.M.v.v.A.v.c.z.z.c.c.c.c.c.l.} { k m ' c.c.l.k.c.{ _ p <.c.z.z.l.c.c.c.' F ` ` ` d j ^.M.c.[ } [ ` F ] J - o < c m M k m m z i i d y o @ p.9X1XwX6X>Xq.h h K H K K K +   > g k | [ } [ ` ` ( ` ` ` D C C ` ` / p C ' [ ' ' ] ' { E @ @ r.6X,XwX1X3X#.& 9.d.$.$.$.$.#.#.$.$.$.#.*.*.*.*.#.#.w X 5 ~ P P P Y * X ;XmXmXMXBXBXAXKXPXPXKXKXPXPXPXPXPXPXPXPXPXPXPXPXPXPXPXPXPXPXPXPXPXPXPXPXPXPXPXPXPXPXPXPXPXPXPXPXPXPXPXPXPXPXPXPXPXPXPXPXPXPXPXPXPXPX",
"PXPXPXPXPXPXPXPXPXPXPXPXPXPXPXPXPXPXPXPXPXPXPXPXPXPXPXPXPXPXPXPXPXPXPXPXPXPXPXPXPXPXPXPXPXPXPXPXPXPXPXPXKXKXPXPXPXPXPXKXKXGXsXX 0 >XxXzXzX7.@ 9.d.1.1.6.1.6.1.1.1.1.1.1.3.1.1.,.1.,.! * 3 I P P T U 4 o $ l v v v x v v v v J b z V } M.;.p A.P.B.c.v.A.M.z.M.<.6 o w 8X6X6X>Xw.q.3.$.P T W T U U w #   & 1 1 y u i k M V Z / ; o H $X).M.G.G.G.G.G.G.G.G.G.S.S.S.S.S.S.S.S.S.S.M.N.M.[ C (.Y.N.B.B.v.m.S.m.m.S.b.b.b.v.M.B.B.M.A.k z XXOXY.Z.V.S.v.B.G.S.B.G.S.v.B.B.M.M.A.S.S.M.A.v.A.A.A.M.M.M.M.C m { k.c.c.l.k.l.k.k.l.k.' [ [ [ V k [ v.c.c.M.v.M.v.v.v.v.c.z.z.M.B.M.M.c.c.c.{ k p ' c.c.l.k.l.{ _ i <.M.c.z.l.c.c.c.' ` F ` ' B i A.A.l.l.} [ ` F ] / - o < b m M M m m k i p d y o @ p.9X1XwX6X>Xq.h h K H K K K +   > g k | [ { ` ` ` ( A ` ` ` C C A ` V d C { [ ' ' ' ' { E O + r.6X,XwX,X3X*.: a.a.$.#.#.$.#.$.*.$.#.*.*.*.*.*.#.#.w + 5 ~ P P U Y * X ;XmXMXMXBXBXAXKXPXPXKXKXPXPXPXPXPXPXPXPXPXPXPXPXPXPXPXPXPXPXPXPXPXPXPXPXPXPXPXPXPXPXPXPXPXPXPXPXPXPXPXPXPXPXPXPXPXPXPXPXPXPXPXPXPXPX",
"PXPXPXPXPXPXPXPXPXPXPXPXPXPXPXPXPXPXPXPXPXPXPXPXPXPXPXPXPXPXPXPXPXPXPXPXPXPXPXPXPXPXPXPXPXPXPXPXPXPXPXPXKXKXPXPXPXPXPXKXKXGXsXX 0 >XxXzXzX8.* 0.d.1.1.6.1.6.1.1.1.6.1.1.1.1.1.6.1.,.Y * * r P T T U 4 o $ l v v v x v v v v J b z V } M.[ i P.F.M.M.M.A.M.z.M.| 6 o w 5XeX6X>Xw.w.3.$.W P T T U Y q #   & 1 1 y u i k V V Z / ; o H $X).M.G.G.G.G.G.G.G.G.G.S.S.S.S.S.S.S.S.S.S.M.N.M.' A ).Y.N.B.B.B.S.S.b.G.G.b.b.b.v.M.B.B.v.M.p b XXOXY.V.B.S.v.B.G.S.B.G.S.v.B.M.M.B.M.M.S.v.A.M.A.A.A.M.v.v.A.` m { k.l.c.l.l.l.l.k.k.k.' ' [ [ V k ' v.z.c.v.v.v.M.M.v.v.c.z.z.B.B.M.M.l.l.c.{ M p ` } c.l.k.l.{ _ i <.M.c.z.l.c.c.c.' ` F ` ' / p | D.c.c.} [ ` F ] / - o < v m M M m m k i p d y o @ p.8X1XwX6X>Xq.h h K H K K K +   > s k | { [ ` ` ` ` F C ` ` C F C F V d ( { [ ' ' ' ' { E O @ r.6X,XwX1X3X#.: a.i.$.#.#.$.#.$.$.$.$.$.#.$.*.*.#.#.w + 5 ~ P P U Y * X ;XmXMXMXMXBXAXKXPXPXKXKXPXPXPXPXPXPXPXPXPXPXPXPXPXPXPXPXPXPXPXPXPXPXPXPXPXPXPXPXPXPXPXPXPXPXPXPXPXPXPXPXPXPXPXPXPXPXPXPXPXPXPXPXPXPX",
"PXPXPXPXPXPXPXPXPXPXPXPXPXPXPXPXPXPXPXPXPXPXPXPXPXPXPXPXPXPXPXPXPXPXPXPXPXPXPXPXPXPXPXPXPXPXPXPXPXPXPXPXKXKXPXPXPXPXPXKXKXGXsXX 0 >XxXzXzX8.* 0.i.1.1.1.6.1.1.1.1.6.1.1.1.1.1.6.1.,.r * = K T P P U , o $ l v v v x x v b b b c z V [ ;.] i (.F.M.M.M.A.A.B.M.<.6 o w 5XeXeX>Xw.w.7.#.T P P T U Y q #   & 1 1 y u i k V V A / ; o H $X).M.G.G.G.G.G.G.G.G.G.S.S.S.S.S.S.S.S.S.S.M.N.M.` A ).H.B.B.B.S.S.S.G.G.b.m.v.b.m.M.M.B.v.M.i V XXXXK.B.v.S.n.S.G.S.S.G.S.B.B.M.M.M.M.M.M.v.A.M.M.M.M.M.v.v.A.' m ` k.k.k.l.l.l.l.l.k.k.[ l.l.[ S k ' v.v.c.c.v.v.M.v.v.v.c.z.z.c.M.M.M.l.l.c.} V p ` } c.c.k.l.{ _ i <.M.c.z.l.l.c.l.' ` A ' ' _ k V D.v.c.} [ ` F ] / - o < x m m c m m k i p d y o @ p.8X1X1X6X>Xq.h h K H K L K +   > s k | { ] ` ` ` F ` C ` ` ` F D C V d ` { [ ' ' ' ' { E O @ r.6X,XwX1X3X%.: 9.i.$.#.#.$.#.#.$.$.*.#.#.$.#.$.%.%.w X 5 ~ P P P Y * X ;XmXMXmXBXBXAXHXPXPXHXKXPXPXPXPXPXPXPXPXPXPXPXPXPXPXPXPXPXPXPXPXPXPXPXPXPXPXPXPXPXPXPXPXPXPXPXPXPXPXPXPXPXPXPXPXPXPXPXPXPXPXPXPXPXPX",
"PXPXPXPXPXPXPXPXPXPXPXPXPXPXPXPXPXPXPXPXPXPXPXPXPXPXPXPXPXPXPXPXPXPXPXPXPXPXPXPXPXPXPXPXPXPXPXPXPXPXPXPXPXPXPXPXPXPXPXKXKXGXsXX 0 >XxXxXzX8.@ 0.i.1.1.1.6.6.6.6.1.1.1.1.1.1.1.6.1.*.w 4 4 Y P P T I , o $ l v v v x v v c b v v z V [ ;._ p (.F.M.M.M.A.M.B.M.<.6 o q 5XeXeX>Xe.w.7.#.T P P T P Y q #   * 1 1 y u i p C V Z V ; o H $X).M.G.G.G.G.G.G.G.G.G.S.S.S.S.S.S.S.S.S.S.N.B.B.` F (.G.B.B.B.S.S.S.G.G.m.v.v.G.S.M.M.B.M.} i _ XXXXK.B.v.S.A.B.S.S.G.S.S.S.B.B.S.S.B.M.M.v.M.M.M.M.M.v.v.v.v.' m C x.k.k.k.l.l.l.c.k.k.k.k.k.[ _ p ' v.v.B.l.v.v.M.v.v.v.c.z.z.c.M.c.c.c.l.c.{ _ p / ' c.l.l.l.{ _ i <.M.l.z.l.l.c.c.` ` ` ( ' ` B z A.M.c.l.[ ` F ] / - o < c B m c m m k i p k y o @ p.9X1X1X4X>Xq.h h H H K L K +   > s k ] { ] F F D A ` C ` ` ` D C C V d ` ' ' ' ' ' ' { E O @ r.1X,XwX6X3X#.: a.a.$.#.#.#.$.#.#.$.$.#.*.*.#.#.#.%.w X 8 ~ P P P Y & . ;XmXmXmXBXBXAXKXKXKXKXPXPXPXPXPXPXPXPXPXPXPXPXPXPXPXPXPXPXPXPXPXPXPXPXPXPXPXPXPXPXPXPXPXPXPXPXPXPXPXPXPXPXPXPXPXPXPXPXPXPXPXPXPXPXPX",
"PXPXPXPXPXPXPXPXPXPXPXPXPXPXPXPXPXPXPXPXPXPXPXPXPXPXPXPXPXPXPXPXPXPXPXPXPXPXPXPXPXPXPXPXPXPXPXPXPXPXPXPXPXPXPXPXPXPXPXPXHXGXsXX 0 >XxXxXzX8.@ 0.i.1.6.1.6.6.6.6.6.1.,.1.1.1.1.1.,.*.q : : Y P T T I ,   $ l v v v b v x x x x x b V } ;.V b (.D.B.z.M.A.M.z.M.<.0 o w 5X9X6X>Xe.q.7.#.T P P T P P K #   * 1 y y s i p V N C V > o H $X).B.G.V.G.G.G.G.G.G.G.G.S.S.S.S.S.G.B.B.N.N.S.A.F F (.H.B.V.V.S.S.S.G.G.v.v.v.S.S.M.B.B.A.| u ] OXXXH.M.A.A.S.S.S.S.S.G.G.S.S.S.S.S.S.S.v.v.v.v.v.v.v.v.z.c.v.} C C x.x.x.x.k.l.k.k.k.k.k.k.k.' ] k ` A.c.c.z.c.M.B.M.B.M.c.v.v.v.v.c.c.c.c.c.[ ` p B { [ l.l.[ { _ i <.c.l.l.l.l.v.} ] ` ` ( ( ` V i ;.S.l.l.' ` F ] J - o < c B m m M m z i p k y o & p.6X1X1X4X>Xq.h h h H K L K +   > s z | { ` C D C A ` ` ` ` ` D _ S c k ` ' ' ' ` ` G ] E - @ r.6X1XwX6X3X#.: 0.a.$.#.#.$.#.$.*.*.#.$.*.*.#.#.#.%.w + 5 T W W P I & . ;XnXMXmXNXBXAXHXKXKXKXPXPXPXPXPXPXPXPXPXPXPXPXPXPXPXPXPXPXPXPXPXPXPXPXPXPXPXPXPXPXPXPXPXPXPXPXPXPXPXPXPXPXPXPXPXPXPXPXPXPXPXPXPXPXPX",
"PXPXPXPXPXPXPXPXPXPXPXPXPXPXPXPXPXPXPXPXPXPXPXPXPXPXPXPXPXPXPXPXPXPXPXPXPXPXPXPXPXPXPXPXPXPXPXPXPXPXPXPXPXPXPXPXPXPXPXPXHXGXsXX 0 >XxXxXzX7.& 0.i.1.6.,.6.6.6.6.6.1.1.1.1.1.6.,.,.+.q , : I P T T I ,   $ l v v v b v x x x x x z V ;.;.k ) (.N.B.z.M.A.M.z.M.<.0 o w 5X9X9X>Xe.q.7.#.P P P T P P K #   * 1 y y s i p V N C V > o H $X).B.G.N.G.G.G.G.G.G.G.G.G.S.S.G.G.G.B.B.N.M.A.A.F ' (.H.B.B.V.G.S.S.G.G.v.v.v.S.S.M.B.B.A.| u ;.OXXXH.M.A.A.A.M.A.S.S.G.G.G.S.S.m.m.S.B.v.v.v.v.v.v.v.v.z.z.M.c.A N x.c.c.k.k.l.l.k.k.k.k.k.l.' ' m C } c.M.z.c.M.M.M.B.c.c.v.v.v.v.v.c.c.c.c.} ` p k { [ l.l.[ { _ i A.c.l.l.l.l.c.} ` ` ( ` ' ` _ i ] D.c.l.' ` F ] J - o < c B m m M m z i p k y o & p.6X1X1X4X>X3.h h h H K L K +   > s k ] ] ` _ ` ` A ` ` ` ` ` D _ S c k ] ' [ ' ' ` G ] E - @ r.6X1XwX6X3X#.: a.a.$.#.#.$.*.*.*.*.*.*.*.*.#.$.#.O.w + 5 T W W P I * . ;XnXMXMXNXBXAXHXKXKXKXPXPXPXPXPXPXPXPXPXPXPXPXPXPXPXPXPXPXPXPXPXPXPXPXPXPXPXPXPXPXPXPXPXPXPXPXPXPXPXPXPXPXPXPXPXPXPXPXPXPXPXPXPXPXPX",
"PXPXPXPXPXPXPXPXPXPXPXPXPXPXPXPXPXPXPXPXPXPXPXPXPXPXPXPXPXPXPXPXPXPXPXPXPXPXPXPXPXPXPXPXPXPXPXPXPXPXPXPXPXPXPXPXPXPXPXPXHXGXsX. 0 >XxXxXzX8.* 0.i.,.6.6.6.6.6.6.1.1.1.,.,.1.1.,.1.Y w 4 4 Y T T T I ,   $ l v v v v v v x x x x z V ;.;.d F.U.N.B.c.M.A.M.z.M.<.6 o w 5XeX9X>Xe.q.7.#.P P P T P P w #   * 1 y y s i k V N C V > o H $X).M.B.S.G.G.G.G.G.G.G.G.S.S.S.S.S.S.B.B.N.M.M.A.` ' Y.G.z.B.V.S.G.S.G.G.v.v.v.S.S.M.B.B.A.{ u F.OXXXH.M.A.A.S.v.v.S.G.G.G.G.G.S.v.v.S.S.S.v.v.B.B.B.B.v.v.z.M.M.` m ' c.c.k.' k.l.k.k.k.k.k.k.k.' m B } c.M.z.B.B.M.B.B.c.v.v.v.v.v.v.v.c.c.c.c.` m d ] [ l.l.[ { _ i A.c.c.c.c.c.c.} ` ` ` ` ( ( _ j S D.c.c.' ` F ` J - o < c B m M M m z i i d y o & p.6X1X1X,X>X3.h h h H K K K +   > g k ] ] ` D ` F A ` ` ` ` ` _ _ S k m ] [ [ ' ' ` G ] E - @ r.6X1XwX6X3X#.: a.a.$.#.#.$.*.*.*.*.*.*.*.$.#.$.#.O.w + 5 T W W P I * . ;XnXMXMXNXBXAXHXKXKXPXPXPXPXPXPXPXPXPXPXPXPXPXPXPXPXPXPXPXPXPXPXPXPXPXPXPXPXPXPXPXPXPXPXPXPXPXPXPXPXPXPXPXPXPXPXPXPXPXPXPXPXPXPXPXPX",
"PXPXPXPXPXPXPXPXPXPXPXPXPXPXPXPXPXPXPXPXPXPXPXPXPXPXPXPXPXPXPXPXPXPXPXPXPXPXPXPXPXPXPXPXPXPXPXPXPXPXPXPXPXPXPXPXPXPXPXPXHXGXsX. 0 >XxXzXzX8.& 0.i.,.6.6.6.6.6.6.1.1.1.1.,.,.1.,.,.w I 5 : Y T T T Y 4   $ l v x x v b b c x x x j M } { d /.P.N.M.M.M.A.M.z.B.<.6 o w 8X9X9X>Xe.w.7.#.P P W T P P q $   * 1 1 y s i k V C Z V < o h $X).M.S.B.S.G.G.G.G.G.S.S.S.S.S.S.S.B.B.B.N.B.A.A.' [ Y.Z.B.B.B.S.S.S.G.G.G.S.M.S.S.M.B.v.n.) u /.OXXXH.M.M.A.S.A.v.S.G.S.G.S.S.G.S.v.m.v.B.v.v.B.B.B.B.B.B.z.v.c.' N ` c.c.[ [ l.l.l.k.k.k.k.k.k.' V m } c.B.l.c.M.M.z.c.c.v.v.v.v.v.v.v.v.c.c.c.` N i ( [ c.l.l.{ _ i <.c.c.c.c.c.c.' ` ` ` ` ` A ` z c D.v.M.[ ` ` ` J - o < b B m m M m j i i d y o + u.6X1X,X4X>X3.h K h H K U K +   > g k ] ] ` _ F ` ` ` C A ` ` D _ C k M { } ' ' [ ' G ] R - @ r.6X,XwX1X3X+.& a.a.$.#.$.$.$.*.*.*.*.#.#.*.*.#.$.#.w + 8 ~ W W P I * . ;XnXMXMXNXNXAXHXPXKXPXPXPXPXPXPXPXPXPXPXPXPXPXPXPXPXPXPXPXPXPXPXPXPXPXPXPXPXPXPXPXPXPXPXPXPXPXPXPXPXPXPXPXPXPXPXPXPXPXPXPXPXPXPXPXPX",
"PXPXPXPXPXPXPXPXPXPXPXPXPXPXPXPXPXPXPXPXPXPXPXPXPXPXPXPXPXPXPXPXPXPXPXPXPXPXPXPXPXPXPXPXPXPXPXPXPXPXPXPXPXPXPXPXPXPXPXPXHXGXsX% q >XxXxXzX7.& 0.i.,.6.6.6.6.6.6.1.1.1.1.1.1.1.,.#.K ! 5 : I P T T Y 4   $ l l x x v x x x x x x z V ;._ k (.P.N.M.M.M.A.M.z.B.<.0 o w 8XrXeX>Xe.w.6.#.P T W W T P q $   * 1 y y u i k V N C V > o h $X).M.S.S.G.G.G.G.G.G.S.S.S.G.G.G.G.S.B.B.B.B.S.S.' l.U.Z.B.B.B.S.S.S.G.G.G.S.S.S.S.M.B.v.A._ u (.OXXXH.M.M.A.S.S.S.S.S.S.S.S.S.S.S.B.B.B.B.B.v.B.B.B.B.B.B.z.v.M.} V A } c.[ [ l.l.l.k.k.k.k.k.[ ' C p } M.B.B.c.c.c.c.B.c.v.v.v.v.v.v.v.c.c.c.c.' C p C [ l.l.' ' _ i <.c.c.c.c.c.c.' ` ` ` ` ' G ` V p n.M.l.} ` F ` J - o < b B m m m m k i i k y o & p.1X1X1X4X>Xq.h h h H K U I +   > g k ] ` ` ` ` ` ` ` C ` ` ` _ _ C p M ' [ ' [ [ ' G ] E @ @ r.6X1XwX1X3X#.* a.a.$.#.$.$.#.#.*.$.*.#.#.#.#.#.$.+.w + 8 ~ P W P Y * . ;XmXMXMXNXNXAXJXPXKXPXPXPXPXPXPXPXPXPXPXPXPXPXPXPXPXPXPXPXPXPXPXPXPXPXPXPXPXPXPXPXPXPXPXPXPXPXPXPXPXPXPXPXPXPXPXPXPXPXPXPXPXPXPXPXPX",
"PXPXPXPXPXPXPXPXPXPXPXPXPXPXPXPXPXPXPXPXPXPXPXPXPXPXPXPXPXPXPXPXPXPXPXPXPXPXPXPXPXPXPXPXPXPXPXPXPXPXPXPXPXPXPXPXPXPXPXPXHXGXsX% w >XxXxXzX7.$ 0.i.1.6.6.6.6.6.6.1.1.1.1.1.1.1.,.P I +.5 : I P U T Y 4   $ l l x v v x x x x x x j V ;.V / (.D.M.B.M.M.A.M.z.B.<.0 o w 8XrX9X>Xe.q.3.#.P T W W T P K #   * 1 y y s i m C N N V > o h $X).B.S.S.S.G.G.G.G.G.S.S.S.G.G.G.G.S.G.V.B.V.S.S.k.c.H.B.B.B.B.S.S.S.G.G.G.S.S.S.S.M.B.B.A./ u }.OXXXH.M.M.A.S.S.S.A.B.B.v.m.S.S.S.S.S.S.B.B.B.B.v.v.B.B.B.z.M.M.c.C C } } [ [ l.k.l.k.k.k.k.k.[ ' C p ' M.B.B.c.c.c.c.z.c.c.v.v.v.v.v.v.c.c.c.v.} ( i m [ l.l.[ ] _ i <.c.c.v.c.c.c.' ` ` ` ` ' G ` _ d ` D.M.} F F ` J - o < b B m m M m k i i k y o & f.1X1X1X4X>Xq.h K h H K U U +   > g k ] ` ` ` ` ` ` ` ` ` ` _ D _ C p C [ [ ' [ ' ' G ] E - @ r.6X,XwX,X3X#.* a.a.$.#.$.$.#.#.*.#.#.#.#.#.#.#.$.O.w + 8 ~ P W P Y * . ;XmXMXMXNXNXAXJXPXPXKXPXPXPXPXPXPXPXPXPXPXPXPXPXPXPXPXPXPXPXPXPXPXPXPXPXPXPXPXPXPXPXPXPXPXPXPXPXPXPXPXPXPXPXPXPXPXPXPXPXPXPXPXPXPXPX",
"PXPXPXPXPXPXPXPXPXPXPXPXPXPXPXPXPXPXPXPXPXPXPXPXPXPXPXPXPXPXPXPXPXPXPXPXPXPXPXPXPXPXPXPXPXPXPXPXPXPXPXPXPXPXPXPXPXPXPXPXHXGXsXX 0 >XxXxXzX7.& 0.i.1.6.1.,.6.6.6.1.1.1.1.1.1.1.,.L T &.5 : I P U T I ,   $ l l x x x x x x v x j j b | b { (.D.M.B.M.M.A.M.z.M.{ 6 o q 5X9X6X>Xe.4.3.#.T W P T P U q $   * 1 1 u s i k V N Z V < o h $X).M.S.M.A.S.G.G.G.G.S.S.S.D.S.S.S.S.S.S.B.G.S.m.c.c.H.B.B.v.S.S.S.G.G.G.S.S.S.S.v.v.v.B.A.V u }.OXXXH.M.S.S.S.n.n.S.S.S.S.m.S.S.n.v.v.n.m.B.B.B.B.B.B.S.A.M.M.M.M.A V { } [ [ k.k.l.k.k.k.k.k.k.[ ` k ` A.M.l.c.c.M.v.c.c.v.v.v.v.v.v.v.c.} c.c.} ( d k ' l.k.[ ' _ p A.c.c.c.c.c.} ` ` ` ` ( ( A ` _ k m F.M.l.F F ` b - o < z m N M M m z i p d y o & f.1X1X1X4X>Xq.h h h H K K K +   > s z ] _ ` ` ` ` ` ` ` ` F _ _ _ M d ( ' [ ' [ ' ' G ] E - @ r.1X,X1X,X3X+.* a.a.$.#.$.$.#.*.*.*.*.*.*.*.*.$.#.#.w X 8 ~ W W P Y * X ;XmXMXMXMXBXAXKXKXKXKXPXPXPXPXPXPXPXPXPXPXPXPXPXPXPXPXPXPXPXPXPXPXPXPXPXPXPXPXPXPXPXPXPXPXPXPXPXPXPXPXPXPXPXPXPXPXPXPXPXPXPXPXPXPXPX",
"PXPXPXPXPXPXPXPXPXPXPXPXPXPXPXPXPXPXPXPXPXPXPXPXPXPXPXPXPXPXPXPXPXPXPXPXPXPXPXPXPXPXPXPXPXPXPXPXPXPXPXPXPXPXPXPXPXPXPXPXHXFXsXX 0 >XxXxXzX3.& 0.r.,.1.1.1.,.,.1.1.,.,.,.1.1.1.$.K ..*.5 3 I U U P T ,   $ l g j j x v v j j j j j b ) j A.P.B.M.M.B.M.A.S.v.M.{ 6 o w 5X9X6X>Xe.4.3.#.P P P P P U q $   * 1 1 u u u k M N A V < o h $X).M.S.A.A.n.S.D.D.D.S.S.D.D.S.S.S.S.S.S.S.S.S.S.v.M.S.B.B.B.S.S.G.G.G.G.G.G.S.S.S.n.v.v.A.b u XXOX.XH.S.S.S.S.m.n.m.S.S.S.S.S.S.n.m.m.m.S.v.v.v.S.S.S.m.n.v.v.M.A.` V [ } [ [ k.k.l.l.l.k.k.k.l.[ ` k / A.M.l.c.v.v.v.v.v.v.v.v.v.v.v.v.c.} c.c.c.` m p ` l.k.k.' ` p A.} c.c.c.c.} ` ` ( ` ` ` A F _ V p F.c.l.G F ` b - o < z M V V M m z d i p y o $ p.1X1X1X4X>Xq.h h h H K K K +   2 s k _ _ _ ` ` F ` ` ` F ` ( ( _ V d ` ' ' ' ' ] [ G [ E @ @ r.4X1X1X,X3X#.* a.a.#.#.#.$.*.*.*.*.*.*.*.*.*.$.#.#.w X 8 Y P W P Y : X ;XmXMXMXmXBXAXKXKXKXKXPXPXPXPXPXPXPXPXPXPXPXPXPXPXPXPXPXPXPXPXPXPXPXPXPXPXPXPXPXPXPXPXPXPXPXPXPXPXPXPXPXPXPXPXPXPXPXPXPXPXPXPXPXPXPX",
"PXPXPXPXPXPXPXPXPXPXPXPXPXPXPXPXPXPXPXPXPXPXPXPXPXPXPXPXPXPXPXPXPXPXPXPXPXPXPXPXPXPXPXPXPXPXPXPXPXPXPXPXPXPXPXPXPXPXPXPXHXFXsX+ 0 >XxXxXzX3.& 0.r.,.1.1.1.1.1.6.1.1.1.1.,.1.1.T H 1.*.5 3 I U U P T ,   $ l x v j b b v j j x j j b ) k F.P.B.B.B.B.A.A.M.v.M.<.6 o w 5XrX6X>Xe.4.3.+.P P P P P U q #   * 1 1 u u u p M N A V < o h $X).M.S.S.S.S.S.D.D.D.S.S.D.D.S.S.S.S.S.S.S.S.S.A.M.S.v.B.B.B.S.S.S.G.S.S.G.S.S.S.S.n.v.v.A.c i XXOX.XH.G.S.S.S.m.n.n.m.S.S.S.S.m.m.S.m.S.m.v.v.v.S.B.M.n.v.v.v.v.M.' V ] } } k.k.k.l.l.l.k.k.k.k.' ` m B <.c.l.c.v.v.v.v.v.v.v.v.v.v.v.c.c.c.c.c.c.' V i M [ k.' ' ` d A.[ c.c.l.c.} ` ` ( ` ` ` F A ` ( p { A.k.' F ` J - o < z m m B M m z d i p y o $ p.6X1X1X4X>Xq.h h h H K L K +   > a j _ _ _ ` ` ` F ` ` ` ` C _ _ m p { ' ' ' ' ] ' G ] E @ @ r.4X1X1X,X3X+.* a.r.#.#.#.$.*.*.*.*.*.*.*.*.*.$.#.#.w X 5 Y P P P Y * X *XmXMXMXMXBXAXKXKXKXKXKXPXPXPXPXPXPXPXPXPXPXPXPXPXPXPXPXPXPXPXPXPXPXPXPXPXPXPXPXPXPXPXPXPXPXPXPXPXPXPXPXPXPXPXPXPXPXPXPXPXPXPXPXPXPX",
"PXPXPXPXPXPXPXPXPXPXPXPXPXPXPXPXPXPXPXPXPXPXPXPXPXPXPXPXPXPXPXPXPXPXPXPXPXPXPXPXPXPXPXPXPXPXPXPXPXPXPXPXPXPXPXPXPXPXPXPXHXFXsX+ 0 >XxXxXzX7.& 0.r.1.1.1.1.,.,.1.1.1.,.,.1.,.*.H P 6.*.5 3 Y W P P Y ,   $ J v v j c x x v v x j j b b b P.D.M.M.B.B.M.A.v.v.M.<.6 o w 5XrX6X-Xe.4.3.+.P P L P P U q #   * 1 1 u u i p V N A V < o h $X).M.S.S.S.S.G.D.D.D.S.S.D.S.S.S.S.S.S.S.S.S.S.A.M.M.M.B.B.B.S.S.G.G.S.S.S.S.v.B.S.n.v.B.A.k d XXOX.XG.v.v.S.S.S.S.m.m.S.S.S.m.v.n.n.n.m.S.S.v.v.n.v.n.n.v.v.M.c.v.} V ` } } k.k.k.l.l.l.l.k.k.k.' ' M k <.c.c.c.c.v.v.v.v.v.v.v.v.v.c.c.c.c.l.l.c.' D p m ' k.' ' ` d F.[ c.c.l.c.' ( ` ( ` ` ` A A A ` k B A.[ ' F ` J - o < k m m B M m z d i p y o $ p.6X1X1X4X>Xq.h h K K K L K +   > s j _ _ ` ` ` ` F ` D ` ` _ _ _ c k { ' } ' [ [ ' G ] E @ @ r.4X1X1X,X3X+.* a.r.#.#.#.$.$.*.*.*.*.*.*.*.*.$.#.+.w X 8 ~ P L L T * . h.mXMXMXmXBXAXKXKXKXKXKXPXPXPXPXPXPXPXPXPXPXPXPXPXPXPXPXPXPXPXPXPXPXPXPXPXPXPXPXPXPXPXPXPXPXPXPXPXPXPXPXPXPXPXPXPXPXPXPXPXPXPXPXPXPX",
"PXPXPXPXPXPXPXPXPXPXPXPXPXPXPXPXPXPXPXPXPXPXPXPXPXPXPXPXPXPXPXPXPXPXPXPXPXPXPXPXPXPXPXPXPXPXPXPXPXPXPXPXPXPXPXPXPXPXPXPXHXFX;XX 0 >XxXxXzX7.* 0.r.3.1.1.1.,.,.1.1.,.,.,.1.1.+.0 +.8.%.5 = r U W T Y 4   $ v v v j j x x j v j j j J j _ U.D.M.B.M.z.M.A.v.z.M.<.6 o K 8XrX6X#X4.q.3.+.P P L P U P q #   & 1 y y u i p C N N V < o h $X.XM.S.S.S.S.D.D.D.S.S.S.S.D.G.S.S.S.S.S.S.S.S.S.M.M.S.M.v.B.S.S.S.S.S.S.S.S.v.v.S.m.v.B.c.d c oXOX.XG.V.v.S.S.S.S.S.S.S.m.m.n.m.m.m.n.m.S.n.S.S.v.v.v.v.n.M.M.c.v.c.V ` c.} [ k.k.l.l.l.l.[ [ [ ' ' C k } c.c.c.v.c.v.v.v.v.v.v.v.v.c.c.c.l.l.c.l.[ F c d ` k.k.' _ k A.[ c.c.c.c.' ` ` ` ( ` ` ` ` A A V i A.[ ' F ` V - o < j m m B V m k i i p y o @ p.6X1X1X4X>Xq.h K 0 w K L U +   > s k _ _ _ ` ` ( F F D ` ` ` ( _ j m { [ [ ' [ ' [ G ] E O @ r.6X1XwX,X3X+.: 9.r.#.#.$.$.#.#.#.$.#.#.*.*.*.$.#.@.w + 8 Y T P P T : X h.mXMXMXMXNXAXKXKXKXKXKXPXPXPXPXPXPXPXPXPXPXPXPXPXPXPXPXPXPXPXPXPXPXPXPXPXPXPXPXPXPXPXPXPXPXPXPXPXPXPXPXPXPXPXPXPXPXPXPXPXPXPXPXPXPX",
"PXPXPXPXPXPXPXPXPXPXPXPXPXPXPXPXPXPXPXPXPXPXPXPXPXPXPXPXPXPXPXPXPXPXPXPXPXPXPXPXPXPXPXPXPXPXPXPXPXPXPXPXPXPXPXPXPXPXPXPXHXGX;X+ w <XxXxXzX7.* 0.r.1.1.1.1.,.1.1.,.,.,.,.1.*.U K 1.8.%.4 3 r U W T Y 4   $ v v x j j x x x x x x j b i { U.D.B.B.v.z.v.A.M.v.M.<.6 o K 8XrX9X#X4.q.3.+.P P P P U P q #   * 1 y y u i p V V C V < o h $X.XM.S.S.S.S.D.D.G.S.A.S.S.S.S.S.S.S.S.S.S.S.S.S.S.S.M.v.B.B.S.S.S.S.S.S.S.S.v.v.S.m.v.B.c.d V oXOX.XG.G.v.S.m.m.m.m.m.m.m.S.m.m.m.m.n.n.v.v.v.B.v.v.n.v.v.v.M.c.c.v.A ` } } l.k.k.k.l.k.[ [ [ [ G ' _ k { A.c.v.v.v.v.v.v.v.v.v.c.v.v.c.c.c.c.c.c.} ` M p A ' ' [ _ k <.[ l.c.c.c.' ` ` ` ( ` ( ` ` A F C p ) [ F F ` / - o < z m m B V m k i p p y o $ p.6X1X1X4X>Xq.h K 0 w K L U +   > s k _ ` _ ` A A F ` _ ` _ _ _ _ p M ] ' ' ' [ ` ' ' ] E O @ r.6X1XwX1X3X+.: a.a.#.#.$.$.#.#.#.#.*.$.#.*.*.$.@.%.w + 8 Y W P P T : X h.mXMXMXMXNXAXKXKXKXKXKXPXPXPXPXPXPXPXPXPXPXPXPXPXPXPXPXPXPXPXPXPXPXPXPXPXPXPXPXPXPXPXPXPXPXPXPXPXPXPXPXPXPXPXPXPXPXPXPXPXPXPXPXPXPX",
"PXPXPXPXPXPXPXPXPXPXPXPXPXPXPXPXPXPXPXPXPXPXPXPXPXPXPXPXPXPXPXPXPXPXPXPXPXPXPXPXPXPXPXPXPXPXPXPXPXPXPXPXPXPXPXPXPXPXPXPXHXGX;XX 0 >XxXxXzX7.& 0.r.1.1.1.3.3.1.1.,.,.1.,.,.+.K T 8.6.%.5 3 r W U T Y ,   $ l v j j x x x l x x x j j i <.U.M.B.B.M.z.v.A.v.v.M.{ 6 o K 8X9X9X#X4.q.3.+.P P P T U P w O   * 1 y u u i k V C C V < o h $X.XM.S.M.S.S.G.G.G.S.M.A.S.S.S.S.S.S.S.S.S.S.S.S.S.S.S.B.B.G.G.S.S.S.S.S.S.B.v.v.S.m.v.B.} i _ OXOX).G.G.m.m.n.n.n.m.m.m.m.S.S.S.S.m.n.n.n.v.v.B.v.v.S.v.v.c.B.c.c.c.` ` } [ [ k.k.[ k.[ [ k.k.[ G [ _ k ` A.c.v.v.c.v.v.v.v.v.c.c.v.v.v.c.c.c.c.c.c.` _ p n G ' ] V V } } l.c.c.c.' ` ` ` ` ' ` ` ` F F F m k [ F F ` V - o < z m m B M m z i p p y o & [.6X1X1X4X>Xq.h K h w K L U +   > a j _ _ _ ` A A F ` S _ ` _ _ ) u C ] ' ' ' [ ' ' ' [ J O @ r.6X1XwX1X3X+.* a.a.$.#.$.$.#.#.#.#.*.#.*.*.*.$.#.%.w + 8 Y W P P T : X h.mXMXMXMXNXAXKXKXKXKXPXPXPXPXPXPXPXPXPXPXPXPXPXPXPXPXPXPXPXPXPXPXPXPXPXPXPXPXPXPXPXPXPXPXPXPXPXPXPXPXPXPXPXPXPXPXPXPXPXPXPXPXPXPXPX",
"PXPXPXPXPXPXPXPXPXPXPXPXPXPXPXPXPXPXPXPXPXPXPXPXPXPXPXPXPXPXPXPXPXPXPXPXPXPXPXPXPXPXPXPXPXPXPXPXPXPXPXPXPXPXPXPXPXPXPXPXKXFXaXX 0 >XxXxXzX6.* a.i.1.,.3.3.3.1.,.,.,.,.1.*.T w *.7.1.+.3 3 r T U T Y :   $ l l x x x x v v j j j h a j P.P.B.M.c.v.c.M.A.v.B.M.| 6 o K 8X9X6X#Xq.4.3.#.P W P P P P q +   : y y u u i k V C Z V ; o h $X.XM.S.A.G.G.G.G.G.G.S.S.S.S.S.S.S.S.B.M.M.S.S.S.S.S.S.S.S.S.S.S.S.S.S.S.S.S.v.v.S.v.z.B.} i { OXOX).N.B.v.m.v.n.n.m.S.S.m.m.S.S.S.m.m.m.S.S.A.A.v.v.n.v.v.c.M.c.c.c.[ A [ [ [ [ ' [ k.[ [ [ [ [ G [ ` m / A.v.c.c.c.v.v.v.v.v.v.c.v.v.v.v.c.v.c.c.v.[ D m p C { _ k ] } [ l.l.c.[ ' ` ` ` ' ' ' ] ' ` ` ` V k ` F ` ` b - o < z M m B B M z i p p y o @ ].1X1X1X9X>Xw.h K h H K L U +   > a j _ ` ` ` ` ` _ D D F ` ` _ V u F ] ` ' ' ' ` ' ' [ E @ @ r.6X1X1X1X3X+.: 9.a.$.#.#.$.*.*.*.#.#.*.*.*.*.$.#.#.w X 8 ! T P P Y * X h.mXMXMXNXNXAXKXPXPXPXPXPXPXPXPXPXPXPXPXPXPXPXPXPXPXPXPXPXPXPXPXPXPXPXPXPXPXPXPXPXPXPXPXPXPXPXPXPXPXPXPXPXPXPXPXPXPXPXPXPXPXPXPXPXPX",
"PXPXPXPXPXPXPXPXPXPXPXPXPXPXPXPXPXPXPXPXPXPXPXPXPXPXPXPXPXPXPXPXPXPXPXPXPXPXPXPXPXPXPXPXPXPXPXPXPXPXPXPXPXPXPXPXPXPXPXPXKXFXsXX 0 <XxXxXzX1.* a.i.1.,.6.1.1.1.,.,.,.,.6.*.I I 9.7.1.T 3 : Y W P T Y :   $ l v v x x x v v j j x h y V U.D.B.M.M.v.c.M.A.M.B.M.| 6 o K 8X9X9X#Xq.4.3.#.P W P T P P q X   : y y y u i k M C Z V ; o 0 $X).M.S.S.G.G.S.S.G.G.S.S.S.S.S.S.S.S.S.S.S.S.S.S.S.S.S.D.D.S.S.A.M.M.S.S.S.S.v.v.v.v.z.B.{ i <.OXOX).N.B.B.S.v.m.m.S.S.n.m.S.S.S.m.m.S.S.S.m.n.n.n.n.n.c.c.v.M.c.c.c.c.F [ [ [ [ [ [ [ [ [ k.[ [ ' k.' m V A.v.c.c.c.v.v.v.v.v.n.c.n.n.v.v.c.c.c.c.c.c.` D p p M d c } [ l.l.l.l.[ ' ` A A A G ' ' ' ` ` ` C N ` ` ` _ b - O 1 z M k B M M z i p p u o @ ].1XwX,X4X>Xw.h K h h K K U @   2 a j _ _ C ` ` A A D ` F F _ _ V u ] ] ` [ ' [ ` ] ' [ E @ + r.1X,X1X1X3X#.: r.a.$.#.#.$.*.*.*.#.#.*.*.*.*.*.#.#.w X 8 ! T P U Y * X h.mXMXMXMXNXAXKXKXPXPXPXPXPXPXPXPXPXPXPXPXPXPXPXPXPXPXPXPXPXPXPXPXPXPXPXPXPXPXPXPXPXPXPXPXPXPXPXPXPXPXPXPXPXPXPXPXPXPXPXPXPXPXPXPXPX",
"PXPXPXPXPXPXPXPXPXPXPXPXPXPXPXPXPXPXPXPXPXPXPXPXPXPXPXPXPXPXPXPXPXPXPXPXPXPXPXPXPXPXPXPXPXPXPXPXPXPXPXPXPXPXPXPXPXPXPXPXKXFXsXX 0 <XxXxXzX1.* a.i.1.,.6.3.1.1.,.,.1.,.,.#.w #.r.1.1.@.3 : Y T P T Y :   $ l v v x x x v x j j l h y ] P.D.M.z.M.v.c.M.A.M.B.M.| 6 o K 8X9X9X#Xe.3.3.#.P W P T P P q X   : y y y u i k M N Z V ; o 0 $X.XM.S.S.G.G.S.S.G.G.S.S.S.G.S.S.S.S.S.S.S.S.S.S.S.S.S.S.S.S.S.S.B.v.S.S.S.S.S.v.v.z.z.B.{ u F.OXOXQ.N.B.B.S.v.m.S.S.S.n.m.S.S.S.S.m.m.m.m.m.n.n.A.A.A.v.v.v.v.M.v.v.c.' [ l.[ k.k.[ [ [ [ k.k.[ ' ' ' N m A.v.c.c.c.v.v.v.v.n.v.c.n.v.c.c.c.c.c.c.l.c.[ ` ` p i d ` c.l.l.l.l.l.' ' ` A A A A ' ' ` ' ` ` ` A ` ` ` ` b - O < j m k V M m z i p p u o @ ].1XwX,X4X>Xw.h K h h K K U @   - a j _ _ C F ( F ` _ ` D A ` _ V u } ] ` ' ' ' ` ] ' [ E @ + r.1X,X1X1X3X+.: 9.a.$.#.#.$.#.$.*.$.#.*.*.*.*.$.#.#.w X 8 ! T P U T * X h.mXMXMXMXNXAXKXKXPXPXPXPXPXPXPXPXPXPXPXPXPXPXPXPXPXPXPXPXPXPXPXPXPXPXPXPXPXPXPXPXPXPXPXPXPXPXPXPXPXPXPXPXPXPXPXPXPXPXPXPXPXPXPXPXPX",
"PXPXPXPXPXPXPXPXPXPXPXPXPXPXPXPXPXPXPXPXPXPXPXPXPXPXPXPXPXPXPXPXPXPXPXPXPXPXPXPXPXPXPXPXPXPXPXPXPXPXPXPXPXPXPXPXPXPXPXPXKXFXsXX 0 <XxXxXzX1.* a.i.1.,.3.3.3.1.,.,.1.,.*.Y K 6.6.1.*.@.4 3 Y U P T Y :   $ l v v x x x v x z j l h u F.U.B.M.M.v.v.c.M.A.M.B.M.| 6 o K 8XrX9X#Xe.3.3.#.P W P T P P q +   : y y y u i k M N C V < o 0 $X.XM.S.S.G.G.S.S.S.S.S.S.S.S.S.S.S.S.S.S.S.S.S.G.G.G.G.S.S.S.S.S.S.S.S.S.S.S.S.B.v.M.z.B.] u (.OXOXQ.N.B.B.S.v.m.S.S.S.m.m.n.m.S.m.m.m.m.m.n.n.n.A.A.A.n.v.v.c.v.c.c.c.l.c.l.l.k.k.[ k.[ [ [ [ [ ' ' } C p } v.c.c.c.v.v.v.v.v.c.c.c.c.c.c.c.c.c.c.c.c.l.[ ' ' ( ' n.c.l.l.l.l.l.' ' ' F F A G ' ' ' ' ` ' ` ` ` F D _ b - O < j m M B m m j u i p u o @ ].1XwX1X4X>Xw.h H w 0 K K U @   : a i _ ` C ` ` ` ` ` D D ` ` _ c i [ ` ` ' ' ' ` ] ' [ E @ + e.6X,X,X1X>X+.: 9.a.$.#.#.$.#.$.*.$.#.*.*.*.*.$.#.#.w X 8 ! T P U T * X h.mXMXMXMXBXAXKXKXPXPXPXPXPXPXPXPXPXPXPXPXPXPXPXPXPXPXPXPXPXPXPXPXPXPXPXPXPXPXPXPXPXPXPXPXPXPXPXPXPXPXPXPXPXPXPXPXPXPXPXPXPXPXPXPXPX",
"PXPXPXPXPXPXPXPXPXPXPXPXPXPXPXPXPXPXPXPXPXPXPXPXPXPXPXPXPXPXPXPXPXPXPXPXPXPXPXPXPXPXPXPXPXPXPXPXPXPXPXPXPXPXPXPXPXPXPXPXHXFXsXX 0 >XxXxXzX1.@ 9.i.1.,.1.1.3.1.,.,.,.,.$.K T 0.6.,.*.@.: 3 r P P P Y :   $ l v v x x x v x j j l 1 j P.D.B.B.B.z.v.c.M.A.M.B.M.| 6 o K 8XrX6X#Xe.q.3.#.P W P T P L q +   : y y u u i k M N N V < o 0 $X).M.B.S.G.G.G.S.S.S.S.G.S.S.S.S.S.S.S.S.S.S.S.G.G.G.G.S.S.S.S.S.G.G.S.S.S.S.S.S.S.v.z.M.` u (.OXOXY.B.N.B.v.v.m.m.S.m.n.m.m.S.S.S.m.S.m.m.n.n.A.A.A.n.v.n.v.v.c.v.v.c.c.c.c.c.k.k.[ k.k.[ [ [ [ ' k.} ( p { A.c.c.c.c.c.c.v.v.v.c.c.c.c.c.c.c.c.c.c.c.c.c.l.c.c.c.c.c.c.c.l.l.l.' F G ' G A G G ( ( ( ' ` ` ` A F F ` c - O 1 j m M V m m z i p p u O @ ].,XwX1X4X>Xw.h h 0 0 K K U @   - g j _ ` D ` ` ` ` _ C F ` C C p z [ ` ` ' [ [ ' ] ' [ E + @ r.6X,X1X1X3X+.> r.a.$.$.#.#.#.$.$.#.#.$.*.*.*.$.#.#.w X 8 ! P P P Y * . h.mXMXMXmXBXAXKXKXPXPXPXPXPXPXPXPXPXPXPXPXPXPXPXPXPXPXPXPXPXPXPXPXPXPXPXPXPXPXPXPXPXPXPXPXPXPXPXPXPXPXPXPXPXPXPXPXPXPXPXPXPXPXPXPXPX",
"PXPXPXPXPXPXPXPXPXPXPXPXPXPXPXPXPXPXPXPXPXPXPXPXPXPXPXPXPXPXPXPXPXPXPXPXPXPXPXPXPXPXPXPXPXPXPXPXPXPXPXPXPXPXPXPXPXPXPXPXHXFXsXX 0 >XxXxXzX1.@ 9.i.1.,.1.1.1.1.,.,.1.*.T 0 *.9.6.*.$.@.: = r P T P Y :   $ l l v x x x x v j j h 1 ) P.D.B.B.z.v.v.c.M.A.v.z.M.| 6 o K 8X9X9X#Xe.q.3.+.P W P P P P q +   : y y u u u p M N Z V < o h $X).M.A.S.G.G.S.S.S.S.S.S.S.S.A.A.A.S.S.S.S.S.S.G.G.G.S.S.S.S.B.G.G.G.S.S.S.S.S.S.S.v.z.B.` u (.OXOXU.B.B.v.S.v.n.n.S.S.v.m.m.m.m.S.S.S.S.m.n.S.S.A.n.v.v.n.c.v.n.v.v.v.c.c.c.c.k.k.k.k.l.[ [ [ [ ' k.[ ` k ] M.v.c.c.c.c.c.c.c.n.n.v.v.c.c.c.c.c.c.c.c.c.c.l.l.c.c.c.c.c.l.l.l.[ ' A A ' ' A G A A ( ( ' ' ` A A F F ` c - O 1 j m m B B m z i p p u O & ].,XwX,X4X>Xe.h h 0 w K L U @   - g j ) ` D F ` ` ` _ D D F C C i V [ ` ] [ [ [ [ ] G [ E + @ r.1X,X1X1X3X+.: r.a.$.#.$.#.#.#.#.#.#.$.#.*.*.$.#.#.w + 8 ~ P P U Y * X h.mXMXMXmXBXAXKXKXPXPXPXPXPXPXPXPXPXPXPXPXPXPXPXPXPXPXPXPXPXPXPXPXPXPXPXPXPXPXPXPXPXPXPXPXPXPXPXPXPXPXPXPXPXPXPXPXPXPXPXPXPXPXPXPXPX",
"PXPXPXPXPXPXPXPXPXPXPXPXPXPXPXPXPXPXPXPXPXPXPXPXPXPXPXPXPXPXPXPXPXPXPXPXPXPXPXPXPXPXPXPXPXPXPXPXPXPXPXPXPXPXPXPXPXPXPXPXKXFXaXX 0 >XxXxXzX1.@ a.i.1.,.1.1.1.1.,.,.1.*.K K 0.0.,.*.$.@.: = r T T T Y :   $ l l l x x x x j j v h < | F.M.B.z.z.v.v.B.M.A.c.z.M.| 6 o K 8X9X9X#Xe.q.3.+.P W P U P P q +   : y y u u i k M N N V < o h $X).M.A.A.S.G.S.S.S.S.S.B.S.S.S.S.S.S.S.S.G.G.G.G.b.v.v.S.S.G.G.G.G.G.S.S.S.S.v.v.v.v.c.M.C i .XOXOXU.B.B.v.m.m.n.n.m.m.v.m.n.n.m.m.m.m.m.n.v.n.S.A.A.A.n.n.v.v.n.n.n.v.v.c.c.c.k.k.l.[ [ [ [ [ l.' k.[ { k D v.v.c.c.c.c.c.v.n.n.v.v.v.v.c.c.c.v.c.c.c.c.c.c.c.c.l.c.c.[ l.l.l.[ ' F ' G A A G ' ( ' ' ' ' ` ( A F F ` c - O 1 j k c c B m z i p p u O & ].,XwX,X4X>Xw.K h 9 w K L I @   - g j ) ` D F A A F _ F C C C C i _ ] ` [ [ ' ' [ ] G [ E + @ w.1X,X1X1X3X+.: 0.a.*.#.$.$.*.*.*.*.*.*.*.*.*.$.#.#.w + 5 Y P P U Y * X h.mXMXMXmXBXAXKXKXPXPXPXPXPXPXPXPXPXPXPXPXPXPXPXPXPXPXPXPXPXPXPXPXPXPXPXPXPXPXPXPXPXPXPXPXPXPXPXPXPXPXPXPXPXPXPXPXPXPXPXPXPXPXPXPXPX",
"PXPXPXPXPXPXPXPXPXPXPXPXPXPXPXPXPXPXPXPXPXPXPXPXPXPXPXPXPXPXPXPXPXPXPXPXPXPXPXPXPXPXPXPXPXPXPXPXPXPXPXPXPXPXPXPXPXPXPXPXKXFXaX. 0 <XxXxXzX1.* a.r.1.1.1.,.1.1.,.6.*.#.h +.r.6.,.*.*.O.: * r T P U T *   $ h l x x v x x j x h 1 ; | A.M.M.M.z.v.v.B.M.A.M.z.M.| < o K 8XrX9X#X4.3.3.#.W W P T L P q X   : 1 y y u i k V N N V < o 0 $X).M.A.A.A.S.v.B.G.S.B.v.B.S.S.S.S.S.G.G.G.G.G.G.b.v.v.B.S.B.v.S.G.S.S.S.S.M.v.v.v.B.z.v.C p .XOXXXI.B.B.z.v.m.n.m.m.v.m.m.n.n.m.n.S.n.n.n.n.n.S.S.A.A.n.v.v.v.c.v.v.n.v.v.c.x.x.k.[ k.x.x.k.x.' ' [ [ ' m M A.c.c.v.z.c.c.c.n.n.n.v.v.v.v.v.c.v.c.c.c.c.M.c.c.c.c.c.c.l.[ [ } ' ` ' ' ` A A ' ' ' ' ' ' ( ` ( A A F ` B - O 1 k m m c m m k i p p u o & ].6X1X1X,X>Xe.h h h h K L U +   - g j ) _ D ` A A ` ` _ C C C V i ] [ ` [ [ [ ' [ [ G [ E + @ r.1X1XwX,X3X+.* 0.a.$.#.$.$.#.#.*.*.*.*.*.*.*.$.#.#.q X 8 Y P P U Y : . h.mXMXMXMXBXAXKXPXPXKXHXKXPXPXPXPXPXPXPXPXPXPXPXPXPXPXPXPXPXPXPXPXPXPXPXPXPXPXPXPXPXPXPXPXPXPXPXPXPXPXPXPXPXPXPXPXPXPXPXPXPXPXPXPXPX",
"PXPXPXPXPXPXPXPXPXPXPXPXPXPXPXPXPXPXPXPXPXPXPXPXPXPXPXPXPXPXPXPXPXPXPXPXPXPXPXPXPXPXPXPXPXPXPXPXPXPXPXPXPXPXPXPXPXPXPXPXKXFXaX. 0 <XiXxXzX1.* a.r.1.1.1.1.1.1.1.6.*.T K 1.r.7.*.*.$.O.3 * Y Y P W T =   $ h l x x v x x j x h 1 u { A.M.M.M.v.v.v.M.M.A.M.z.M.;.6 o K 8X9X9X#X4.3.3.#.W W P T L P q X   : 1 y u u i k V N N V < o 0 $X).M.A.A.A.S.M.M.S.S.B.M.B.S.S.S.S.G.G.G.G.G.G.G.V.v.v.v.S.v.v.B.S.S.M.M.M.M.M.M.M.B.z.M.V d .XOXXXI.B.z.v.m.v.n.S.m.m.m.m.n.n.S.n.m.n.n.n.n.n.S.S.S.S.S.v.v.v.c.v.v.n.n.v.c.x.x.x.k.k.x.x.x.x.k.k.[ [ ' V k A.c.c.v.c.c.c.c.n.n.n.v.v.v.v.c.c.l.v.c.c.c.c.v.v.c.c.c.c.l.[ [ } ' ` ' ' ` ( ( ' ' ' ' ' ' ( ( ( A A F ( B ; O 1 z m m c m m k s i p u o & [.6X1X1X1X>Xr.h h h h K L I +   - g j ) ` _ ` A ` ` _ ( C _ C c i | ' ' ' ' ' [ [ ' k.' R + @ r.1X1XwX,X3X+.* a.a.+.#.$.$.#.#.*.*.*.*.*.*.#.$.#.#.q X 8 ! U P U Y : . h.mXMXMXMXBXAXKXPXPXKXHXKXPXPXPXPXPXPXPXPXPXPXPXPXPXPXPXPXPXPXPXPXPXPXPXPXPXPXPXPXPXPXPXPXPXPXPXPXPXPXPXPXPXPXPXPXPXPXPXPXPXPXPXPXPX",
"PXPXPXPXPXPXPXPXPXPXPXPXPXPXPXPXPXPXPXPXPXPXPXPXPXPXPXPXPXPXPXPXPXPXPXPXPXPXPXPXPXPXPXPXPXPXPXPXPXPXPXPXPXPXPXPXPXPXPXPXKXFXaX. 0 <XiXxXzX1.: a.r.1.1.1.1.1.1.1.,.*.h U 8.w.1.*.*.$.O.3 * r Y P W T =   $ h l v x v x x j x h ; g ] A.M.M.M.v.B.B.M.M.A.M.z.M.;.6 o K 8X9X9X#X4.3.3.#.W W P T L P q X   : 1 y y u i k V N C V < o h $X).M.M.A.S.S.v.M.S.S.S.S.B.S.S.S.S.G.G.G.G.G.G.G.G.v.v.v.B.v.v.B.S.G.M.M.M.M.v.v.v.M.B.M.V k XX%XXXH.B.z.B.S.v.n.S.n.m.n.n.m.n.n.S.n.n.n.n.n.n.S.S.S.S.m.v.v.v.c.v.v.v.v.v.v.c.c.x.x.' ' x.x.x.x.k.[ [ ' ` p } v.c.z.z.c.c.v.v.n.n.n.n.n.v.c.c.l.c.c.c.M.c.v.v.c.c.c.c.c.l.[ [ ` ' ' ' ` ` ( ' ' ' ' ' ' ` ( ( A A A A c ; O 1 z m m c m m k s p p u o & ].6X1XqX,X>Xw.h h 0 h H L U +   - y j ) ` ` ` ` ` ` ` C C _ _ k k | ' ' ' ' ' [ [ [ k.[ R + @ r.1X1XwX,X3X+.: 9.a.#.#.$.$.#.#.*.*.*.*.*.*.#.#.#.#.w + 8 ! U P U Y * . h.mXMXMXMXBXAXHXPXPXKXKXKXPXPXPXPXPXPXPXPXPXPXPXPXPXPXPXPXPXPXPXPXPXPXPXPXPXPXPXPXPXPXPXPXPXPXPXPXPXPXPXPXPXPXPXPXPXPXPXPXPXPXPXPXPX",
"PXPXPXPXPXPXPXPXPXPXPXPXPXPXPXPXPXPXPXPXPXPXPXPXPXPXPXPXPXPXPXPXPXPXPXPXPXPXPXPXPXPXPXPXPXPXPXPXPXPXPXPXPXPXPXPXPXPXPXPXKXFXaX. 0 <XuXxXzX1.: a.r.1.1.1.1.,.1.,.,.+.0 ..r.8.,.,.*.*.O.3 * r Y P W T =   $ h l v x c x x j v a 1 j _ M.M.M.M.M.B.B.M.M.A.M.z.M.| 6 o K 8X9X9X#X4.3.3.#.W W P T P P w X   : 1 y y u i k V N C V < o h $X).M.M.S.S.S.m.v.M.S.S.S.B.S.S.A.S.G.G.G.G.G.G.G.b.v.v.v.B.v.v.B.S.S.B.B.B.B.v.v.v.M.B.A.B B XX%XXXH.B.M.S.S.v.n.m.n.m.n.n.n.n.n.S.m.m.n.n.m.m.S.S.S.S.v.v.v.v.v.v.v.v.v.v.v.v.c.x.x.' k.x.k.x.k.[ [ [ ' ] p { M.c.c.c.c.c.c.v.n.n.n.n.n.v.c.c.M.l.l.l.c.c.v.v.c.c.c.c.c.c.[ ' ` ' ' ' ` ` ` ` ' ' ' ' ( ( ' ' ( A A A c - O 1 k m m c m m k s p p u o & ].6X1XqX,X>Xw.H h h h H L U +   - y j ) ` _ ` ` ` ` ` C C _ / d V | ' ' [ [ ' [ [ [ k.[ R @ @ r.1X1XwX,X3X+.: 0.i.#.#.$.$.$.$.*.*.*.*.*.*.#.#.#.#.w + 8 Y U P U Y * . h.mXMXMXMXMXAXHXPXPXKXKXKXPXPXPXPXPXPXPXPXPXPXPXPXPXPXPXPXPXPXPXPXPXPXPXPXPXPXPXPXPXPXPXPXPXPXPXPXPXPXPXPXPXPXPXPXPXPXPXPXPXPXPXPXPX",
"PXPXPXPXPXPXPXPXPXPXPXPXPXPXPXPXPXPXPXPXPXPXPXPXPXPXPXPXPXPXPXPXPXPXPXPXPXPXPXPXPXPXPXPXPXPXPXPXPXPXPXPXPXPXPXPXPXPXPXPXKXFXaX. 0 <XxXxXzX1.* a.r.1.7.1.1.,.,.,.*.U 9 ,.r.1.:.,.$.*.@.4 * r T P W T ,   $ l v x x x x x j l 1 y b _ M.M.M.M.M.v.v.M.M.A.M.z.M.| 6 o K 8XrX6X#X4.3.7.#.W W P T P P w X   : y y s s i k V N C V < o 0 $X).M.M.A.S.S.S.v.v.B.M.B.M.S.S.S.S.G.G.G.G.G.G.G.G.v.v.B.B.B.B.B.B.B.v.B.B.B.v.v.z.M.z.v.k / XX%XXXH.B.z.S.G.m.n.n.n.m.m.m.n.n.n.n.n.n.S.S.m.m.n.n.n.n.v.v.v.v.v.v.v.v.v.v.v.c.c.x.x.x.x.x.x.x.k.k.[ [ ' ' k C A.c.c.v.c.c.v.v.v.v.v.v.c.c.l.l.c.c.c.M.M.c.c.v.c.c.c.c.c.c.[ ' ` ' ' ' ' ` ( ( ' ' ' ( ( ( ' ' A C C ( c - @ 1 k m m c m m z s i p u o & [.6XwX,X,X>Xe.L H H h K L U +   - y j ) ` _ ` ( ` ` ` D _ _ _ i _ ] ' ' [ ` ] [ [ ' G [ R @ @ r.1X,XwX,X3X+.: r.a.$.#.$.$.*.*.*.*.*.#.$.%.#.#.#.#.w + 4 Y P P U Y * . h.mXMXMXMXBXAXHXPXPXKXKXKXPXPXPXPXPXPXPXPXPXPXPXPXPXPXPXPXPXPXPXPXPXPXPXPXPXPXPXPXPXPXPXPXPXPXPXPXPXPXPXPXPXPXPXPXPXPXPXPXPXPXPXPXPX",
"PXPXPXPXPXPXPXPXPXPXPXPXPXPXPXPXPXPXPXPXPXPXPXPXPXPXPXPXPXPXPXPXPXPXPXPXPXPXPXPXPXPXPXPXPXPXPXPXPXPXPXPXPXPXPXPXPXPXPXPXKXFXaX. 0 <XxXxXzX1.* a.r.1.7.1.1.1.,.,.$.K L 8.8.1.:.,.$.*.O.4 * r Y L R T ,   * l l x x x x x j h 1 h b ` A.M.M.M.M.v.v.B.M.A.M.z.M.| 6 o K 8XrX6X#X4.3.3.#.P W P U P P w X   : y a s s i k V N C V < o h $X).M.B.A.S.S.S.v.S.M.B.S.S.S.S.S.S.G.G.G.b.G.G.G.b.v.V.B.B.B.B.B.B.B.v.v.B.B.v.v.z.c.z.v.k _ XX%XXXZ.B.z.v.v.v.n.m.n.m.m.m.n.n.n.v.n.n.S.S.m.n.n.n.n.n.v.v.v.v.v.v.v.c.v.v.v.c.c.k.x.x.x.x.[ x.k.k.[ [ ' { M k M.M.v.v.c.c.v.v.v.v.n.v.c.c.c.c.c.c.c.c.c.c.c.v.c.c.c.c.l.c.[ ' ` ' ' ' ' ` ( ( ( ` ' ' ( ( ' ( ( C D C c - O 1 k m m c m m z s i p u o & [.4XwXwX,X>Xw.H h h h K L I +   - y j ) ` _ ` ( ( ` _ D _ _ C i ] ] ' [ [ ' [ [ [ ' k.[ R @ @ r.6X,XwX,X3X+.: 0.a.$.#.#.$.*.*.*.*.#.#.#.#.#.#.#.#.q X 8 Y P P U T * . h.mXMXMXMXBXAXHXPXPXPXKXKXPXPXPXPXPXPXPXPXPXPXPXPXPXPXPXPXPXPXPXPXPXPXPXPXPXPXPXPXPXPXPXPXPXPXPXPXPXPXPXPXPXPXPXPXPXPXPXPXPXPXPXPXPX",
"PXPXPXPXPXPXPXPXPXPXPXPXPXPXPXPXPXPXPXPXPXPXPXPXPXPXPXPXPXPXPXPXPXPXPXPXPXPXPXPXPXPXPXPXPXPXPXPXPXPXPXPXPXPXPXPXPXPXPXPXKXFXaX. 0 <XxXxXzX1.$ a.r.1.7.1.1.1.1.,...9 ..8.8.:.:.*.$.*.O.3 * r U L U T ,   * l l x x c x j g a 1 v c ` M.M.M.M.B.v.v.z.c.M.v.z.M.| 6 o w 5XrX6X#X4.3.3.$.W P P T P P w X   : y y u u i k V N C V <   h $X(.M.D.A.S.S.S.B.S.B.M.S.S.S.S.S.S.G.G.b.G.V.V.v.v.v.G.S.B.v.v.B.B.B.B.B.B.v.v.v.v.z.z.c.d | OX%XXXZ.l.z.z.v.v.n.S.m.m.m.m.n.n.n.v.n.n.S.S.A.S.A.n.v.n.c.v.B.S.v.v.v.z.z.z.c.c.c.l.x.c.x.[ ' x.k.k.[ [ ' [ C p ;.M.c.v.c.c.v.v.n.n.v.v.n.v.v.v.v.v.v.v.c.c.c.v.c.c.c.c.l.[ [ ` ` ` ' ' ` ` ( ( A ' ' ' ( ( ' ( ` F D C c - O 1 z M m c m m k s p p u o & [.4X1XqX,X>Xe.H h h h K L U +   - y j ) ` _ ` ( A F D D _ _ V i | | [ [ [ ' [ [ [ ' k.[ R @ @ r.6X,XwX1X3X+.* 0.a.$.#.#.$.*.*.*.*.#.#.#.#.#.+.+.+.q + 8 ! P P U Y * . g.mXMXMXMXBXAXHXPXPXPXKXKXPXPXPXPXPXPXPXPXPXPXPXPXPXPXPXPXPXPXPXPXPXPXPXPXPXPXPXPXPXPXPXPXPXPXPXPXPXPXPXPXPXPXPXPXPXPXPXPXPXPXPXPXPX",
"PXPXPXPXPXPXPXPXPXPXPXPXPXPXPXPXPXPXPXPXPXPXPXPXPXPXPXPXPXPXPXPXPXPXPXPXPXPXPXPXPXPXPXPXPXPXPXPXPXPXPXPXPXPXPXPXPXPXPXPXKXFXsX. 0 <XuXxXzX1.* a.i.1.,.,.1.1.1.*.U 0 *.r.1.:.:.:.:.*.O.3 : K T L U Y 4   * l v j j x x l h 1 a v z S A.M.M.A.B.v.v.z.v.n.c.B.M.<.6 o w 5XrX9X#Xe.3.6.+.P P P P P P q X   : y y u u u k N N N B < o h $X(.M.M.M.S.S.M.M.S.B.v.S.S.S.S.S.S.G.G.G.G.V.v.v.b.G.G.B.B.B.B.v.m.m.n.S.S.v.z.M.B.z.v.} d } OX%XXXN.v.S.n.v.m.n.n.n.m.S.S.m.v.n.n.v.n.A.A.A.S.n.n.n.n.n.n.v.v.v.v.v.v.c.z.l.l.z.c.k.k.k.k.k.k.k.[ ' ' [ ` ] p } A.c.c.v.v.c.c.c.c.c.c.c.v.v.v.v.v.v.v.c.M.c.c.c.[ c.c.[ c.[ ' ` ` ( ' ' ' ' ' ` ` ' ` ` ` ` ` F D D C c - O y z m m m m c k i i p y o & ].4X,XqX,X>Xe.L H H K K U I &   : h j ) ` _ ` _ ( ( ` ( ( _ c k ] [ ] ] ` ` [ [ ' ' ' ] J @ @ r.1X1XqX1X3X@.* a.a.#.#.$.#.*.*.*.*.#.+.#.#.#.#.+.+.w + 4 T U P U Y * . h.mXMXMXMXBXAXHXKXPXPXPXPXPXPXPXPXPXPXPXPXPXPXPXPXPXPXPXPXPXPXPXPXPXPXPXPXPXPXPXPXPXPXPXPXPXPXPXPXPXPXPXPXPXPXPXPXPXPXPXPXPXPXPXPXPX",
"PXPXPXPXPXPXPXPXPXPXPXPXPXPXPXPXPXPXPXPXPXPXPXPXPXPXPXPXPXPXPXPXPXPXPXPXPXPXPXPXPXPXPXPXPXPXPXPXPXPXPXPXPXPXPXPXPXPXPXPXKXFXaX. 0 <XxXxXgX1.* a.i.1.,.,.1.1.1.$.0 K 8.8.1.:.:.:.:.*.O.4 * K T L U T =   $ l l j j j x l h 1 h v z S A.M.M.A.M.B.v.z.v.n.c.z.M.<.6 o w 5XeX9X#Xw.3.3.#.P T W P P P q X   : y y u u u k V N N c > o h $X(.M.M.M.B.S.B.M.S.B.B.S.S.A.S.S.S.S.G.G.G.v.v.v.v.b.G.B.v.B.v.v.v.v.A.A.S.v.v.M.M.z.v.{ p ;.OX%XXXN.M.A.n.S.S.m.m.n.S.S.S.m.v.n.n.n.A.A.A.S.S.S.n.n.v.v.v.n.v.v.v.v.v.v.z.l.l.z.c.k.k.k.k.k.k.k.[ ' ' [ ' ' p ` A.c.c.v.c.c.c.c.c.c.c.c.c.n.n.n.v.c.c.c.c.c.c.c.[ c.c.c.c.[ ' ' ' ( ' ' ( ' ' ` ` ' ` ` ` ` ` F D D C c - O y z m m m m c k i i p y o & ].4X,XqX,X>Xe.L K q w K I I $   : h j ) ` _ ` ` ( ( ` ( ( _ k B ] [ ` [ ` ` ' ' ` ' G ] J @ + r.4X1XwX1X3X@.* a.a.#.#.$.#.*.*.*.*.#.#.#.#.#.#.+.+.w + 5 ~ U P U Y * . h.mXMXMXMXBXAXHXKXPXPXPXPXPXPXPXPXPXPXPXPXPXPXPXPXPXPXPXPXPXPXPXPXPXPXPXPXPXPXPXPXPXPXPXPXPXPXPXPXPXPXPXPXPXPXPXPXPXPXPXPXPXPXPXPXPX",
"PXPXPXPXPXPXPXPXPXPXPXPXPXPXPXPXPXPXPXPXPXPXPXPXPXPXPXPXPXPXPXPXPXPXPXPXPXPXPXPXPXPXPXPXPXPXPXPXPXPXPXPXPXPXPXPXPXPXPXPXKXFXaX. 0 <XxXxXgX1.* a.i.1.,.,.1.1.1...0 T 0.8.1.,.:.:.:.*.O.4 * K T L U I =   $ l l j j j x h 1 1 l v z / A.M.M.A.v.B.v.z.c.n.v.z.M.<.6 o w 5X9X9X#Xw.3.6.+.U P P P P P q X   : y y u u u k V C C c > o h $X(.M.M.M.B.S.B.M.S.B.B.B.B.M.A.S.S.S.S.G.S.v.v.v.v.v.b.B.v.B.B.S.S.m.A.A.A.v.v.z.v.V.M.{ i A.OX%X.XB.M.n.A.S.S.m.m.n.S.S.S.S.v.n.n.A.A.A.A.S.S.S.v.v.c.n.n.n.v.v.v.v.v.v.z.z.l.z.c.c.c.c.k.k.k.k.[ ' ' ' [ { m M A.c.c.c.c.c.v.n.n.n.n.n.n.n.n.n.v.c.c.c.c.c.c.c.l.c.l.[ c.' ' ' ' ' ' ' ( ( ` ` ` ` ` ` ` ` ` ` F D C c - O y z m m m m c k i i p y o & [.4X1XqX,X>Xe.L K q 0 K K K @   : h j ) ` ` ` _ ( ` ` ` ( _ k V { ' ' ' ' ' [ [ [ ' G ] E - + 8.4X,XwX1X3X+.* a.a.#.#.$.$.#.#.$.$.$.$.#.#.#.#.+.+.w + 5 ! U P U Y * . h.mXMXMXMXBXAXHXKXPXPXPXPXPXPXPXPXPXPXPXPXPXPXPXPXPXPXPXPXPXPXPXPXPXPXPXPXPXPXPXPXPXPXPXPXPXPXPXPXPXPXPXPXPXPXPXPXPXPXPXPXPXPXPXPXPX",
"PXPXPXPXPXPXPXPXPXPXPXPXPXPXPXPXPXPXPXPXPXPXPXPXPXPXPXPXPXPXPXPXPXPXPXPXPXPXPXPXPXPXPXPXPXPXPXPXPXPXPXPXPXPXPXPXPXPXPXPXKXFXsX. 0 <XxXuXzX,.@ a.i.1.,.,.1.1.,.P 0 *.0.8.,.,.,.>.:.*.O.4 * K Y U U T =   $ h l j j j x h 1 h v v z _ A.v.v.v.v.v.B.z.v.n.M.z.M.<.6 o w 5X9X9X#Xw.3.3.+.T W W P P P q X   : y y y u u k C N N V < o h $X(.v.M.M.B.S.M.B.S.S.B.B.B.M.A.S.B.S.S.G.V.v.v.v.v.v.G.B.v.B.v.v.m.m.S.A.A.v.z.v.v.v.M.` i F.OX%X.XB.v.n.A.S.S.m.m.m.m.n.m.m.v.n.n.A.A.A.A.n.n.n.n.v.v.v.v.v.v.v.v.z.c.v.z.z.c.v.c.c.c.c.k.k.k.k.[ [ [ ' ' { C k A.c.c.c.c.c.c.c.c.c.c.c.v.v.v.v.v.c.c.c.c.c.c.c.c.c.l.[ [ ' ' ' ' ' ' ' ' ` ` ` ` ` ` ` ` ` ` ` F D C c - - y z m m m m m k i i p y o & ].4X1XqX,X>Xe.h H K 0 K K I +   : a j ) ` _ ` ( ( ( ( A ( V j / { [ ' ' ' ' ' [ ' [ G [ E @ @ r.4X1XwX1X3X+.* a.a.$.#.$.$.#.#.#.#.#.#.#.#.#.+.+.+.q X 4 ! U P U Y : . h.mXMXMXMXBXAXHXKXPXPXPXPXPXPXPXPXPXPXPXPXPXPXPXPXPXPXPXPXPXPXPXPXPXPXPXPXPXPXPXPXPXPXPXPXPXPXPXPXPXPXPXPXPXPXPXPXPXPXPXPXPXPXPXPXPX",
"PXPXPXPXPXPXPXPXPXPXPXPXPXPXPXPXPXPXPXPXPXPXPXPXPXPXPXPXPXPXPXPXPXPXPXPXPXPXPXPXPXPXPXPXPXPXPXPXPXPXPXPXPXPXPXPXPXPXPXPXKXFXsX. 0 <XuXuXzX,.@ a.i.,.,.1.1.,.$.H K 6.8.7.,.,.,.>.:.*.+.3 * K Y U U T ,   $ l l g j j v a 1 l v x z _ A.v.v.v.v.v.B.B.M.A.M.v.M.<.6 o H 5X9X9X#X4.3.3.+.T W W P P P w X   : y y y u u k C N N V < o H $X(.v.M.M.A.B.M.B.B.B.B.S.S.A.S.S.M.B.G.G.v.v.v.v.v.V.V.B.B.z.v.v.m.m.S.A.A.v.z.z.M.z.v._ u F.OX%X.XB.M.A.n.v.v.m.m.n.n.n.n.m.v.n.n.n.n.n.n.v.n.v.n.v.v.v.v.v.v.v.v.c.c.v.z.z.z.v.c.c.c.k.k.k.k.k.[ l.l.' [ } ( d } c.c.c.v.n.c.c.v.n.n.n.n.v.v.v.c.c.c.c.c.c.c.c.c.c.l.[ [ ' ( ( ( ' ( ' ' ` ` ` ` ` ` ` ` ` ` ` ` F D c - - y z m m m m m k i i p y o @ '.4X1XwX,X>Xe.L K K h h U I +   : a j ) ` ` ` ( ( ( ( C _ V j _ ' [ ' [ ' ' ' ' ' [ ' [ E @ @ r.4X,XwX1X3X@.* a.9.$.$.$.#.#.#.#.#.#.#.#.#.#.+.#.+.w + 8 ! P P U Y , . h.mXMXMXMXNXAXHXKXPXPXPXPXPXPXPXPXPXPXPXPXPXPXPXPXPXPXPXPXPXPXPXPXPXPXPXPXPXPXPXPXPXPXPXPXPXPXPXPXPXPXPXPXPXPXPXPXPXPXPXPXPXPXPXPXPX",
"PXPXPXPXPXPXPXPXPXPXPXPXPXPXPXPXPXPXPXPXPXPXPXPXPXPXPXPXPXPXPXPXPXPXPXPXPXPXPXPXPXPXPXPXPXPXPXPXPXPXPXPXPXPXPXPXPXPXPXPXKXFXsX% 0 <XuXuXzX,.& a.i.1.1.3.1.1.$.K P r.8.6.,.,.,.>.:.*.+.3 : K Y U U T ,   $ l l j j g x y y l v x z _ A.v.M.v.v.M.v.v.M.A.B.v.M.{ 6 o H 5XeX9X#X4.3.3.+.P W W P P P w X   : y y y u u k C N N V < o H $X(.c.M.M.A.M.B.B.B.B.B.S.S.S.A.A.S.S.S.m.v.v.v.b.V.G.G.B.z.z.v.S.m.v.S.n.v.v.v.z.M.z.v._ i (.&X%X.XB.v.A.n.v.v.m.m.n.v.v.n.m.v.n.n.n.n.v.n.m.n.n.m.n.n.v.v.v.v.v.v.v.c.v.z.z.z.v.c.x.k.k.k.k.k.k.k.l.k.' ' } ` k { c.c.v.c.n.c.v.v.n.n.n.n.v.v.v.c.c.c.c.c.c.c.c.c.c.c.[ [ ' ' ( ( ' ( ' ' ` ` ` ` ` ` ` ` ` ` F F F ` c - O y j m m m m m k i i p y o @ '.4X1XwX,X>Xe.L H H h h U I +   : a j / ` ` ` ( ( ` ( ( _ c k ` ' ' ' ' ' ' ' [ ' ' G ] J @ @ 9.1X,XqX1X3X@.* a.9.#.#.$.#.#.#.#.#.#.#.#.#.#.+.#.+.w + 8 ! U P U Y , . h.mXMXMXBXNXAXHXKXKXPXPXPXPXPXPXPXPXPXPXPXPXPXPXPXPXPXPXPXPXPXPXPXPXPXPXPXPXPXPXPXPXPXPXPXPXPXPXPXPXPXPXPXPXPXPXPXPXPXPXPXPXPXPXPXPX",
"PXPXPXPXPXPXPXPXPXPXPXPXPXPXPXPXPXPXPXPXPXPXPXPXPXPXPXPXPXPXPXPXPXPXPXPXPXPXPXPXPXPXPXPXPXPXPXPXPXPXPXPXPXPXPXPXPXPXPXPXKXFXsX% 0 >XuXuXzX*.& a.i.1.1.3.1.1...9 #.8.8.,.,.>.>.>.:.*.+.3 : K Y U U T ,   $ l l j j j s 1 h v h x z _ A.A.A.A.M.v.v.v.v.n.B.v.c.{ 6 o H 5XeX9X#X4.3.3.+.P W W T W P w X   : y y y s u k C N N V < o H $X(.c.M.M.A.M.v.B.B.S.B.S.S.S.A.M.S.S.S.v.v.v.B.G.G.G.G.B.v.z.B.S.S.v.S.v.v.v.v.z.M.z.v.C i (.&X%X.XB.v.A.n.v.m.m.m.n.n.n.m.m.v.m.m.v.n.v.v.n.n.n.n.n.n.m.v.n.v.c.v.c.v.v.z.z.z.v.c.k.k.k.k.k.k.k.k.l.k.' ' } ' k C A.c.v.c.v.v.v.v.n.n.n.n.v.v.v.c.c.c.c.c.c.c.c.c.x.l.[ ' A ' ( ( ' ( ' ' ` ' ` ` ` ` ` ` ` ` ` F F ` k - O y j m m m m c j i p p y o @ '.4X1XqX,X>Xe.L H q h h U I +   : a j ) ` ` ` ` ` ( ( C / z c { ' ' ' ' ' ' ' [ ' ' G ] J @ + 8.1X,XqX1X>X~ * a.9.#.#.#.$.#.#.#.$.#.#.#.#.#.+.#.+.w + 8 ! P P U Y , . h.mXMXMXBXNXAXHXKXKXPXPXPXPXPXPXPXPXPXPXPXPXPXPXPXPXPXPXPXPXPXPXPXPXPXPXPXPXPXPXPXPXPXPXPXPXPXPXPXPXPXPXPXPXPXPXPXPXPXPXPXPXPXPXPXPX",
"PXPXPXPXPXPXPXPXPXPXPXPXPXPXPXPXPXPXPXPXPXPXPXPXPXPXPXPXPXPXPXPXPXPXPXPXPXPXPXPXPXPXPXPXPXPXPXPXPXPXPXPXPXPXPXPXPXPXPXPXKXFXaXX 0 >XuXuXrX,.* a.8.1.,.1.1.,.T 0 1.r.7.,.,.:.:.,.:.*.O.4 * I Y L P Y 4   : l l x g g 1 1 j v l x c _ A.M.v.M.M.B.B.v.v.n.v.v.M.{ 6 o w 8XrX9X#X4.3.1.#.P W P U W P w X   : y y s u u B M N N b ; O h oX(.M.A.A.G.m.n.M.M.M.M.S.S.B.B.B.M.S.S.S.S.S.S.S.S.S.S.S.G.G.B.v.v.B.S.S.S.S.v.z.z.z.c.V i (.&XOX.XB.M.n.A.S.S.A.A.S.v.n.S.S.n.m.n.n.m.m.m.v.v.m.m.n.n.v.v.v.v.v.v.v.z.c.c.c.c.c.l.k.k.k.l.k.k.k.l.[ l.l.l.[ ' V m A.v.c.c.v.c.v.v.v.c.c.c.c.c.c.c.c.c.c.c.c.c.c.c.c.c.[ ' F ` ' ` ' ' ' ' ( ( ( ` ` ` ` ( ` ` D F F D c - - y j m m m c c j u p p y o @ '.4X,X,X,X>Xe.h H H h H K I + o : h j _ ` ( ' ' ( ` ` / / j z { ' ' ' [ [ [ ' ' ' ' ' ] R O + 7.1X,X1X1X3X^ : a.9.#.#.$.$.#.#.+.#.#.+.#.#.#.+.+.+.w + 5 Y P L U Y , . h.mXMXMXBXBXAXHXHXKXKXPXPXPXPXPXPXPXPXPXPXPXPXPXPXPXPXPXPXPXPXPXPXPXPXPXPXPXPXPXPXPXPXPXPXPXPXPXPXPXPXPXPXPXPXPXPXPXPXPXPXPXPXPXPXPX",
"PXPXPXPXPXPXPXPXPXPXPXPXPXPXPXPXPXPXPXPXPXPXPXPXPXPXPXPXPXPXPXPXPXPXPXPXPXPXPXPXPXPXPXPXPXPXPXPXPXPXPXPXPXPXPXPXPXPXPXPXKXFXaXX 0 >XiXuXgX,.* a.w.1.,.1.1.*.U K 7.r.7.,.,.,.:.,.,.*.O.4 * I Y L L Y 4   : l l l l a 1 g x x l x c S M.M.M.S.B.B.B.v.v.n.v.v.M.{ 6 o w 8XrX9X#X4.3.1.+.P W P T W P w X   : y y y u u B M N V b < o H oX).B.B.B.N.M.M.M.M.M.B.S.S.B.B.B.B.S.S.S.S.S.S.S.S.B.S.B.B.S.B.v.v.v.m.m.v.v.v.z.z.z.c.V j (.OXOX).B.v.n.A.S.S.A.A.S.n.n.n.n.v.m.n.n.m.m.m.v.v.n.m.n.n.c.v.v.v.v.v.v.z.c.c.c.c.c.c.k.k.k.k.k.k.k.l.[ l.l.l.' ' S m } v.c.c.c.c.v.v.c.c.c.c.c.c.c.c.c.c.c.c.c.c.c.c.c.c.' ' F ` ' ( ( ' ' ` ( ( ( ` ` ` ` ( ` ` F F F ( c ; - y z m m m c c j i p p y o @ '.4X,X,X,X>Xe.L H H h H K I + o : 0 j _ ` A ` ( ( ` ` ( V p S { ' ' ' [ ' ' ' } ' ' G ] J O + 7.1X,X1X1X3X^ : a.9.#.$.$.$.#.#.^ +.#.#.#.#.#.+.#.+.w + 5 Y T U U T : . h.mXMXMXBXBXAXHXHXKXKXPXPXPXPXPXPXPXPXPXPXPXPXPXPXPXPXPXPXPXPXPXPXPXPXPXPXPXPXPXPXPXPXPXPXPXPXPXPXPXPXPXPXPXPXPXPXPXPXPXPXPXPXPXPXPX",
"PXPXPXPXPXPXPXPXPXPXPXPXPXPXPXPXPXPXPXPXPXPXPXPXPXPXPXPXPXPXPXPXPXPXPXPXPXPXPXPXPXPXPXPXPXPXPXPXPXPXPXPXPXPXPXPXPXPXPXPXKXFXaXX 0 <XiXuXrX,.* a.r.1.1.1.1.$.K U 6.8.1.,.,.,.,.,.,.*.O.4 * r Y L P Y 4   : l h l g 1 1 l x x x x z C M.A.B.B.M.B.B.v.v.n.v.v.M.{ 6 o w 8XrX9X#X4.3.1.#.P P P T P P w X   : y y u u u B M C V J > o q #X(.v.A.M.M.N.B.B.B.B.B.B.B.B.B.B.S.S.A.S.S.S.S.B.v.v.v.v.v.B.S.B.v.v.m.n.v.z.z.z.z.z.c.V z .XOXOX).z.v.n.m.S.S.A.n.S.S.n.S.S.m.S.S.m.m.n.n.v.v.n.n.n.v.v.v.v.v.v.v.v.v.v.v.v.c.v.c.l.l.k.k.' k.k.[ [ [ l.' ' ' _ m ` v.v.c.c.c.v.v.c.c.c.c.c.c.c.c.c.c.c.c.c.c.c.l.c.c.' G F ` ' ` ( ` ( ( ` ( ( G G ' ' ` ` ` ` ` ` / x - - y j c m m c c k i p p y o & '.4X,X,X,X>Xe.L H H h H K I @ o : h j _ ` A ` ( ` ` _ _ V j _ ] ' ' ' [ ' ' ' { ] ' G ` J O o 8.1X1X1X1X3X^ : a.9.#.#.$.$.#.#.W W +.+.#.#.#.+.#.+.w + 5 Y U P U I * . h.mXMXMXBXBXAXHXHXKXKXPXPXPXPXPXPXPXPXPXPXPXPXPXPXPXPXPXPXPXPXPXPXPXPXPXPXPXPXPXPXPXPXPXPXPXPXPXPXPXPXPXPXPXPXPXPXPXPXPXPXPXPXPXPXPX",
"PXPXPXPXPXPXPXPXPXPXPXPXPXPXPXPXPXPXPXPXPXPXPXPXPXPXPXPXPXPXPXPXPXPXPXPXPXPXPXPXPXPXPXPXPXPXPXPXPXPXPXPXPXPXPXPXPXPXPXPXKXFXaXX 0 <XiXuXgX,.$ a.i.1.1.1.1.#.h W 7.6.,.,.,.,.,.,.$.$.O.3 * r Y L L Y 4   : l l l h ; a x j x v x z / M.M.M.M.M.M.B.v.v.n.v.z.M.{ 6 o w 8XrX6X#X4.3.3.#.P W P P P P w X   : y y y u u c B C C J < o 5 ,.) J ) ) ;.A.A.M.B.M.B.B.v.v.M.B.v.v.n.n.S.m.m.B.v.v.B.v.B.M.M.M.v.v.v.v.v.c.z.z.c.z.c.V b }.OXOXY.c.v.v.n.S.S.n.n.m.S.n.n.m.n.n.n.m.m.v.v.v.v.n.n.n.v.v.v.v.v.v.v.v.v.v.v.v.c.v.c.l.l.k.k.' k.k.[ ' [ l.' ' [ ] m C c.c.c.l.c.c.v.c.c.c.c.c.c.c.c.c.c.c.c.c.c.c.c.c.l.' G F ( ` ( ` ( ( ( ( ( ( G A ` ` _ ` _ / c j g a - - y j c m m m c k i p p y o @ '.4X,X,X,X>Xe.L H H h H K I @ o : h j _ _ A ` ( A ` D V z c ] ] ' ' ' [ ' ' ' ' ] ' G ` J O + 8.1X1X1X1X3X^ : a.9.$.#.$.$.*.#.^ P W +.#.#.#.+.#.+.w + 5 Y U P U Y : . h.mXMXMXBXBXAXHXHXKXPXPXPXPXPXPXPXPXPXPXPXPXPXPXPXPXPXPXPXPXPXPXPXPXPXPXPXPXPXPXPXPXPXPXPXPXPXPXPXPXPXPXPXPXPXPXPXPXPXPXPXPXPXPXPXPX",
"PXPXPXPXPXPXPXPXPXPXPXPXPXPXPXPXPXPXPXPXPXPXPXPXPXPXPXPXPXPXPXPXPXPXPXPXPXPXPXPXPXPXPXPXPXPXPXPXPXPXPXPXPXPXPXPXPXPXPXPXKXFXaXX 0 <XuXuXgX*.$ a.i.1.1.1.,.+.9 #.7.7.,.,.,.,.,.,.$.$.O.3 * I Y L L Y 4   : l l h y 1 l x x v v x c / M.M.A.S.M.M.M.v.v.n.v.z.M.| 6 o w 8XrX9X#X4.3.3.#.P W P P P P w X   : y y y u u B M V V V 1 O O - O - - - s J | <.A.v.v.v.v.z.M.B.v.M.A.S.m.m.m.v.v.v.v.v.M.M.v.M.M.z.v.v.v.c.c.z.c.z.} c V .XOXOXY.M.v.v.n.m.m.m.n.n.n.n.n.m.n.v.v.n.n.v.v.n.m.m.n.v.v.v.v.v.v.v.v.v.v.c.v.v.v.v.c.l.l.k.' ' ' ' ' ' [ [ ' ' ' [ C B } c.c.l.} c.v.v.c.c.c.c.c.c.c.c.c.c.c.c.c.[ c.[ [ F F F A A ( ` ` ` ( A ` ( ` ( ` ) J x a ; ; - - - - - y x k m m c c k i p p y o @ '.9X,X,X,X>Xe.L K K h K K I +   : 0 j _ ` ` ` ` ( F _ ) p V { ] ] ' ' ' ' ' ] ] ] ' G ` J O + 8.1X,X1X1X3X^ : a.0.$.#.$.$.$.#.+.P T +.#.#.#.#.$.+.w + 5 Y P P P T * . h.mXMXMXBXBXAXHXHXHXPXPXPXPXPXPXPXPXPXPXPXPXPXPXPXPXPXPXPXPXPXPXPXPXPXPXPXPXPXPXPXPXPXPXPXPXPXPXPXPXPXPXPXPXPXPXPXPXPXPXPXPXPXPXPXPX",
"PXPXPXPXPXPXPXPXPXPXPXPXPXPXPXPXPXPXPXPXPXPXPXPXPXPXPXPXPXPXPXPXPXPXPXPXPXPXPXPXPXPXPXPXPXPXPXPXPXPXPXPXPXPXPXPXPXPXPXPXKXFXaXX 0 <XuXuXgX*.$ a.i.1.,.1.,.+.h *.7.6.1.1.,.,.:.,.,.*.O.3 * r Y L L Y 4   : g h g 1 y v x j v v v z C M.M.M.M.M.M.v.z.v.n.v.v.M.{ 6 o w 8XrX9X#X4.3.3.#.P W P P L P w X   : y y y u u V M B N M s 2 - - - O o o O - < g ) <.A.B.B.z.z.M.M.M.A.S.S.m.m.v.v.v.v.v.M.M.M.M.M.M.v.v.v.v.z.c.c.z.} k _ XXOXOXY.M.v.n.v.v.m.n.n.n.n.m.n.m.m.n.n.n.n.m.m.m.m.m.v.v.v.v.v.v.v.v.v.v.v.v.v.v.c.v.c.l.c.l.[ [ [ k.' [ ' ' ' ' ' [ ` d { c.l.l.c.c.c.v.c.c.c.c.c.c.c.c.c.c.c.c.c.c.c.c.[ F F F ` ` ` ` ` ` ` A ` ` ( _ V a ; - - - - - - - - - y x B m m c c j i p p y # @ '.4X,X,X,X>Xe.L K K h K K I +   : 0 g _ ` F ` ` ` F _ ) i _ { ] ] ' ' ' ' ] ] ] ] ' G ` J O + 8.1X,X1X1X3X^ : a.0.$.#.#.#.#.#.+.P P ^ #.$.#.#.$.+.w + 5 Y P P P T * . h.mXMXMXBXBXAXHXHXKXPXPXPXPXPXPXPXPXPXPXPXPXPXPXPXPXPXPXPXPXPXPXPXPXPXPXPXPXPXPXPXPXPXPXPXPXPXPXPXPXPXPXPXPXPXPXPXPXPXPXPXPXPXPXPXPX",
"PXPXPXPXPXPXPXPXPXPXPXPXPXPXPXPXPXPXPXPXPXPXPXPXPXPXPXPXPXPXPXPXPXPXPXPXPXPXPXPXPXPXPXPXPXPXPXPXPXPXPXPXPXPXPXPXPXPXPXPXKXFXaXX 0 <XuXuXgX*.* a.i.1.,.1.,...K 6.7.1.,.,.,.,.,.,.,.*.+.4 * r Y L L Y 4   : g h a 1 h x x j x x v c C M.M.M.M.M.M.v.z.v.v.v.v.M.| 6 o w 8XrX9X#X4.3.3.#.P P P P L L w X   : y y y s u B B m N m c H J x x a < - O O - - ; j { c.B.z.z.M.S.M.A.S.S.S.S.m.B.S.v.v.M.M.v.M.B.A.n.v.v.v.c.c.B.l.} k _ XXOXOXY.M.v.A.v.v.m.n.n.n.n.S.S.m.m.m.m.n.m.m.n.n.n.n.v.c.v.v.v.v.v.v.v.v.n.v.v.v.c.v.c.l.c.l.l.k.k.k.[ l.' ' ' ' ' [ ' f _ c.c.l.c.c.c.v.c.c.c.c.c.c.c.c.c.c.c.c.c.c.c.[ ' F F F ` ( ( ` ` ` ` ` ` C / u ; - - - - - - - ; < y a s z k m m c c j i i p y # @ '.4X,X,X,X>Xe.h H K h K K I + o - 0 j _ ` ` ` ` F D _ V p ] ] ' ' ] ' ' ' ] ] ] ] ' G ` J O + 8.1X1X1X1X3X^ : a.0.$.#.#.#.#.#.#.P P W #.$.#.#.$.+.w + 5 Y P P P T * . h.mXMXMXBXBXAXHXHXPXPXPXPXPXPXPXPXPXPXPXPXPXPXPXPXPXPXPXPXPXPXPXPXPXPXPXPXPXPXPXPXPXPXPXPXPXPXPXPXPXPXPXPXPXPXPXPXPXPXPXPXPXPXPXPXPX",
"PXPXPXPXPXPXPXPXPXPXPXPXPXPXPXPXPXPXPXPXPXPXPXPXPXPXPXPXPXPXPXPXPXPXPXPXPXPXPXPXPXPXPXPXPXPXPXPXPXPXKXKXKXPXPXPXPXPXPXPXKXFXsXX 0 <XuXuXzX*.* a.i.1.1.6.,.P L 6.6.,.,.,.,.,.1.6.,.,.O.4 * r U U U U , o : h h 1 s x x x j x x c z V c.z.v.z.v.v.v.v.v.M.M.v.M.;.6 o w 5XeX9X#Xw.3.3.#.P P T T L L w X   : y y s u i B B B B B m B M M M B c v x a ; O O - 1 / } c.c.M.M.M.M.A.S.S.S.S.S.S.S.A.A.A.v.A.A.m.v.v.c.c.M.z.z.z.{ d ` OX%XOXI.B.v.v.v.n.n.S.A.S.S.S.m.m.v.v.v.m.v.v.m.m.m.m.v.m.n.v.v.v.v.v.v.v.v.v.v.v.c.v.c.k.c.k.k.k.k.k.} [ [ [ [ ' [ ' ' N M c.} c.c.c.c.c.c.c.c.c.c.c.c.c.c.c.c.c.c.c.[ [ ' ( ` ' ( ( A D F F A A _ j 2 O O - - < 1 i x c j k c c k k m c c c c j i i p 1 o @ '.4X,X,X,X>Xt.h h H w K K K + o - y g _ _ D A A ` S _ k c ] } [ ' ` ' ' ' ' ` ] ` ' G ` J O + 0.6X1XwX1X3X+.: a.0.#.#.#.#.#.*.#.W P T +.$.#.#.$.+.q + 5 Y P P P U * . h.mXMXMXBXBXAXHXKXKXPXPXPXPXPXPXPXPXPXPXPXPXPXPXPXPXPXPXPXPXPXPXPXPXPXPXPXPXPXPXPXPXPXPXPXPXPXPXPXPXPXPXPXPXPXPXPXPXPXPXPXPXPXPXPXPX",
"PXPXPXPXPXPXPXPXPXPXPXPXPXPXPXPXPXPXPXPXPXPXPXPXPXPXPXPXPXPXPXPXPXPXPXPXPXPXPXPXPXPXPXPXPXPXPXPXPXPXPXKXKXPXPXPXPXPXPXPXKXFXsXX 0 <XuXuXzX*.$ a.i.1.,.1.*.T P 6.1.,.1.,.,.,.,.,.*.,.O.3 * r U U U I , o 3 h a 1 l x x x j x x x z C M.v.v.z.z.v.B.v.M.M.c.z.M.;.6 o w 5XeXrX#Xw.3.3.#.P T P T L L w X   : y y y u i B B B B B B V V V M M B c c J x a ; - - ; x | M.M.c.B.z.v.v.v.v.A.A.A.A.A.A.A.v.A.A.S.v.M.B.M.M.z.v.z.{ d { OXOXOXH.B.M.A.A.A.A.A.A.A.S.S.S.S.v.z.v.v.v.m.n.m.n.m.m.n.m.v.v.v.v.v.v.c.c.c.c.v.c.c.c.l.c.c.c.l.l.k.[ k.l.l.[ [ [ ' ' F p { } c.c.c.c.c.c.} } c.c.c.c.c.c.c.c.c.c.c.l.[ ' ( ` ` ` ( A F F ( ( V y - O O - 1 s x v c c c c c c c k k m m m m c j i i p 1 o & '.4X,X,X,X>Xe.h h H H K L K + o - h g _ _ D F A ` S S i C ] ' ' ' ` ' ' ' ' ] ] ` ' G ` J O + 9.6X1XwX1X3X+.: a.0.#.#.*.*.*.*.#.T P P W #.#.#.$.+.q + 5 Y P P P U * . h.mXMXMXBXBXAXHXKXKXPXPXPXPXPXPXPXPXPXPXPXPXPXPXPXPXPXPXPXPXPXPXPXPXPXPXPXPXPXPXPXPXPXPXPXPXPXPXPXPXPXPXPXPXPXPXPXPXPXPXPXPXPXPXPXPX",
"PXPXPXPXPXPXPXPXPXPXPXPXPXPXPXPXPXPXPXPXPXPXPXPXPXPXPXPXPXPXPXPXPXPXPXPXPXPXPXPXPXPXPXPXPXPXPXPXPXPXPXPXPXPXPXPXPXPXPXPXHXFXsXX 0 <XuXuXzX*.$ 9.i.1.,.1.*.W W 6.,.,.1.,.,.,.,.,.*.,.O.4 * r U U U Y , o 3 h 1 a x j x x j x x x c C M.v.M.z.z.v.B.B.M.M.B.z.M.;.6 o 0 5XeXrX#Xw.3.3.#.P W P T L L w X   : y y y u i B B B B B B B B B m M V V c V b c x y - - - x { A.M.z.z.z.v.v.v.M.M.M.M.M.A.M.v.M.v.v.z.z.M.M.c.z.v.z.{ i } OXOXOXH.c.v.n.A.A.A.A.A.n.n.m.m.m.v.v.v.v.n.n.n.v.n.n.n.m.m.v.v.v.v.v.v.v.c.c.c.c.c.c.l.c.c.c.c.c.l.[ [ l.k.l.[ [ [ ' ' ] m ` } c.c.c.} c.} } c.c.c.c.c.c.c.} c.c.c.c.[ ' ` ( ` ` ` ( A F A ( b 1 - O - < a x b b b m m B m c B m k c c B B B c j s i p 1 o @ '.9X,X,X,X>Xe.h h H H H L K + o - h g _ _ D F A F _ V i _ ] ' ' ' ' ' ' ' ' ] ] ` ' G ] J O + 9.6X1XwX1X3X+.: a.0.#.#.*.*.*.*.*.W P P W +.+.#.%.+.q + 5 Y P P P U * . h.mXMXMXBXBXAXHXKXKXPXPXPXPXPXPXPXPXPXPXPXPXPXPXPXPXPXPXPXPXPXPXPXPXPXPXPXPXPXPXPXPXPXPXPXPXPXPXPXPXPXPXPXPXPXPXPXPXPXPXPXPXPXPXPXPX",
"PXPXPXPXPXPXPXPXPXPXPXPXPXPXPXPXPXPXPXPXPXPXPXPXPXPXPXPXPXPXPXPXPXPXPXPXPXPXPXPXPXPXPXPXPXPXPXPXPXPXPXPXPXPXPXPXPXPXPXPXKXFXsXX 0 <XuXuXzX*.$ 9.f.1.,.6.*.P +.6.,.,.1.,.,.,.,.,.,.,.O.4 & r U U U T ,   4 a y l x j x x c x v x c V c.v.M.v.v.v.z.v.v.M.M.z.M.;.6 o 0 5XeXrX#Xw.3.3.#.P W U P L P w X   : 1 y y u s c B B B V B B B B m M M B V B B B c b h - - ; c <.c.z.v.v.c.v.c.c.v.M.v.M.A.A.M.v.c.v.z.z.c.c.c.c.z.z.] d A.OXOXOXH.c.v.v.v.M.M.M.v.v.v.v.v.v.v.M.M.A.v.v.v.v.c.c.c.c.m.v.v.c.c.v.v.v.v.c.c.c.c.l.l.c.c.c.c.l.c.[ [ ' ' ' ' [ [ l.[ ' V m } [ c.} } c.} } } c.c.c.c.c.c.[ } c.c.[ [ ' ( ( ( ` ` ` A A A c 1 - O @ a v x c c m m m m m m c c m k k c B c B c j s i p 1 o @ [.4X,X,X,X>Xe.L H H H K L K +   : h g / _ D F ` ` _ c k ] ' ' ' ' ' ' ' ' ] ] ] ` ` F ` J O + 8.6X1XwX1X3X+.: a.6.#.#.#.$.#.#.#.W P P P +.+.+.+.+.q + 5 Y U L U Y : . h.mXMXMXBXBXCXHXKXKXKXKXPXPXPXPXPXPXPXPXPXPXPXPXPXPXPXPXPXPXPXPXPXPXPXPXPXPXPXPXPXPXPXPXPXPXPXPXPXPXPXPXPXPXPXPXPXPXPXPXPXPXPXPXPXPX",
"PXPXPXPXPXPXPXPXPXPXPXPXPXPXPXPXPXPXPXPXPXPXPXPXPXPXPXPXPXPXPXPXPXPXPXPXPXPXPXPXPXPXPXPXPXPXPXPXPXPXPXPXPXPXPXPXPXPXPXPXKXFXsXX 0 >XuXuXgX*.$ 9.f.1.,.1.*.P #.6.,.,.,.,.,.,.1.6.1.,.O.3 * r U U U I ,   : y a x x x x x c b x x c V c.M.M.M.M.M.v.v.M.M.B.M.M.;.6 o 0 5XeXrX#Xw.3.3.#.U P P P L L w X   : y y y u s c B B B V B B B B B M V V B B C C B V b h - - ; J <.M.M.B.c.c.c.c.c.c.M.B.M.M.M.z.z.z.v.z.z.c.c.c.z.z.` d A.OX%XOXH.c.v.v.v.z.B.v.v.v.v.v.v.v.v.v.v.v.v.v.v.v.v.c.c.c.v.v.c.c.c.c.c.c.c.c.c.c.c.c.c.c.c.c.c.l.c.[ l.' ' ' ' ' ' ' ' ` _ p ' [ } } } [ [ [ } } } } } } c.[ } c.[ [ ' F ` ' ( ` ` ` ` ` V y - O - h v b c c m m m k m B B B B B B B B B c B k j s i p 1 o @ ].4X,X,X,X>Xe.L H H w K K r +   > h g / _ F F ` ` _ p V { ` ' ' ' ' ' ' ' ] ' ] ] ` F ` J O + 9.6X1XwX1X3X+.: a.6.+.#.#.#.#.#.#.W P P P T +.+.#.+.q + 5 Y P P U Y : . h.mXMXMXBXBXAXHXKXKXKXKXPXPXPXPXPXPXPXPXPXPXPXPXPXPXPXPXPXPXPXPXPXPXPXPXPXPXPXPXPXPXPXPXPXPXPXPXPXPXPXPXPXPXPXPXPXPXPXPXPXPXPXPXPXPX",
"PXPXPXPXPXPXPXPXPXPXPXPXPXPXPXPXPXPXPXPXPXPXPXPXPXPXPXPXPXPXPXPXPXPXPXPXPXPXPXPXPXPXPXPXPXPXPXPXPXPXPXPXPXPXPXPXPXPXPXPXKXFXsXX 0 <XuXuXzX,.$ 9.f.1.,.,.*.P $.6.,.,.1.,.1.1.1.6.,.,.O.3 * r U U U Y , o $ a g x x x c x c b x x z V } M.c.v.M.M.z.v.M.M.M.M.M.;.6 o 0 5XrX9X#Xw.3.3.#.L P P P L L q X   : y y s u u c B B B / / B B / / / C / B B / / / M B b s - - ; _ M.M.c.c.c.c.M.M.c.M.c.c.M.z.z.z.M.z.z.c.c.c.z.z.v.( d P.OXOXOXH.c.v.v.v.c.c.c.c.c.v.v.z.v.v.c.c.c.v.c.v.v.n.c.c.v.v.c.c.c.c.c.c.c.c.c.c.c.c.c.c.c.c.c.c.l.c.[ [ [ ' ' [ [ ' ' ' ` ] m A } } } } [ [ [ [ c.c.c.[ } } } c.} [ [ ` F ( ' ( ( ( ' ( / y - O - h b c c B c B B B k B B B B B B B B B B c c k j s i p 1 o & [.4X,XwX,X>Xe.L K H H K K r +   > h g / _ F F ` ` S p _ { ` ' ' [ [ } ' ' ] ' ] ` ' G ` J O + 9.1X1XwX,X>X+., a.6.+.#.#.#.#.#.#.+.P P P P T +.#.+.q + 5 Y T P U Y : . h.mXMXMXBXBXAXHXKXKXKXPXPXPXPXPXPXPXPXPXPXPXPXPXPXPXPXPXPXPXPXPXPXPXPXPXPXPXPXPXPXPXPXPXPXPXPXPXPXPXPXPXPXPXPXPXPXPXPXPXPXPXPXPXPXPX",
"PXPXPXPXPXPXPXPXPXPXPXPXPXPXPXPXPXPXPXPXPXPXPXPXPXPXPXPXPXPXPXPXPXPXPXPXPXPXPXPXPXPXPXPXPXPXPXPXPXPXPXPXPXPXPXPXPXPXPXPXKXFXsXX 0 <XuXuXzX,.$ 9.f.,.,.*.*.P *.6.,.,.1.,.,.,.,.6.,.,.O.3 * r U U U T , o $ h v g x x x c x x v c z V } c.[ c.v.v.c.v.M.c.c.z.M.;.6 o 0 5XrX9X#Xw.3.3.+.L P P P L L q X   : y y y u u c B B B / / / / / / / / B C / / / / B m V b 6 - - u ] c.l.l.c.c.c.c.B.c.c.B.M.B.c.z.c.z.z.c.c.c.z.v.v.( i P.OXOXOXG.c.v.v.c.c.c.c.c.c.z.v.v.v.v.v.c.c.c.c.v.v.c.c.v.v.v.v.c.c.c.c.c.c.c.c.c.v.v.v.v.v.c.c.c.l.c.k.[ [ [ [ [ [ ' l.l.' ' V N c.} } ;.[ [ } } } } } } [ [ } } } [ [ ` F A ( G Z ' ' A s - - - a c m m B B B c c B B B c B c c B B B B B c c z j s i p y o & [.4X,X,X,X>Xe.L K H H K L r +   > h g / _ ` ` ` ` V k ` ] ' ' k.k.[ ' } ' ' ' ] ` ' G ` J O @ 9.1X1XwX,X>X+.: a.6.+.#.#.#.#.#.#.+.T P P P P W +.+.q + 8 Y U P U T : . h.mXMXMXBXBXAXHXKXKXPXPXPXPXPXPXPXPXPXPXPXPXPXPXPXPXPXPXPXPXPXPXPXPXPXPXPXPXPXPXPXPXPXPXPXPXPXPXPXPXPXPXPXPXPXPXPXPXPXPXPXPXPXPXPXPX",
"PXPXPXPXPXPXPXPXPXPXPXPXPXPXPXPXPXPXPXPXPXPXPXPXPXPXPXPXPXPXPXPXPXPXPXPXPXPXPXPXPXPXPXPXPXPXPXPXPXPXPXPXPXPXPXPXPXPXPXPXPXFXsXX 0 <XxXxXzX1.$ 9.d.1.,.,.$.P ,.,.,.,.1.1.1.1.1.6.1.,.+.3 * r T U T Y ,   $ l l x x c x x x v b v z C } l.' M.v.c.z.B.M.n.c.z.M.<.6 o 0 5XrX6X#X4.3.,.#.L P T P L L q X   : y y y u u B V B B / / / / C C B B B B C B B V B B B m z 1 - - x } z.z.z.B.B.z.z.z.l.z.B.B.M.l.l.c.v.v.v.v.v.M.c.V j (.OX&XXXG.v.v.v.v.M.c.c.c.c.c.c.c.c.c.c.c.c.c.c.c.v.v.v.v.v.v.c.c.c.c.c.c.c.v.c.v.v.v.v.v.v.c.c.c.x.k.k.k.l.[ ' ' ' ' j.k.' ' F m [ } } } [ [ } [ } } [ [ [ [ [ } c.[ [ ` F F F Z G ' ` c : o - a c c k c V c c c b c c B B B B / / B B V B c b c j u i p 1 o & [.4X,X,X,X>Xe.h H H H K U K +   > g g ) _ ` ` _ _ z B ] ] ' [ [ } } } } [ ' ' [ ] ' G ] J @ + 8.6X1XwX,X>X+., a.6.+.#.#.*.*.#.#.#.W P P U T T T @.w X 8 T U P U Y 3 . h.mXMXMXBXBXAXHXKXPXPXPXPXPXPXPXPXPXPXPXPXPXPXPXPXPXPXPXPXPXPXPXPXPXPXPXPXPXPXPXPXPXPXPXPXPXPXPXPXPXPXPXPXPXPXPXPXPXPXPXPXPXPXPXPXPX",
"PXPXPXPXPXPXPXPXPXPXPXPXPXPXPXPXPXPXPXPXPXPXPXPXPXPXPXPXPXPXPXPXPXPXPXPXPXPXPXPXPXPXPXPXPXPXPXPXPXPXPXPXPXPXPXPXPXPXPXPXPXFXsXX 0 <XuXxXgX1.$ 9.d.1.,.,.,.W ,.*.*.,.1.1.1.1.1.6.1.,.+.= * r T U T Y :   $ l v x x x x x v v b v c C } ' ' M.c.v.M.B.v.A.M.z.M.<.6 o 0 5XrX6X#X4.3.,.#.L P P P L L q X   : y y u u u B V B B / / / / C C B B B B B B V V B B B m b g ; - < _ M.z.z.B.z.z.z.z.z.v.v.v.v.v.z.z.v.v.z.z.z.v.c.V k (.&X%XXXS.c.v.c.v.v.c.c.c.c.c.c.c.c.c.c.c.c.v.c.c.v.v.v.v.v.v.c.c.c.c.c.c.c.l.l.l.l.l.l.l.l.l.l.[ l.l.' ' [ [ ' ' ' ' ' ' ' ' ' m F c.c.c.c.c.c.c.[ [ [ [ [ [ [ [ c.} [ F F F F G G ( / y - - 1 s b b c c V c c c V c c B B B B B c B B B B c b z i u i p 1 o & [.9X,X,X,X>Xt.h H H H K U I +   , y g ) _ ` ` _ ) k / ] ] ' [ [ [ [ ' ' ' ' ' ' ` ' G ` J @ + 8.6X1XwX,X>X+., a.6.+.#.#.#.$.#.#.#.^ P P T T T T O.q X 8 T U U U Y 3 . h.mXMXMXBXBXAXHXKXPXPXPXPXPXPXPXPXPXPXPXPXPXPXPXPXPXPXPXPXPXPXPXPXPXPXPXPXPXPXPXPXPXPXPXPXPXPXPXPXPXPXPXPXPXPXPXPXPXPXPXPXPXPXPXPXPX",
"PXPXPXPXPXPXPXPXPXPXPXPXPXPXPXPXPXPXPXPXPXPXPXPXPXPXPXPXPXPXPXPXPXPXPXPXPXPXPXPXPXPXPXPXPXPXPXPXPXPXPXPXPXPXPXPXPXPXPXPXPXFXsX. 0 >XuXzXgX1.* 9.d.1.,.,.,.#.1.,.*.,.1.,.,.,.,.6.1.,.+.= * r T U T Y :   $ l v v x x x v x v b c z C [ F [ M.c.M.M.M.M.A.M.z.M.<.6 o q 8XrX6X#X4.3.,.#.L P U U L L q X   : y y u u u B V B B V V / / / V C C B B B B B V B B V M m b a O - x } v.v.M.M.v.v.v.v.v.v.v.M.v.v.M.B.M.c.l.c.c.n.V c .XOX%XXXS.c.c.c.c.v.v.c.c.c.c.c.c.c.c.c.c.c.c.c.v.n.n.n.c.v.v.c.c.c.c.c.c.c.c.c.c.c.c.c.c.[ [ [ [ [ [ [ ' [ [ { { [ [ [ [ [ ] ] C C } c.} } } } } } } } } } } } { { ] { ` ` A ` ` C / v - - < a y s j b c b c b b c c V V V V B B c c B B B c B z i u i i 1 o & [.9X6X,X,X>Xe.h H H H K U I +   > g i ) _ ` ` ` V k ` ] ] ' [ [ ' ' ' ' ' ' ' ] ` ' ' ` J @ + 8.6X1XwX1X3X+., a.0.#.#.#.#.$.#.#.#.+.P P T T U U Y q + 8 T L L L Y : . h.mXMXMXBXBXAXHXKXKXPXPXPXPXPXPXPXPXPXPXPXPXPXPXPXPXPXPXPXPXPXPXPXPXPXPXPXPXPXPXPXPXPXPXPXPXPXPXPXPXPXPXPXPXPXPXPXPXPXPXPXPXPXPXPXPX",
"PXPXPXPXPXPXPXPXPXPXPXPXPXPXPXPXPXPXPXPXPXPXPXPXPXPXPXPXPXPXPXPXPXPXPXPXPXPXPXPXPXPXPXPXPXPXPXPXPXPXPXPXPXPXPXPXPXPXPXPXPXFXsXX 0 >XzXxXgX1.$ 9.i.1.,.,.,.*.,.,.,.,.,.,.1.,.,.6.*.*.O.= * w T U Y Y :   $ l x x x x v v x x v j c C ` A [ c.c.M.M.M.M.A.M.B.M.<.6 o q 8XeX6X#X4.3.,.#.U U U U L L q X   : 1 y u u u c B B B B B B B C B C / B B B B B B B M B B m B v - O < J ` { ` _ ` _ ` _ _ _ _ _ _ _ _ _ _ _ _ _ _ / j g q./.(.F.` / _ _ _ _ _ _ _ _ ` ` ` ` ` ) ) ` ` ` ` ` ` ` ` ` ` ` _ _ ` _ _ _ _ _ _ _ _ _ / / / / / / / / V V / / / V V C V V V / V c V ) ) V V / / / / / / / / / / V V V V c B V V c v < - ; a a a u s j c c c c c c c V V V c c B c V V c B B B z i u i i 1 o & [.4X,X,X,X>Xe.h H H H K L I +   : g g ) _ ` ` _ V c { ] ] ' [ ' ' ' ' ' ' ] ` ` ` ' ' ` J @ + 8.1X,XwX1X3X^ , a.6.#.#.#.#.#.#.#.#.+.W P T T U U Y q % 8 Y P L U U : . h.mXMXMXBXBXCXHXKXKXKXPXPXPXPXPXPXPXPXPXPXPXPXPXPXPXPXPXPXPXPXPXPXPXPXPXPXPXPXPXPXPXPXPXPXPXPXPXPXPXPXPXPXPXPXPXPXPXPXPXPXPXPXPXPXPX",
"PXPXPXPXPXPXPXPXPXPXPXPXPXPXPXPXPXPXPXPXPXPXPXPXPXPXPXPXPXPXPXPXPXPXPXPXPXPXPXPXPXPXPXPXPXPXPXPXPXPXPXPXPXPXPXPXPXPXPXPXPXFXsX. 0 >XxXxXzX1.$ 9.i.1.,.,.1.,.,.,.,.,.,.,.1.1.,.*.*.*.+.3 & w U U T I :   $ l J v x v J x x x x x c M F C [ c.M.M.c.B.M.A.M.N.M.| 6 o w 5X9X6X#X4.3.>.#.U T U P P P w X   : 1 y u u u c B B B B B B / / B C V B B B B V V B V B m m m b 1 - - - ; ; ; ; ; ; ; ; ; ; ; ; ; ; ; ; ; ; - - ; - - - ; ; ; - ; ; ; ; ; ; ; ; ; ; ; ; ; ; ; ; ; ; ; ; ; ; ; ; ; ; ; ; ; ; ; ; ; ; ; ; ; ; ; ; ; ; ; ; ; ; ; ; ; ; ; ; ; ; ; ; ; ; ; ; ; ; ; ; ; ; ; ; ; ; ; ; ; ; ; ; ; ; ; ; ; ; ; ; ; ; ; - - ; a s i j u u j c b c c k B V V V c c B m M V V B B B z i s i p 1 o @ [.9X,X,X,X>Xe.h H H H H K I X   > g g ) _ ` ` D c V { ] ] ' [ ' ' ' ' ' ` ] ` ` ` ` ' ` J @ + 6.4X,XwX1X3X^ , a.6.#.#.#.#.#.#.#.#.#.P P T U U U Y q + 8 Y P L L Y 4 . h.mXMXMXBXBXCXHXKXKXKXPXPXPXPXPXPXPXPXPXPXPXPXPXPXPXPXPXPXPXPXPXPXPXPXPXPXPXPXPXPXPXPXPXPXPXPXPXPXPXPXPXPXPXPXPXPXPXPXPXPXPXPXPXPXPX",
"PXPXPXPXPXPXPXPXPXPXPXPXPXPXPXPXPXPXPXPXPXPXPXPXPXPXPXPXPXPXPXPXPXPXPXPXPXPXPXPXPXPXPXPXPXPXPXPXPXPXPXPXPXPXPXPXPXPXPXPXPXJXsXX 0 >XxXxXzX1.$ 9.i.1.,.,.1.,.,.*.*.,.,.,.1.1.1.,.*.*.O.3 * w U U T I :   $ l v v x v b x v x x c c M C C [ c.M.M.M.c.M.A.M.z.M.| 6 o w 5X9X9X#X4.3.>.#.U T U T W P w X   : 1 y u u u c B V B B B B / / V C V B B C V V V B B B B m m c s - - - - - - - - - - - - - - - - - - - - - - - - - O O - - - - - - - - - - - - - - - - - - - - - - - - - - - - - - - - - - - - - - - - - - - - - - - - - - - - - - - - - - - - - - - - - - - - - - - - - - - - - - - - - - - - - - - - - - - - - u s u i j j s u x c c c m B B V B c c m M M M V B B B z j u i d 1 o @ {.6X,X,X,X>Xe.h H H H K K K     , g g ) ` ` ' D z _ ' ] ] ' } ' } ' ' ' ` ] ` ` ` ` ' ` J @ + 6.4X,XwX1X3X^ , a.6.#.#.#.#.#.#.#.#.#.W P U U L U Y q + 8 T P L U Y 3 . h.mXMXMXBXBXCXHXKXKXKXPXPXPXPXPXPXPXPXPXPXPXPXPXPXPXPXPXPXPXPXPXPXPXPXPXPXPXPXPXPXPXPXPXPXPXPXPXPXPXPXPXPXPXPXPXPXPXPXPXPXPXPXPXPXPX",
"PXPXPXPXPXPXPXPXPXPXPXPXPXPXPXPXPXPXPXPXPXPXPXPXPXPXPXPXPXPXPXPXPXPXPXPXPXPXPXPXPXPXPXPXPXPXPXPXPXPXPXPXPXPXPXPXPXPXPXPXPXJXsX. q >XxXxXzX6.$ 9.i.1.,.,.,.,.,.*.*.*.,.,.,.1.,.6.,.*.O.4 * w T T T T :   $ l l x x x v x v x x c c V C C [ M.c.v.M.M.M.A.v.z.M.| 6 o q 5X9X6X#X4.2.,.#.U P P P W P q X   : 1 y y u u c B / V B B B / B C B B m B V / B B V B B B M m V c s a a 1 1 1 1 1 1 1 1 1 1 1 1 1 y y y y y y y y 1 < < 1 t 1 1 1 1 1 ; < 1 1 1 1 1 1 1 1 1 1 ; 1 ; ; ; ; 1 1 1 ; ; 1 ; 1 1 1 1 1 1 1 1 1 1 1 1 1 ; ; 1 1 1 1 1 1 1 1 1 1 1 1 1 1 1 1 y y 1 y y y 1 1 1 1 1 1 1 1 1 1 1 1 1 1 1 1 1 < < < ; ; 1 1 s s u s d j i s u j c c c B c B B c c M M M V M V c c z j u i d 1 o & [.6X,X,X,X>Xe.h h H w K K w X   , g g ) ` ` ' C V ] ] ' ' ' [ [ } [ ' ' ` ` ` ` ` ' ' ` J @ + 8.1X,X1X1X>X^ , a.6.#.#.#.#.+.#.#.#.+.+.P T U K K Y q X 8 Y P L U Y : . h.mXMXMXBXBXCXHXKXKXPXPXPXPXPXPXPXPXPXPXPXPXPXPXPXPXPXPXPXPXPXPXPXPXPXPXPXPXPXPXPXPXPXPXPXPXPXPXPXPXPXPXPXPXPXPXPXPXPXPXPXPXPXPXPXPX",
"PXPXPXPXPXPXPXPXPXPXPXPXPXPXPXPXPXPXPXPXPXPXPXPXPXPXPXPXPXPXPXPXPXPXPXPXPXPXPXPXPXPXPXPXPXPXPXPXPXPXPXPXPXPXPXPXPXPXPXPXPXJXdX. q 3XxXuXgX6.$ 9.s.,.,.,.,.,.,.,.*.*.,.,.,.,.,.6.,.*.@.* & w T T T T : o $ l l g x x v v x x x x c V C C [ M.c.v.v.c.c.n.v.z.M.<.6 o q 5X9X9X#X4.2.>.#.U P P P W P q X   : 1 y u u u c V V V B B B / / / V V B B / / / C C B C B B B B B B c B c c c c c c c z k k k k c c m m c c c B k c s y J B V c k k k c c v c c c c z z z z c z z k z k k c c c c c c c c c k k k k k k k k k k k k k k k k k k k c d k k c k k k k k c k d k c k c c c k j j k j j j k k k j j d d i i i i i i i d i i u d d d d s u j b c c c B V m M z z z V V B c b j s u i i 1 o & {.1X,X,X4X>Xe.h h h w K K I X   : y g ) ` ` ` C _ { { ' ' ' [ [ [ } ' ' ` ` ` ] ] ' G ` J @ + 8.6X1X1X1X3X+., a.6.#.#.#.#.#.#.#.#.+.+.W T U U K I q + 8 T P P U Y , X h.mXMXMXMXmXAXHXPXPXPXPXPXPXPXPXPXPXPXPXPXPXPXPXPXPXPXPXPXPXPXPXPXPXPXPXPXPXPXPXPXPXPXPXPXPXPXPXPXPXPXPXPXPXPXPXPXPXPXPXPXPXPXPXPXPX",
"PXPXPXPXPXPXPXPXPXPXPXPXPXPXPXPXPXPXPXPXPXPXPXPXPXPXPXPXPXPXPXPXPXPXPXPXPXPXPXPXPXPXPXPXPXPXPXPXPXPXPXPXPXPXPXPXPXPXPXPXPXJXdXX q 3XxXuXzX6.$ 9.i.,.,.,.,.,.,.,.*.,.,.,.,.,.,.6.,.*.@.* & w T U T T : o $ l l g x x v v v v v x c V C C [ M.v.v.v.c.c.n.v.z.M.<.6 o q 5XeX9X#X4.2.>.#.U P P P P L q X   : y u u u u c B B B B B B / / / V V B B / / / C C V B B M B V B B B B B B B B B c c V V V B B B B B B B B B B B c s u / / V V B B B B B B B B B B c c c c B B B c c c c c B B c c c c B B B c c c c B B c k k m B B B k k k k c k k k k k k k c c k c k d k c k k k c c c c c k k k c c B c k c d d d d d d d d i d i u d d c d j s u x c B c V M M M c z z V V m c b j s u i i 1 o : {.1X,X,X4X>Xe.h H h w K K I X   : y g / ` ` ` F ] ' ' ' ' ' ' [ [ [ ' ' ` ` ` ] ] ' G ` J @ + 8.6X1X1X1X3X+., a.6.+.#.#.#.#.#.#.+.+.+.W T U U U Y q + 8 T P P U Y , X h.mXMXMXMXmXAXHXPXPXPXPXPXPXPXPXPXPXPXPXPXPXPXPXPXPXPXPXPXPXPXPXPXPXPXPXPXPXPXPXPXPXPXPXPXPXPXPXPXPXPXPXPXPXPXPXPXPXPXPXPXPXPXPXPXPX",
"PXPXPXPXPXPXPXPXPXPXPXPXPXPXPXPXPXPXPXPXPXPXPXPXPXPXPXPXPXPXPXPXPXPXPXPXPXPXPXPXPXPXPXPXPXPXPXPXPXPXPXPXPXPXPXPXPXPXPXPXPXJXsX% q 3XxXuXzX6.$ 9.i.,.,.,.,.,.,.,.,.,.,.,.6.,.,.6.,.,.@.* * r P U T T : o $ v v x x x v v x x x x c V C C [ M.v.v.v.c.c.n.v.z.M.<.6 o q 5XeX9X#X4.2.>.#.U P P P L L w X   : 1 y u u u k B c B B B B / / / / / B B / / / V V C B B B B V B B V B B M M M B B B B B B B B B B B B B B B B B c s s / B B B B m B m B B B B B B B B B B B B m B B B B B B B B B B B B B B B B B m B m B B B m B m m m B B B B m k k k k k c k k k c k d d B B k k B B B B B B B B B m m m m k d d d d d d d d d d d i d d d k k j u i c b c B m m m c z z z m c k b j s i i i 1 o : {.1X,X,X4X>Xe.h H h w K K I X   > y i / ` ` ` ` ' ] ' ' ' ' ' [ [ [ ' ' ` ' ` ] ' ' G ` J @ + 8.6X1X1X1X3X+., a.6.+.#.#.#.+.+.#.+.+.#.W T T U T Y q + 8 T P P U Y , X h.mXMXMXMXmXAXHXPXPXPXPXPXPXPXPXPXPXPXPXPXPXPXPXPXPXPXPXPXPXPXPXPXPXPXPXPXPXPXPXPXPXPXPXPXPXPXPXPXPXPXPXPXPXPXPXPXPXPXPXPXPXPXPXPXPX",
"PXPXPXPXPXPXPXPXPXPXPXPXPXPXPXPXPXPXPXPXPXPXPXPXPXPXPXPXPXPXPXPXPXPXPXPXPXPXPXPXPXPXPXPXPXPXPXPXPXPXPXPXPXPXPXPXPXPXPXPXPXFXsXX w 3XuXuXzX6.$ 9.i.,.,.,.,.,.,.,.,.,.,.6.6.6.,.,.*.*.@.* * w T U T Y ,   * l h v x x v b j j x x j c M C [ M.v.v.v.c.c.n.v.z.M.| < o 0 5X9X9X>Xw.2.3.#.U P P P L L q X   : y u u u u j B B B B B B C / B V / B B / / / V V B B B B B V V V M V B m m m m B B B B V B B B B N N N B B B B B u s / B B B B m B B C B B C C B B B B B C C B B m B m B B m m m B B B B B B B B B m m m m m m m B m m m B B B B B B B B B c k k k k k d d c c k k k k B B B B B B B B B m k d d p d d d d d d d d d i i c c d k k i u i b c c m m m c c z M m m k c j s s i d 1 o : {.1X,X,X4X>Xe.h h h H K L r X   , y j ) ] ] ' ' ' ' } ' ' ' ' ' [ [ ' ' ' ` ` ] ` ' G ` R @ + 9.6X1X,X1X3X+., a.6.#.#.#.#.+.+.#.#.+.+.#.Y U T U K q + 8 T P P U Y = . h.mXMXNXMXBXAXHXKXKXPXPXPXPXPXPXPXPXPXPXPXPXPXPXPXPXPXPXPXPXPXPXPXPXPXPXPXPXPXPXPXPXPXPXPXPXPXPXPXPXPXPXPXPXPXPXPXPXPXPXPXPXPXPXPXPX",
"PXPXPXPXPXPXPXPXPXPXPXPXPXPXPXPXPXPXPXPXPXPXPXPXPXPXPXPXPXPXPXPXPXPXPXPXPXPXPXPXPXPXPXPXPXPXPXPXPXPXPXPXPXPXPXPXPXPXPXPXPXFXsXX 0 3XuXuXzX6.$ 9.i.,.,.,.1.1.1.,.,.,.,.6.6.6.,.,.*.*.@.* * w U U I I ,   $ l l x x x v b v x v x j M C C [ M.v.v.v.c.v.A.v.z.M.| < o 0 5XrX9X>Xw.2.3.#.U P P P L L q X   : y u u u u d c B B B B B C C B V V B B B / / V V V B V V V M V V B c m m m m B N V B B C B B B B C N B B B m B B u s / B B B m m B B C C B B N B B B V M V V B B m B m m m m m m m B B B B B B B B B B B m m B B B B m m B B B B B B B B B k c c c k k d d c m k k c k B B B B B B B B B m m k d d d d k d d d d d d d i d c d k k k i u j c c k m m c c k k m m B k i s s i d 1 o : {.1X,X,X4X>Xe.h H K H K L r X   , y j ) ` ] ' ' ' ' ' ' ' ' ' ' [ ' ' ' ` ` ] ] ` ' G ` R @ + 9.1X1X,X1X3X+., a.6.#.#.#.#.#.+.+.+.+.+.#.T T T U I q + 8 T P P L Y : . h.mXMXNXMXmXAXHXKXKXPXPXPXPXPXPXPXPXPXPXPXPXPXPXPXPXPXPXPXPXPXPXPXPXPXPXPXPXPXPXPXPXPXPXPXPXPXPXPXPXPXPXPXPXPXPXPXPXPXPXPXPXPXPXPXPX",
"PXPXPXPXPXPXPXPXPXPXPXPXPXPXPXPXPXPXPXPXPXPXPXPXPXPXPXPXPXPXPXPXPXPXPXPXPXPXPXPXPXPXPXPXPXPXPXPXPXPXPXPXPXPXPXPXPXPXPXPXPXFXsXX 0 3XuXuXzX6.- 9.i.,.,.,.1.,.,.,.,.,.,.6.6.,.,.,.*.$.O.* * w U U T I :   $ l v x x x x c x v x x j V C A [ c.M.v.v.c.M.A.v.l.M.| < o 0 5X9X9X>X4.2.3.#.U P P P L P q X   : y y y u u i c B B B B B C C / / / B B B / / B V V B V V V B B V V V V V M M B B B B B C C B B C C B B B m m m B u s / B B B c m m B B C B B B B m M M M C M B m m B m M M m m m m B B B B B B B B B B m m m B B B B B m m B B B B m m B B k B c c c c d p m B B B B c c B B B B B B B B m k k d d d d k k k j d d d d i d c d k k k k u u z c m m m c c c m m m k k i u s u d 1 o : {.1X,X,X4X>Xe.h H K H K L r X   , y j ) ` ` ] ' [ ' ' ' ' ' ' ' ' ' ' ' ` ` ] ] ` G G ` J @ + 8.1X1X,X1X3X+., a.6.+.#.#.#.#.#.#.+.+.+.+.+.T U U I q + 8 T P P L Y : . h.mXMXBXMXmXAXHXKXKXPXPXPXPXPXPXPXPXPXPXPXPXPXPXPXPXPXPXPXPXPXPXPXPXPXPXPXPXPXPXPXPXPXPXPXPXPXPXPXPXPXPXPXPXPXPXPXPXPXPXPXPXPXPXPXPX",
"PXPXPXPXPXPXPXPXPXPXPXPXPXPXPXPXPXPXPXPXPXPXPXPXPXPXPXPXPXPXPXPXPXPXPXPXPXPXPXPXPXPXPXPXPXPXPXPXPXPXPXPXPXPXPXPXPXPXPXPXKXFXsXX w <XuXuXzX6.$ 9.i.,.,.,.,.,.,.,.,.,.6.6.,.,.,.6.,.$.O.* * w U U T I ,   $ l v x x x x x j x x j j V C F [ c.M.v.v.M.M.A.v.z.M.| < o 0 5X9X9X-X4.2.3.+.P P P T P P q X   : y u u u u i c B B B B C B B / / / B B / / / / V B B B B B B B B V V V M V V B B B C C C C C B C N N B B B m m B i i / B N B m B B B B C B B B B m B B M C M M B m B B B B B m m m B B B B B B B B B B B m B B B B B B B B B B B B B B B B m m B B B B d d B B B B B B B B B B B B B B B m k k k d d d k k k d d d d d d d k d k k k k d u d c m m B B B B B B m d d i u i u d 1 o * {.1X,X,X,X>Xw.h H H K K L r o   > y g ) ` ` ' [ } ' } [ [ ' ' ' ' ' ' ' ' ` ] ] ` ` G ` J @ + 9.4X1X,X1X3X^ , a.6.+.#.#.$.#.#.#.+.+.#.#.+.T U U K 0 + 8 Y U P U Y : . h.mXMXMXBXBXAXHXKXKXPXPXPXPXPXPXPXPXPXPXPXPXPXPXPXPXPXPXPXPXPXPXPXPXPXPXPXPXPXPXPXPXPXPXPXPXPXPXPXPXPXPXPXPXPXPXPXPXPXPXPXPXPXPXPXPX",
"PXPXPXPXPXPXPXPXPXPXPXPXPXPXPXPXPXPXPXPXPXPXPXPXPXPXPXPXPXPXPXPXPXPXPXPXPXPXPXPXPXPXPXPXPXPXPXPXPXPXPXPXPXPXPXPXPXPXPXPXKXFXsX% H <XuXuXgX1.$ 9.i.1.,.1.,.,.,.,.,.6.6.6.,.,.,.6.,.*.O.= * w U U U I ,   $ v v v x x x x j j j j j c C F [ M.M.M.M.M.M.A.v.z.M.| 6   0 5X9X9X#Xq.3.,.+.P P U T P P q X   : u y u u u u k B B B B B C B B / / B B B / B / B B B B B V B B C / / C C C V B B B V V B B B B B m m B B m m m B u i / N N m V M V m B M M M M M M m B M M M M V B V B B B B V V V B B B M B N M M m m B B B B B B B B B B m B B B B B B B B B B B c c d i B B B B B m m m m B B B m B B k k k k k k m k k k d k k d k d d k k k k k k d i u k c c B c B B B c k i i i i i i d 1 o * |.1X,X,X,X>Xw.h h K K K K r +   > a g _ _ ` ' } x.[ [ [ ' ' ' ' ' ' ' ' ' ` ` ] ` ` G ` E @ + 8.4X1X1X1X3X+., a.6.+.#.#.$.#.#.#.#.+.#.#.+...U U K 0 + 8 T U W P Y 4 . g.mXMXMXBXBXAXHXKXHXPXPXPXPXPXPXPXPXPXPXPXPXPXPXPXPXPXPXPXPXPXPXPXPXPXPXPXPXPXPXPXPXPXPXPXPXPXPXPXPXPXPXPXPXPXPXPXPXPXPXPXPXPXPXPXPX",
"PXPXPXPXPXPXPXPXPXPXPXPXPXPXPXPXPXPXPXPXPXPXPXPXPXPXPXPXPXPXPXPXPXPXPXPXPXPXPXPXPXPXPXPXPXPXPXPXPXPXPXPXPXPXPXPXPXPXPXPXKXFXsX% H <XuXuXgX6.@ 0.i.1.,.1.,.,.,.,.,.6.6.6.,.,.,.6.,.*.O.= * w U U U I ,   $ h v v x x x x j j j j j c C F [ c.M.M.S.M.M.n.v.z.M.| 6   0 5X9X9X#Xw.3.3.+.P P U T P P q X   : y y y u u u j B B B B B B B B V V B B B V C V B B B B V V V V B V V / / / / B B / V V V B B V m k c M M c k k z u g S m M z z M m M M M M M M M M m M M V V M z c V V / / / / B B V M M M M M M M m m m m B B c c c B B B c m B B B B B B z z z z z z i u z c z c c c k k c c c c k c c c k k k d k k k d d d k k k k d i j c z k k k k k u u z z z z z b c z i u u s i u i i 1 o : |.1X,X,X,X>Xw.h h H H K K r + o > a g _ _ ] ' } } [ [ [ ' ' ' ' ' ' ' ' ` ` ` ] ` ` G ` E @ + 8.6X1X,X1X3X+., a.6.+.#.#.$.#.#.#.#.#.#.#.+.+.T U K 0 + 8 T U L P Y : . h.mXMXMXBXBXAXHXKXHXPXPXPXPXPXPXPXPXPXPXPXPXPXPXPXPXPXPXPXPXPXPXPXPXPXPXPXPXPXPXPXPXPXPXPXPXPXPXPXPXPXPXPXPXPXPXPXPXPXPXPXPXPXPXPXPX",
"PXPXPXPXPXPXPXPXPXPXPXPXPXPXPXPXPXPXPXPXPXPXPXPXPXPXPXPXPXPXPXPXPXPXPXPXPXPXPXPXPXPXPXPXPXPXPXPXPXPXPXPXPXPXPXPXPXPXPXPXKXFXsX% H <XuXuXgX6.@ 9.i.,.,.1.,.,.,.,.,.,.6.6.,.,.*.6.,.*.O.= * w U U U I ,   $ l l x x j x x j j j j i c C A [ c.c.M.M.B.z.M.v.z.M.| 6   0 5X9X9X#Xw.3.3.+.P P U T P P q X   : y y y u u u i c B B B B B B B M M B B M C M V M B B B V C N N B C C V V V V B B V V M M V m m m M M M M M M m c u i S m M z m m m m M N M N M M m M M M M m m m m M M V V B B B B B N V V V V M M M m m m B B B B B B B B m m B B B B B B c m c c c c k i k c k c c m m m m m m m m m m m m k p d m m d p d d d d k k d p k k k c c k k k j u j z b z z z z j u s s s i u u d 1 o : |.1X,X,X,X>Xe.h H K H K K w + o > a g _ ] ] [ } } [ [ [ ' ' ' ' ' ' ' ' ` ` ] ] ` ' G ` E @ + 9.4X1X,X1X3X+., a.0.+.o.#.$.#.#.#.#.#.#.#.#.+.T I K q + 8 T U L P ! : . g.mXMXMXBXBXAXHXKXHXPXPXPXPXPXPXPXPXPXPXPXPXPXPXPXPXPXPXPXPXPXPXPXPXPXPXPXPXPXPXPXPXPXPXPXPXPXPXPXPXPXPXPXPXPXPXPXPXPXPXPXPXPXPXPXPX",
"PXPXPXPXPXPXPXPXPXPXPXPXPXPXPXPXPXPXPXPXPXPXPXPXPXPXPXPXPXPXPXPXPXPXPXPXPXPXPXKXPXPXPXPXPXPXPXPXPXPXPXPXPXPXPXPXPXPXPXPXKXFXsX% w >XuXuXgX6.@ 9.i.1.*.,.1.,.,.,.,.,.6.,.,.,.,.6.*.*.O.* & w U U U I :   $ l v x x x x x x x v j s c C C [ c.v.v.v.z.z.A.B.B.M.| 6   q 5XrX9X#Xe.3.3.+.P P U T P P q X   : u u u u i i i p z M M M M M V V V V B B B B B B V V V B N N N B N B N V N N N N m B N V N B m m N N m m m m m m u p ( N V M M M M m m N N m m V V V m m m B N B B B N N N N m m N m B B B B N B m c m V B B c m m B B B B B c c m c c c B m m m m m m d i k B m m m m m m m m m m m m m m m m f p p d f f m f f f m m p d p k m m m m m k j i u k c c c k p i u i i s s u u i 1 o : {.1X,X,X,X$Xw.L H H H K L w +   > a g _ _ ] [ [ ' } } [ ' ' ' ' ' ' ' ' ' ` ` ] ` ` F ` J - @ r.4X,X,X1X3X+., a.6.+.#.#.#.#.#.#.#.#.#.#.#.+...T K q + 8 T P L P ! 4 . h.mXMXMXBXBXAXKXKXPXPXPXPXPXPXPXPXPXPXPXPXPXPXPXPXPXPXPXPXPXPXPXPXPXPXPXPXPXPXPXPXPXPXPXPXPXPXPXPXPXPXPXPXPXPXPXPXPXPXPXPXPXPXPXPXPX",
"PXPXPXPXPXPXPXPXPXPXPXPXPXPXPXPXPXPXPXPXPXPXPXPXPXPXPXPXPXPXPXPXPXPXPXPXPXPXPXKXKXPXPXPXPXPXPXPXPXPXPXPXPXPXPXPXPXPXPXPXKXFXsX% q >XuXuXgX6.$ 9.i.1.*.,.1.,.,.,.,.,.,.,.,.,.,.,.*.$.O.* & w U U U I ,   $ l l x x x x x x x j j u c C C ' c.v.v.v.z.v.v.B.B.N.;.6   0 5X9X9X#Xe.3.7.+.P P L T P L 0 X   : y u u u u u u s j z z b b z c c c b b b c b b b b b b B B B B B B B B M M M m m m B B V M M M M V B B B m m B B u j _ N B c c c B B B B B B B B B c c c B B B B B B B B B B m m m B B B B B B B z b b b b c c c c B B B B c c c c v c c b B c c c c c d i c B k B B m c B B c c c k k k m k d d d k c c c k k k k k c k j j k c c c c c c x d u i j x d s u u u s s s a a s s 1 + : {.,X,X,X,X$Xe.L H H K K L w o   > a g _ ] ] ' } ' ' } ' ' ' ' ' ' ' ' ' ' ` ` ] ` ` F ` J - @ r.4X,X,X,X3X+., a.6...o.#.+.#.#.#.#.#.#.#.#.#.+.@.Y 0 X 8 T P P P ~ 4 . h.mXMXMXBXBXAXKXKXPXPXPXPXPXPXPXPXPXPXPXPXPXPXPXPXPXPXPXPXPXPXPXPXPXPXPXPXPXPXPXPXPXPXPXPXPXPXPXPXPXPXPXPXPXPXPXPXPXPXPXPXPXPXPXPXPX",
"PXPXPXPXPXPXPXPXPXPXPXPXPXPXPXPXPXPXPXPXPXPXPXPXPXPXPXPXPXPXPXPXPXPXPXPXPXPXPXKXKXPXPXPXPXPXPXPXPXPXPXPXPXPXPXPXPXPXPXPXKXFXsX% q >XuXuXgX8.$ 9.i.1.*.,.1.,.,.,.*.*.,.,.,.,.1.,.$.$.O.* & w U U U I ,   $ l l x x x x x x x j g u c C C ' M.v.v.v.z.v.v.z.B.N.;.6   0 5X9X9X#Xe.3.6.+.U T P T P P q X   : 1 1 y y y y y y s l x x x x x x x b b b c b b b b b b v v v v x v v c c c v b b v c c c b c c b b c c c c c j x 1 h ) c c v v v v v v v v v v v v v j j x x v v v v x x x x x x x x x x x x x x j x x x x x x j x x x x x x x x x x x x x x x x x x x s s x x j x x j j x x g l l x j j j j j j g g g g g s s s g g h g h h g g l g h h h h h a a a a a a a a a a g a a a a a < + * |.,X=X,X,X$Xe.L H H K K L w o   > a g _ ] ] ' } ' ' ' ' ' ' ' ' ' ' ' ' ' ` ` ] ` ` F ` E - @ r.4X,X,X4X3X+., a.6.....+.+.#.#.#.#.#.#.#.#.+.@.+.Y 0 X 8 Y P P P ~ 4 . h.mXMXMXBXBXAXKXKXPXPXPXPXPXPXPXPXPXPXPXPXPXPXPXPXPXPXPXPXPXPXPXPXPXPXPXPXPXPXPXPXPXPXPXPXPXPXPXPXPXPXPXPXPXPXPXPXPXPXPXPXPXPXPXPXPX",
"PXPXPXPXPXPXPXPXPXPXPXPXPXPXPXPXPXPXPXPXPXPXPXPXPXPXPXPXPXPXPXPXPXPXPXPXPXPXPXKXKXPXPXPXPXPXPXPXPXPXPXPXPXPXPXPXPXPXPXPXKXGXdXX w <XuXuXzX7.@ 9.i.1.,.,.,.,.,.,.,.,.,.*.,.,.,.,.*.*.O.= & w U U U I :   $ l h x x x x x x x g s s c C C ' M.v.v.v.z.v.v.z.B.B.| 6 o 0 5X9X9X-Xe.2.3.^ U P P T P W q +   % - - - @ - - - - - 2 - - - - - - - - - - - - - 2 2 2 2 - - - - - - - - - - 2 2 2 2 - - - - - - > 2 2 2 - - - - : @ : > - - - - - - - 2 2 - - - - - - - - - - - - - - - - - 2 - - - - : : : - - : - - - - - - - : : : : - : : : - - - - - - : : : : : : : : : : : - - - - - 2 - - - - - - - - - - - - 2 2 - - - - - - - - - - - - - - - - - @ @ @ @ @ @ @ @ @ @ @ @ @ @ $ $ @ @ +   :  X,X=X,X,X$Xr.L H H K K L w o   > y j / { ] ' ' ' ' ' ' ' ' [ ' ' ' ' ' ` ` ` ] ` ` F ` E @ + 8.4X,X1X1X3XT , a.1...#.#.+.+.#.#.#.#.#.#.#.+.+.+.@.e X 4 T P P P ~ 4 . h.mXMXMXMXBXAXHXKXPXPXPXPXPXPXPXPXPXPXPXPXPXPXPXPXPXPXPXPXPXPXPXPXPXPXPXPXPXPXPXPXPXPXPXPXPXPXPXPXPXPXPXPXPXPXPXPXPXPXPXPXPXPXPXPXPX",
"PXPXPXPXPXPXPXPXPXPXPXPXPXPXPXPXPXPXPXPXPXPXPXPXPXPXPXPXPXPXPXPXPXPXPXPXPXPXPXKXKXPXPXPXPXPXPXPXPXPXPXPXPXPXPXPXPXPXPXPXKXGXdXX w <XuXrXzX6.@ 0.i.1.,.,.,.*.,.,.,.,.,.*.*.,.,.,.*.*.O.= & w U U I I :   $ l v v x x x x j x g s i c C C ` M.c.v.z.z.v.n.z.B.M.} 6   0 5X9X9X-Xe.3.3.+.U P P P P Y q     .                                                                                             o o o o o o o o o             o               o o o                                                 o o o o o o o                                                                                             o o o o o o               o o o             o o o o   o o o             ,  X>X=X,X>X$Xe.L H H K H L K o   > y j ) { ] ' ' ' ' ' [ ' ' } [ ' ' ' ' ` ` ` ] ` ` F ` E @ + 8.4X,X,X1X3XT , a.1...#.$.+.+.#.#.#.#.#.#.#.+.#.#.@.q X 4 Y P W P ~ 4 . h.mXMXMXMXBXAXHXKXPXPXPXPXPXPXPXPXPXPXPXPXPXPXPXPXPXPXPXPXPXPXPXPXPXPXPXPXPXPXPXPXPXPXPXPXPXPXPXPXPXPXPXPXPXPXPXPXPXPXPXPXPXPXPXPXPX",
"PXPXPXPXPXPXPXPXPXPXPXPXPXPXPXPXPXPXPXPXPXPXPXPXPXPXPXPXPXPXPXPXPXPXPXPXPXPXPXKXKXPXPXPXPXPXPXPXPXPXPXPXPXPXPXPXPXPXPXPXKXGXdXX w <XuXrXzX7.$ 9.a.,.*.,.,.,.,.,.*.*.*.*.*.,.,.,.*.*.O.= & w U U T Y ,   $ H h x x x x x x j g s i c C C F M.c.c.z.z.v.A.M.B.B.} 6   q 5X9X9X>Xe.3.3.#.P P P P W ! 4 X * O.@.Y ~ @.+.O.O.O.O.O.O.+.+.+.+.+.+.O.+.+.+.+.+.+.+.+.+.+.+.+.+.O.O.O.%.#.+.+.+.+.+.+.+.+.+.+.+.+.^ +.+.+.+.+.+.+.%.#.#.%.#.#.%.%.@.+.+.+.+.+.&.%.%.%.%.%.%.O.+.+.+.+.O.O.@.@.O.+.+.+.%.%.%.%.+.^ +.+.+.+.+.+.+.+.+.+.+.+.+.+.+.+.+.+.+.+.+.%.%.%.+.%.%.+.#.#.#.$.$.$.%.+.+.+.+.+.+.+.O.%.O.O.O.O.+.+.+.O.O.+.O.+.+.+.+.+.+.+.+.+.+.+.+.+.+.%.%.#.$.$.$.$.$.$.$.#.#.*.$.#.+.+.+.I : 8 #X3X>X>X>X>Xt.U K H h H L w o   > y j ) { ] ' ' ' ' ' ' ' ' } [ [ ' ' ' ` ` ` ] ` ` F ` E @ @ 8.4X,X,X6X3XW , a.6...+.%.#.#.#.#.#.#.#.#.+.+.+.#.+.q + 8 T P P P ~ 4 . h.mXBXMXmXBXAXHXHXPXPXPXPXPXPXPXPXPXPXPXPXPXPXPXPXPXPXPXPXPXPXPXPXPXPXPXPXPXPXPXPXPXPXPXPXPXPXPXPXPXPXPXPXPXPXPXPXPXPXPXPXPXPXPXPXPX",
"PXPXPXPXPXPXPXPXPXPXPXPXPXPXPXPXPXPXPXPXPXPXPXPXPXPXPXPXPXPXPXPXPXPXPXPXPXPXPXKXKXPXPXPXPXPXPXPXPXPXPXPXPXPXPXPXPXPXPXPXKXGXdXX w 3XuXrXzX7.$ 9.a.,.*.,.,.,.,.*.*.*.,.*.,.,.,.,.*.*.O.= & w U U T Y ,   $ H v x x x x x j g s s i c C C F M.c.c.z.z.v.A.B.B.B.} <   0 5XrX9X>Xe.3.3.#.T T T E K 8 % 4 i.8X8X5X5XfXgXgXgXgXgXgXgXgXgXgXgXgXgXfXfXgXgXfXfXfXfXfXfXfXfXfXfXgXgXgXgXgXgXgXgXgXgX8X8X8X8X8X8X8X8XgXgXgXgXgXgXgXgXgXgXgXgXgX8X8XgXfXfXfXfX8XfXfXgXgXgXgXgXgXfXgXgXgXfXfXfXfX8XgXgXfXfXfXgXfXfX8X8X8X8X8XgX8XfX5X8XgXgXgX8X8X8X8XgXgXgXgXgXgXgXfXfXfX8XfXgXgXgXgXgXfXgX8X8X8X8X8X8X8XfXfXfXfXfX5X5X5X8XfXfX8XfX8X8X8X8X8X8X8X5X8X5X8X8X8X8X8X8X8X8X8X8X8X8X5X8X5X8X8X5X5X5X5X8X2X3.5 T #X>X>X>X>Xe.L K H h H L q     > y j ) ] ] ' ' ' ' ' ' ' ' } } } [ ' ' ` ` ` ] ` ` F ` J @ @ 8.4X,X,X,X>XW , a.7.o.#.%.#.#.#.#.#.#.#.#.+.+.+.#.+.q + 8 T U P P ! 4 . h.mXBXMXmXBXAXHXKXPXPXPXPXPXPXPXPXPXPXPXPXPXPXPXPXPXPXPXPXPXPXPXPXPXPXPXPXPXPXPXPXPXPXPXPXPXPXPXPXPXPXPXPXPXPXPXPXPXPXPXPXPXPXPXPXPX",
"PXPXPXPXPXPXPXPXPXPXPXPXPXPXPXPXPXPXPXPXPXPXPXPXPXPXPXPXPXPXPXPXPXPXPXPXPXPXPXPXKXPXPXPXPXPXPXPXPXPXPXPXPXPXPXPXPXPXPXPXKXFXsXX 0 >XuXrXzX6.$ 9.a.1.*.,.,.,.,.,.*.*.,.6.,.,.,.,.,.*.O.= * r U T T Y :   $ l l x x j x x j g s s s z S F F M.c.c.z.z.v.n.M.z.M.} 6 o q 5X9X6X>Xe.3.3.#.T T W L 5 & 8 d.5X9X9X9X9X9X9X9X9X9X9X9X9X9X9X9X9X9X9X9X9X9X9X9X9X9X9X9X9X9X9X9X9X9X9X9X9X9X9X9X9X6X9X9X9X9X9X9X6X9X9X9X9X9X9X9XrX9X9X9X9X9X9X9X9X9X9X9X9X9X9X9X9X9X9X9X9X9X9X9X9X9X9X9X9X9X9X9X9X6X9X9X9X9X9X9X9X9X9X9X9X9X9X9X9X9X9X9X9X9X9X8X9X9X9X9X9X9X9X8X8X8X8X9X9X9X9X8X8X8X8X8X9X9X9X9X8X9X9X8X9X9X8X8X9X8X8X9X9X8X9X9X9X8X8X9X9X8X8X9X9X9X9X9X9X9X9X8X8X8X8X8X8X8X8X4X4X4X4X3X3X<X4X4X9X4X>X3.> h p.>X>X>Xe.L K K K K L q o   , y j ) ] ` ] [ [ } } ' ' [ [ ' ' ' ' ' ` ` ` ` ` ` F ` J @ + 8.4X,X,X1X3XT , a.6...#.$.#.+.+.+.#.#.#.#.+.+.+.#.+.w + 8 Y P P U Y 3 . h.mXMXMXmXBXAXHXHXHXPXPXPXPXPXPXPXPXPXPXPXPXPXPXPXPXPXPXPXPXPXPXPXPXPXPXPXPXPXPXPXPXPXPXPXPXPXPXPXPXPXPXPXPXPXPXPXPXPXPXPXPXPXPXPXPX",
"PXPXPXPXPXPXPXPXPXPXPXPXPXPXPXPXPXPXPXPXPXPXPXPXPXPXPXPXPXPXPXPXPXPXPXPXPXPXPXPXKXPXPXPXPXPXPXPXPXPXPXPXPXPXPXPXPXPXPXPXKXGXsXX 0 <XzXrXgX6.$ 5.a.6.*.,.,.,.,.,.*.*.,.,.,.,.,.,.:.*.O.= * w U T T Y :   $ l l x x x x x g g s s s z C F F M.c.c.v.z.v.n.M.z.M.| 6 o q 5XeX9X>Xe.3.3.#.P W U 5 @ 9 p.8XgX9X9X9XrX9X9X9X9X9X9X9X9X9X9X9X9X9X9X9X9X9X9X9X9X9X9X9X9X9X9X9X9X6X6X9X9X9X9X9X9X9X9X6X6X6X6X6X6XeX6X6X6X6X6X6XeXrXeX9X9X9X9X6X9X9X9X8X9X9X9X9X9X9X9X9X9X9X9X9X9X9X9X9X9X9X9X9X6X6X6X9X9X8X8X9X8X8X9X8X8X9X9X9X9X9X8X9X9X8X9X8X9X9X9X9X9X8X9X8X8X8X8X8X8X8X8X9X9X8X8X8X8X9X9X8X8X8X9X9X9X9X9X8X8X8X8X9X9X8X8X9X9X8X8X9X9X9X9X9X6X9X9X9X9X6X9X8X8X8X8X4X4X8X4X4X4X4X4X4X4X4X4X4X6X1X1X<Xu.1 < 1.-X-Xe.L h K K K L K o   , y j ) ] ` ' ' [ } } ' ' [ [ ' ' ' ' ' ` ` ` ` ` ` F ` J @ + 8.4X,X,X1X>XT , a.6...#.$.#.#.#.+.+.#.#.#.+.+.+.+.+.w X 8 Y P P U Y 3 . h.mXMXMXBXBXAXHXKXHXKXPXPXPXPXPXPXPXPXPXPXPXPXPXPXPXPXPXPXPXPXPXPXPXPXPXPXPXPXPXPXPXPXPXPXPXPXPXPXPXPXPXPXPXPXPXPXPXPXPXPXPXPXPXPXPX",
"PXPXPXPXPXPXPXPXPXPXPXPXPXPXPXPXPXPXPXPXPXPXPXPXPXPXPXPXPXPXPXPXPXPXPXPXPXPXPXPXPXPXPXPXPXPXPXPXPXPXPXPXPXPXPXPXPXPXPXPXKXGXsXX w 3XzXlXgX6.$ 5.d.6.*.,.*.,.,.,.*.*.,.,.*.*.*.,.,.*.O.= * w U U I Y :   $ h h v x x x j g s s s s z C C F c.c.z.v.z.z.n.M.z.B.| 6 o q 5XeX6X>Xe.3.7.*.W P 6 # 8 [.4X9X6X9X9X9X9X9X9X9X8X9X9X9X9X8X9X9X9X9X9X9X8X8X8X8X8X8X9X9X9X8X8X8X8X8X8X8X8X9X9X9X9X9X9X9X8X8X8X9X9X9X9X9X9X9X9X9X9X9X9X9X9X9X9X8X8X8X8X8X8X8X8X9X8X8X8X8X8X8X8X8X8X8X8X9X9X9X9X9X9X9X9X9X9X9X9X9X8X9X8X8X8X8X9X9X8X8X9X9X9X9X9X9X9X9X9X9X9X9X9X9X9X6X6X6X4X6X6X8X8X8X8X8X9X8X8X8X8X8X8X8X9X9X9X9X9X9X9X9X8X8X8X8X8X8X8X8X8X8X9X8X9X8X8X9X9X8X8X9X8X8X8X8X8X9X8X4X4X4X4X4X8X9X6X1X6X1X1X6X3X{.> > +.+Xw.l h K K L L K o   , y j ) ` { ' } } } [ ' ' [ [ ' ' ' ' ` ` ` ` ` ( F F ` J @ + r.6X,X,X6X3XW , a.6...#.$.#.#.#.+.+.#.#.#.+.+.+.+.+.w + 4 Y P L U Y 3 X h.mXMXMXBXBXSXJXPXHXKXPXPXPXPXPXPXPXPXPXPXPXPXPXPXPXPXPXPXPXPXPXPXPXPXPXPXPXPXPXPXPXPXPXPXPXPXPXPXPXPXPXPXPXPXPXPXPXPXPXPXPXPXPXPXPX",
"PXPXPXPXPXPXPXPXPXPXPXPXPXPXPXPXPXPXPXPXPXPXPXPXPXPXPXPXPXPXPXPXPXPXPXPXPXPXPXPXPXPXPXPXPXPXPXPXPXPXPXPXPXPXPXPXPXPXPXPXPXFXdXX w 3XuXzXgX6.$ 9.i.6.*.,.,.,.,.,.*.,.,.,.,.,.,.,.*.*.O.= * w I I I Y ,   $ v h x x x x g s s s s i c C C F c.M.B.B.z.z.M.B.z.M.{ < o 0 5X9X9X#X4.8.7.*.K 4 + 8 +X3X9X4X4X4X3X3X3X3X3X3X3X3X3X3X3X3X3X3X>X3X>X3X3X3X>X>X>X>X>X>X>X>X>X>X>X>X>X>X>X>X>X>X3X3X3X>X>X3X3X>X>X>X3X3X3X3X3X3X3X>X3X3X3X3X3X>X3X>X>X>X>X>X>X>X>X>X>X>X>X>X>X>X>X>X>X<X>X>X>X>X>X>X>X>X>X>X>X>X>X>X>X>X>X>X>X>X>X>X>X>X>X>X>X>X>X>X>X>X>X>X>X>X>X>X>X>X>X>X>X>X>X>X>X>X>X>X>X>X>X>X>X>X>X>X>X>X>X>X>X-X-X-X-X-X-X-X-X-X-X-X-X-X-X-X-X-X-X-X-X-X-X-X-X-X#X#X-X#X-X-X>X-X>X>X>X>X>X>X>X<X<X8X|.0 + e 5.I 0 K K U U w +   > a j ) ` ' } } [ } } [ [ ' [ ' ' ' ' ' ` ` ` ` ( F F _ J @ $ r.4X1X,X1X3X~ , a.6.+.#.#.+.+.+.+.+.#.#.#.+.+.+.+.@.w + 5 T P L U Y , . h.mXMXMXmXBXAXHXPXKXKXKXPXPXPXPXPXPXPXPXPXPXPXPXPXPXPXPXPXPXPXPXPXPXPXPXPXPXPXPXPXPXPXPXPXPXPXPXPXPXPXPXPXPXPXPXPXPXPXPXPXPXPXPXPXPX",
"PXPXPXPXPXPXPXPXPXPXPXPXPXPXPXPXPXPXPXPXPXPXPXPXPXPXPXPXPXPXPXPXPXPXPXPXPXPXPXKXPXPXPXPXPXPXPXPXPXPXPXPXPXPXPXPXPXPXPXPXPXJXdXX 0 3XuXuXgX6.$ 9.a.6.*.,.,.,.,.,.*.,.,.,.,.,.,.,.*.*.O.* * w Y I I I , o $ v h x x x v s s s s s i c D C F l.M.c.z.z.z.B.B.v.M.;.6 o 0 5XrX9X#Xw.w.6.T : o 4 *.3.e.4.4.4.e.4.4.4.4.4.4.4.4.4.4.4.4.4.4.4.4.4.4.4.4.4.4.4.4.4.4.4.4.4.4.4.4.4.4.4.4.4.4.4.4.4.4.4.4.4.4.4.4.4.4.4.4.4.4.4.4.4.4.4.4.4.4.4.4.4.4.4.4.4.4.4.4.4.4.4.4.4.4.4.4.4.4.4.4.4.4.4.4.4.4.4.4.4.4.4.2.4.4.4.4.4.4.4.4.4.4.4.4.4.4.4.4.4.4.4.4.4.4.4.4.4.4.4.4.4.4.4.2.2.2.4.3.3.3.2.2.2.2.2.2.2.3.2.2.4.2.4.2.2.2.2.3.3.3.2.2.3.3.2.2.2.2.2.2.3.3.4.4.2.2.3.3.3.3.4.2.2.2.2.2.2.2.2.4.4.4.4.4.u.w.8 + 8 w 0 0 K K U w +   > y j / ` ' } [ [ ' } [ ' ' ' ' ' ' ` ' ` ` ` ` ` ` F _ J @ $ r.4X1X,X6X3X^ , a.0.+.+.#.#.+.+.+.#.#.#.#.+.+.+.+.+.w + 5 T P L U Y , . g.mXMXmXmXMXAXHXPXPXKXKXPXPXPXPXPXPXPXPXPXPXPXPXPXPXPXPXPXPXPXPXPXPXPXPXPXPXPXPXPXPXPXPXPXPXPXPXPXPXPXPXPXPXPXPXPXPXPXPXPXPXPXPXPXPX",
"PXPXPXPXPXPXPXPXPXPXPXPXPXPXPXPXPXPXPXPXPXPXPXPXPXPXPXPXPXPXPXPXPXPXPXPXPXPXPXKXPXPXPXPXPXPXPXPXPXPXPXPXPXPXPXPXPXPXPXPXPXJXdXX 0 3XuXuXgX6.$ 9.a.,.*.,.,.,.,.,.*.,.,.,.,.,.,.,.*.*.O.* * w Y Y Y I ,   $ v v x x x x s j s a s i c D D F c.c.c.z.z.z.M.B.v.M.;.6   0 5XeXeX>Xt.r.*., + 5 W #.>.>.>.2.2.2.2.3.2.2.2.2.3.2.2.2.2.2.2.2.2.2.2.>.>.>.>.>.2.>.2.2.2.>.2.2.2.2.2.2.>.>.>.>.2.2.2.2.2.2.2.2.2.2.>.>.2.2.>.>.>.>.>.2.>.>.>.>.>.>.>.2.2.>.>.2.2.2.>.>.>.>.2.>.2.>.>.>.>.>.>.>.>.>.>.2.2.2.2.2.2.2.2.2.2.2.>.>.2.>.>.>.:.>.>.>.>.>.>.2.>.>.>.>.2.2.:.:.2.>.2.2.2.>.>.>.:.:.:.:.:.:.:.:.:.:.:.:.2.2.>.=.2.:.:.:.:.:.:.:.:.:.:.:.:.:.>.>.2.2.>.>.2.>.>.2.>.>.2.2.2.2.2.2.2.2.2.2.2.2.<.2.2.=.=.:.1.0 + 4 q 0 h H L w +   , y j / ` ] ' [ ' ' ' ' ' ' ' ' ' ' ' ` ` ` ` ` ` ` F _ J + @ r.1X1X,X6X3X~ , a.0.#.#.#.#.+.+.#.$.$.#.#.#.+.#.+.+.w + 5 T P L U Y , . g.mXMXmXmXMXAXHXPXPXKXKXPXPXPXPXPXPXPXPXPXPXPXPXPXPXPXPXPXPXPXPXPXPXPXPXPXPXPXPXPXPXPXPXPXPXPXPXPXPXPXPXPXPXPXPXPXPXPXPXPXPXPXPXPXPX",
"PXPXPXPXPXPXPXPXPXPXPXPXPXPXPXPXPXPXPXPXPXPXPXPXPXPXPXPXPXPXPXPXPXPXPXPXPXPXPXPXPXPXPXPXPXPXPXPXPXPXPXPXPXPXPXPXPXPXPXPXPXGXdXX 0 <XuXuXgX6.$ 9.a.,.*.,.,.,.,.,.*.,.,.,.,.,.,.,.:.*.O.= & w U Y Y Y :   $ v v x J x s s s s s s i c C C F } c.c.z.z.z.M.B.B.B.;.6   0 8XeXeX$Xt.*.8 @ 9 $.>.>.3.2.3.3.3.2.2.3.2.2.2.2.3.2.2.2.>.>.>.2.>.>.2.>.>.>.>.>.>.>.>.>.>.>.>.>.>.>.>.>.>.>.>.2.>.>.>.>.>.>.>.>.>.>.>.>.>.>.>.>.>.>.>.>.>.>.>.>.2.2.>.>.>.>.>.2.2.2.2.2.2.2.>.2.2.2.>.>.>.>.>.>.2.>.>.>.>.>.>.>.>.2.>.>.>.>.:.:.2.>.>.>.>.>.>.>.>.>.>.>.>.>.>.>.>.>.>.>.>.>.>.>.>.>.>.>.>.:.>.>.:.:.:.>.>.>.>.>.>.>.>.>.>.>.>.>.>.>.>.2.2.:.2.2.:.:.2.2.1.2.2.>.2.>.2.2.>.2.2.2.2.>.>.>.>.>.2.2.3.2.2.3.3.2.2.2.>.:.q @ 4 0 0 K h w +   , y j ) ` ] { } ' ' { ' ' ' ` ` ` ` ' ` ` ] ` ` ` F F D J O $ r.1X1X,X1X3X~ : a.0.+.#.#.#.+.#.#.$.$.$.$.#.+.#.+.+.w + , T L L U Y , . g.mXMXmXmXBXAXHXPXPXKXKXKXPXPXPXPXPXPXPXPXPXPXPXPXPXPXPXPXPXPXPXPXPXPXPXPXPXPXPXPXPXPXPXPXPXPXPXPXPXPXPXPXPXPXPXPXPXPXPXPXPXPXPXPXPX",
"PXPXPXPXPXPXPXPXPXPXPXPXPXPXPXPXPXPXPXPXPXPXPXPXPXPXPXPXPXPXPXPXPXPXPXPXPXPXPXPXPXPXPXPXPXPXPXPXPXPXPXPXPXPXPXPXPXPXPXPXPXJXdXX 0 >XuXuXgX6.@ 5.i.1.*.,.,.,.,.,.$.*.,.,.,.,.,.,.,.*.O.= & w I Y Y I :   $ v v x x d s s s s g j i k C C ` [ c.c.z.v.z.M.B.B.M.;.6   0 8XeX6X#X,.< & q &.3.4.2.3.2.3.>.2.2.2.,.,.,.,.,.,.,.,.,.>.:.:.>.,.,.,.:.:.:.>.,.,.,.,.,.:.>.,.,.>.>.,.,.,.>.>.1.>.>.>.>.,.>.>.>.>.>.>.>.>.>.>.>.>.,.,.>.>.>.>.,.,.,.,.>.>.,.,.,.,.,.,.,.,.,.,.,.,.,.,.,.,.:.:.,.,.,.,.:.:.:.:.:.:.:.>.>.>.>.:.>.>.,.>.,.:.,.,.>.>.:.:.:.:.>.,.:.:.:.:.:.>.>.,.,.,.>.>.>.>.>.>.>.>.>.>.:.:.,.:.:.:.:.:.:.:.:.:.,.,.,.,.:.:.:.:.,.:.:.,.1.1.1.1.:.>.,.:.,.1.,.>.>.2.1.1.1.,.>.,.,.>.>.>.,.,.>.2.2.>.3.6.q @ * 0 K L K +   > y j ) ] ] ' ' ' ' { { ' ' ] ` ` ` ` ` ` ] ` ` D F F D J O $ r.1X1X1X1X3XT : 9.0.+.$.#.#.+.#.#.$.$.$.$.%.+.#.+.+.w X , T L L L Y 4 . g.mXMXmXmXBXAXHXPXPXKXKXKXPXPXPXPXPXPXPXPXPXPXPXPXPXPXPXPXPXPXPXPXPXPXPXPXPXPXPXPXPXPXPXPXPXPXPXPXPXPXPXPXPXPXPXPXPXPXPXPXPXPXPXPXPX",
"PXPXPXPXPXPXPXPXPXPXPXPXPXPXPXPXPXPXPXPXPXPXPXPXPXPXPXPXPXPXPXPXPXPXPXPXPXPXPXPXPXPXPXPXPXPXPXPXPXPXPXPXPXPXPXPXPXPXPXPXPXJXdXX 0 <XuXrXgX6.@ 0.i.1.,.,.,.,.,.,.*.*.,.,.,.,.,.,.*.*.O.= & w Y Y Y Y :   $ v v x x s s s s s g j i k ( C ` } v.v.v.v.z.M.B.v.M.;.6   0 5XeX8X9.> : q *.6.3.3.2.2.>.3.3.>.>.1.1.1.,.,.,.,.:.:.:.,.:.:.:.:.*.:.:.:.:.,.,.,.,.,.,.,.:.,.,.,.,.,.,.,.,.,.,.:.:.:.:.,.:.:.,.:.:.:.:.:.:.:.:.:.,.,.,.:.,.,.,.,.,.,.:.:.,.,.,.,.:.,.,.,.,.,.,.:.:.:.:.,.:.:.,.,.,.,.:.:.:.:.:.:.:.:.:.:.:.:.:.:.,.,.,.,.,.,.,.:.:.:.:.:.,.,.,.,.,.:.,.,.:.:.:.,.,.,.,.,.,.,.,.:.:.:.$.*.*.$.,.,.,.,.,.,.,.,.,.,.,.,.,.:.*.*.*.$.*.*.*.*.,.,.*.*.*.$.$.$.*.*.$.$.*.*.*.*.$.$.$.$.$.$.$.$.$.:.:.#.#.*.*.w @ * q U K +   , y j _ { ] ] ' ' ' { { { ] ] ] ` ` ` ` ` ] ` _ D F F _ J O $ r.1X,X1X1X3XT : 9.0.+.#.#.#.#.#.#.$.$.$.$.%.+.#.+.+.w X , T L L U Y = . g.mXMXmXmXBXAXHXPXPXKXKXKXPXPXPXPXPXPXPXPXPXPXPXPXPXPXPXPXPXPXPXPXPXPXPXPXPXPXPXPXPXPXPXPXPXPXPXPXPXPXPXPXPXPXPXPXPXPXPXPXPXPXPXPXPX",
"PXPXPXPXPXPXPXPXPXPXPXPXPXPXPXPXPXPXPXPXPXPXPXPXPXPXPXPXPXPXPXPXPXPXPXPXPXPXPXPXPXPXPXPXPXPXPXPXPXPXPXPXPXPXPXPXPXPXPXPXPXJXdXX 0 <XuXuXgX6.@ 0.i.1.,.,.,.,.6.,.*.*.,.,.,.,.,.,.*.*.O.= & w Y Y Y Y ,   $ v v x x s s s s s g j i k / C ` } v.v.v.v.z.M.B.z.M.{ 6   0 8X9X].5 * w $.#.#.Q o.X.X.o.#.#.=.o.#.#.o.o.#.#.o.o.o.o.o.o.o.o.#.+.#.#.#.#.#.#.#.#.#.#.#.#.#.#...o.......#.#.o.............o.o.....o.o.o.o.o.#.#.#.#.#.#.#.#.#.#.#.#.#.#.#.#.#.#.#...+.+.+...........................W W P P W W W W W P W W W ..W W Q Q W ..W W ............o.o.o.#.#.#.#.#.#.#.+.+.+.+...+.+.+.+...................W W W W ..............W W T ..W T W W W W W W W W W ..@.T T T T T T T T T T T T T U P P P T Y L L ~ w # * q I +   , y j ) ] ] ] ' ' ' { { ' ] ] ] ` ] ] ` ` ] ` _ D F F _ J O $ r.6X,X1X1X3XT : 9.0.+.#.#.#.$.$.$.$.$.$.$.%.#.#.+.+.w X , T L L U Y = . g.mXMXmXmXBXAXHXPXPXKXKXKXPXPXPXPXPXPXPXPXPXPXPXPXPXPXPXPXPXPXPXPXPXPXPXPXPXPXPXPXPXPXPXPXPXPXPXPXPXPXPXPXPXPXPXPXPXPXPXPXPXPXPXPXPX",
"PXPXPXPXPXPXPXPXPXPXPXPXPXPXPXPXPXPXPXPXPXPXPXPXPXPXPXPXPXPXPXPXPXPXPXPXPXPXPXPXPXPXPXPXPXPXPXPXPXPXPXPXPXPXPXPXPXPXPXPXPXJXdXX 0 >XuXuXgX6.$ 9.d.1.$.,.,.,.,.,.*.,.,.,.,.,.,.,.*.*.O.= & w T T T Y :   * h h g s s s s g g g s i z C ` F [ c.c.v.v.c.M.M.z.M.} 5   0 fX#X6 * L Q W W P P P U P P P P P P P P P P P P P T T T U U U U Y Y Y Y I U U U U U U L L U U U U I U I U U P U U U U U U U K K K U U U U U I I I U U U U U U U U U U U U U U U U K K K K K K K K K U U U U U U U T T P P T T U T T T T T T P P P T T P P U U U U U U U U U U U U U U U U T I U T Y Y Y T T Y Y T U U U Y Y Y Y Y Y ! ! ! ~ ! ! ! ! ! ! Y ! ! ! Y Y Y Y Y Y Y ! ! ! Y Y Y Y Y Y Y Y Y Y Y Y Y Y Y ! ! Y Y I I Y K I I K K Y w $ # e # o < a j _ ] ] ] { [ ' ' ' ' ' ' ] ` ] ] ` ( ` ` ` F F F ` J @ @ r.4X,X,X1X2X@.* a.0.+.#.#.+.#.$.$.$.#.$.#.#.*.#.+.+.r X , T P L U Y 4 . g.mXMXmXBXBXCXHXKXPXPXPXPXPXPXPXPXPXPXPXPXPXPXPXPXPXPXPXPXPXPXPXPXPXPXPXPXPXPXPXPXPXPXPXPXPXPXPXPXPXPXPXPXPXPXPXPXPXPXPXPXPXPXPXPXPX",
"PXPXPXPXPXPXPXPXPXPXPXPXPXPXPXPXPXPXPXPXPXPXPXPXPXPXPXPXPXPXPXPXPXPXPXPXPXPXPXPXPXPXPXPXPXPXPXPXPXPXPXPXPXPXPXPXPXPXPXPXPXJXdXX 0 >XuXuXgX6.$ 5.d.1.$.,.,.,.,.,.*.*.,.,.,.,.,.,.*.*.O.= & w T T T Y :   * h h g s s s s s s s s i k C ` F [ c.c.z.z.c.M.M.z.M.} 6 o 0 @X0 , I W P L L P P P T T W W W W T W W W ........W W W W W W W T T T T T T T T T T W W W T T T T T T T P P T T P P P P T T T T T T W W T T T T T T T T U P P T P T T W ..W T T P T T T T U U P P T P P P P P P U U U K K K K U U U I K K L L L L U K K U P P P P P P P P P P P P P W W W T T T T @.@.T T T T T @.T T T T T Y T T I Y Y Y Y Y I I K K K K I K K I Y I I I I I Y Y Y Y Y I I I I Y K Y Y Y I I I I I I Y Y Y Y Y Y Y K K K K U q * X   o < a s _ ` ] ] ] ' ' ' ' ' ' ' ] ] ] ] ` ` ` ` ` F F F ` J @ @ r.4X,X,X,X2XT * a.0.+.#.+.+.#.$.$.$.#.#.$.#.#.#.+.+.r X , T P L U Y 4 . g.mXMXmXBXBXCXHXHXPXPXPXPXPXPXPXPXPXPXPXPXPXPXPXPXPXPXPXPXPXPXPXPXPXPXPXPXPXPXPXPXPXPXPXPXPXPXPXPXPXPXPXPXPXPXPXPXPXPXPXPXPXPXPXPXPX",
"PXPXPXPXPXPXPXPXPXPXPXPXPXPXPXPXPXPXPXPXPXPXPXPXPXPXPXPXPXPXPXPXPXPXPXPXPXPXPXPXPXPXPXPXPXPXPXPXPXPXPXPXPXPXPXPXPXPXPXPXKXJXdXX 0 >XuXuXgX6.@ 5.d.1.$.,.,.,.,.,.$.$.,.,.,.,.,.,.*.*.O.= & w U T T Y :   * l h s s s s s s s s s i k C F F ' M.z.v.v.c.M.M.z.M.} 1 o 3 4 3 w O.U K K K w w K K K K w K K w K w K K K K U U U U K K K K K K K K K K K K K K K K K K K K K K K K K K K K K K K K K K w K K K U U Y K K K K r K r w w K K w r K r K K w w w w w r w r w r K K r r r r r K r w w w w w w w K K r r w w w w w w w w w K K K K K K K w K K w w K K K K w w w w w w w w r w w w w w w q q q 0 w w w w w w q q 0 0 0 0 0 w w 0 q 0 0 w w q q q q w w q q q q w w w w w w w w w q q q w w K I I I r K K K K K I q &     , 6 s ) ` ` ] ] ' ' ] ' ' ' ' ' ] ] ] ` ` ` ` ` F F F ` J @ @ r.4X,X,X,X>XT * a.0.+.#.+.+.#.$.$.$.#.#.#.#.#.#.+.+.r X , T P L U Y 4 . g.mXmXmXBXBXCXHXKXPXPXPXPXPXPXPXPXPXPXPXPXPXPXPXPXPXPXPXPXPXPXPXPXPXPXPXPXPXPXPXPXPXPXPXPXPXPXPXPXPXPXPXPXPXPXPXPXPXPXPXPXPXPXPXPXPX",
"PXPXPXPXPXPXPXPXPXPXPXPXPXPXPXPXPXPXPXPXPXPXPXPXPXPXPXPXPXPXPXPXPXPXPXPXPXPXPXPXPXPXPXPXPXPXPXPXPXPXPXPXPXPXPXPXPXPXPXPXKXFXdXX 0 >XzXuXgX6.@ 5.i.1.:.,.,.:.,.:.$.$.$.,.,.,.,.,.$.*.O.* & w U T T I :   $ l h s s d s s s s s s i k C A F F M.c.v.v.c.M.M.z.M.} 1   . . = 4 , * * * & * * * * * * * * & & & * * = * = * * * * * * * * * * * * = * * * * * * * * * * * * * * * * * * = * * * * * * * * * * * * * * = = = * * * * * * * = = = * * = * * * * * * * * * * * * = = * * * * * * * * * * * * * * * * * * * * * * * * * * * * * * * * * * * * * * * = * * = = = = * * * * * * * * * * * * * * * * & & & & & & & & & & & & * & & & & & * * * & & & & & # * * * * * * * * * * * * * * * * * = = = = 4 , 4 4 = 4 4 %     5 6 g ) ` ] ] ' ' ' ' ` ' ' ' ' ' ] ` ` ` ` F ` A F F ` J @ @ r.1X,X1X,X>XT * a.0.....+.+.#.$.$.$.#.#.#.#.+.+.+.+.r X 5 T L L U Y 4 . g.nXmXmXBXBXAXHXPXKXKXPXPXPXPXPXPXPXPXPXPXPXPXPXPXPXPXPXPXPXPXPXPXPXPXPXPXPXPXPXPXPXPXPXPXPXPXPXPXPXPXPXPXPXPXPXPXPXPXPXPXPXPXPXPXPX",
"PXPXPXPXPXPXPXPXPXPXPXPXPXPXPXPXPXPXPXPXPXPXPXPXPXPXPXPXPXPXPXPXPXPXPXPXPXPXPXPXPXPXPXPXPXPXPXPXPXPXPXPXPXPXPXPXPXPXPXPXKXGXdX+ 0 >XzXlXgX6.@ 6.s.1.:.,.*.$.$.$.$.$.$.*.,.,.,.,.$.*.O.* & r U T T I :   $ h s s s s g s s s s s i k C C F F c.c.z.v.c.M.M.B.M.;.6   . . X                                                                                                                                                                                                                                                                                                                       X X         o o o o o + + + + + + + + # # # O + + + + + + o o o o o o o o o                         . . X                   o 5 6 g _ ] ] ] ' ' ' ' ' ' ' ' ' ] ] ` ` ` ` ` ` A A A _ J @ @ r.1X,X,X,X>XY * a.0.....+.+.#.#.#.#.$.$.$.+.+.+.+.+.r X 5 T L L U I 4 . g.mXMXmXmXBXAXHXPXPXKXPXPXPXPXPXPXPXPXPXPXPXPXPXPXPXPXPXPXPXPXPXPXPXPXPXPXPXPXPXPXPXPXPXPXPXPXPXPXPXPXPXPXPXPXPXPXPXPXPXPXPXPXPXPXPX",
"PXPXPXPXPXPXPXPXPXPXPXPXPXPXPXPXPXPXPXPXPXPXPXPXPXPXPXPXPXPXPXPXPXPXPXPXPXPXPXPXPXPXPXPXPXPXPXPXPXPXPXPXPXPXPXPXPXPXPXPXKXGXdX+ 0 >XrXlXgX6.@ 6.f.1.:.,.,.,.,.,.$.*.$.*.,.,.,.,.$.*.O.* & r U T T I :   $ h a s s s g s s s s s i k C A F F l.c.z.z.c.M.M.z.M.;.0   + 0 < < 6 < < < < < , , > > > > , < > > > > > > > > > > > > > > > > > > > < < > > > > < > > > > < < < < < > > > > > > > > > > > > > > > > > : : - : : > > > > > > > > > : : > > > > > > > > > > > > , , , > > > > : > > > > > > > > > > > > > , : : > > > > > > > - : > > > > > : : : > > > > > - - - - > > > - > - > > > > > > > > > < < < < < < < < < < < 6 6 < < < < < < < < < < < < < < < < < < < < < > > > > - - - - - - - - - - - - @ @ - - - $   o 5 6 g _ ] ] ] ' ' ' ' ' ' ' ] ] ] ] ] ` ` ` ` ` A A A _ J @ @ r.1X,X1X,X>XT : a.0.+.....+.+.+.#.#.$.#.$.+.+.+.+.+.r X 5 T L L U I 4 . g.mXMXmXmXBXAXHXPXPXKXKXPXPXPXPXPXPXPXPXPXPXPXPXPXPXPXPXPXPXPXPXPXPXPXPXPXPXPXPXPXPXPXPXPXPXPXPXPXPXPXPXPXPXPXPXPXPXPXPXPXPXPXPXPXPX",
"PXPXPXPXPXPXPXPXPXPXPXPXPXPXPXPXPXPXPXPXPXPXPXPXPXPXPXPXPXPXPXPXPXPXPXPXPXPXPXPXPXPXPXPXPXPXPXPXPXPXPXPXPXPXPXPXPXPXPXPXKXGXdX+ 0 >XlXlXgX6.@ 6.f.1.:.,.,.,.,.,.,.,.*.,.$.$.$.,.*.*.O.* & w U T Y Y ,   $ h a s s s g s s s s s s k C A F F l.c.c.c.c.M.l.l.B.} 6 o 6  X<.x h g g g g g g g h h h h g g g g g g g g g g h g h h h h h g g g g g g g g g g g g g g g g g g g j g g g l g g g g g g g g g g g g g g g y y g l l g g g g g l g g g g g g g g g g g g g g g g g g g s s s s g s g g g g g g g g g g g g 1 y l l g g g g g g g g g g g g g g g g g g g g g g g g g g g g g s s g g g g g g g g j j j j j j j j j j j j j j i i i p j j j i p p p p p p j j j j j i i g g g j s s s s s s s s s s a a h h s g 0 o o < 6 g _ ` ` ] ' ' ' ' ' ' ' ` ` ] ` ` ` ` ` ` ` A A A _ J @ @ r.1X,X1X,X>XT * a.0.+.....+.#.#.#.#.$.$.$.#.+.+.+.+.r X 5 T L L U I 4 . g.mXMXmXmXBXSXHXPXPXKXKXPXPXPXPXPXPXPXPXPXPXPXPXPXPXPXPXPXPXPXPXPXPXPXPXPXPXPXPXPXPXPXPXPXPXPXPXPXPXPXPXPXPXPXPXPXPXPXPXPXPXPXPXPXPX",
"PXPXPXPXPXPXPXPXPXPXPXPXPXPXPXPXPXPXPXPXPXPXPXPXPXPXPXPXPXPXPXPXPXPXPXPXPXPXPXPXPXPXPXPXPXPXPXPXPXPXPXPXPXPXPXPXPXPXPXPXHXFXsX# q >XuXrX9X1.+ &.s.1.*.,.*.,.,.*.*.,.,.,.*.*.*.,.$.$.O.* & w U Y T Y :   $ h s s s g g s s s s s i k / ` ` ` [ c.l.l.c.N.N.B.B.} 6   0  XA.k j g g l g l l l g g g g j j j j j j j j z j l l l l g g l j j j j j j j z z j j j j j j j x v v v z j j j j j x j j j j j j j j j j j g s a g l l j j j j j j j j j j j j j j j j j j j j j j j j j j j j j j j g g g s s g s g g y h 1 y x j j j j j j j j j j j j j j j j j j j j j j j j j j j j j j j j j j j j j j g i g j j j j j j j j j j j j j j j j j j j j j k k k k k k j k k k k j p j j j j j p p j j j j j j j g g s d s s s a O o 5 y g / ] ` ] ' ' ] ` ' ' ' ` ` ' ` ` ` ` ` A F C ` G F J @ $ r.4X,X,X1X3XY * a.9.+...+.+.#.#.#.#.$.$.#.#.+.+.+.+.w + , T L L U Y , . g.mXMXMXmXBXAXHXPXKXHXKXKXPXPXPXPXPXPXPXPXPXPXPXPXPXPXPXPXPXPXPXPXPXPXPXPXPXPXPXPXPXPXPXPXPXPXPXPXPXPXPXPXPXPXPXPXPXPXPXPXPXPXPXPXPX",
"PXPXPXPXPXPXPXPXPXPXPXPXPXPXPXPXPXPXPXPXPXPXPXPXPXPXPXPXPXPXPXPXPXPXPXPXPXPXPXPXPXPXPXPXPXPXPXPXPXPXPXPXPXPXPXPXPXPXPXKXHXFXsXX 0 >XuXrX9X1.+ 5.f.,.,.,.*.*.*.*.*.,.,.$.,.,.,.,.$.$.O.* & w U Y T Y :   $ h s s s g g s s s s s i k C ( ( F [ c.z.z.c.N.M.z.M.} 6 o 0 oXU.] _ _ _ _ _ _ _ _ _ S ) ) ) _ ) _ _ _ _ _ _ _ _ D _ _ _ _ _ _ _ _ _ ) S S ) _ S S S ) ) ) ) ) ) ) ) S ) ) ) / V / V V V V V V V / V V V b g y b b z z V V V V V V z z V V V V V V V b z z c b b b b z c c c z z z z z z z c z z j j s y j / / ) S S V V V V V V V V V V V V V V V V V V V V b V V V b b c z b b z z z z z b b b c c c b V V V c c c c b V V V V V V V V V V V V M m M M m m m m m m c c k k k k k k j j j j z c j j j k k j x h O o 5 y g / ' ] ] ] ] ' ' ' ' ` ` ` ] ` ` ] ] ` C D C ` G F J @ $ r.4X,X,X,X>XY * a.9.+...+.+.#.$.#.#.+.+.#.#.+.+...+.w + , T P P U Y = . g.mXMXMXmXBXAXHXPXKXKXKXKXPXPXPXPXPXPXPXPXPXPXPXPXPXPXPXPXPXPXPXPXPXPXPXPXPXPXPXPXPXPXPXPXPXPXPXPXPXPXPXPXPXPXPXPXPXPXPXPXPXPXPXPXPX",
"PXPXPXPXPXPXPXPXPXPXPXPXPXPXPXPXPXPXPXPXPXPXPXPXPXPXPXPXPXPXPXPXPXPXPXPXPXPXPXPXPXPXPXPXPXPXPXPXPXPXPXPXPXPXPXPXPXPXPXKXKXFXaXX 0 >XuXrX9X1.+ 5.f.1.*.,.*.*.,.*.$.*.*.*.,.,.,.,.$.*.O.* & w U Y T Y :   $ h s s s g g s s s s s i k _ C ` F [ c.c.c.c.M.l.M.M.;.0 o 0 oXU.M.A.c.c.c.} c.c.c.;.} } } } } } } } } } } } } c.c.c.c.c.n.} <.} } } } } } } } { { } } } } } } } } } } } } } } { } { { { { { } { } | } { ] b g ] | } { } } { { { { { { { { { { { ] ] ] ` ` ` ` ` ` ` ` ` ` ` ` _ ` ` ` _ _ ` _ _ ) j j ) ] { { { [ [ [ [ [ ] { { { { { { { { { { { { { ] ] ] ] { { { ` _ ` ` _ _ _ _ _ _ _ _ _ ` ` ` ` ( ` ` ` _ _ _ ( ` { ] ] ] ] ` ] ] ] ] ] ] ] ] ] ] ] ] ] ] ` ` ` ` ( C C C C / / / / _ ) ) _ _ _ ` _ _ _ J O O 5 a j ) ] ] ] ] ' ' ' ' ' ` ' ` ` ` ` ` ] ` C F C ` G F J + $ r.4X,X,X,X3XY * a.0.+.+.+.#.$.#.#.+.+.+.+.+.#.+.+.+.w + , T L P U Y , . h.mXMXMXmXBXAXHXPXPXKXKXKXPXPXPXPXPXPXPXPXPXPXPXPXPXPXPXPXPXPXPXPXPXPXPXPXPXPXPXPXPXPXPXPXPXPXPXPXPXPXPXPXPXPXPXPXPXPXPXPXPXPXPXPXPX",
"PXPXPXPXPXPXPXPXPXPXPXPXPXPXPXPXPXPXPXPXPXPXPXPXPXPXPXPXPXPXPXPXPXPXPXPXPXPXPXPXPXPXPXPXPXPXPXPXPXPXPXPXPXPXPXPXPXPXPXPXKXFX*XX 0 >XuXrX9X6.+ 5.f.1.*.,.*.*.,.,.*.*.,.,.,.,.,.*.$.*.O.* & w U T T Y ,   $ h h s s g g s s s s s i k _ F ` ` ' l.l.l.[ [ [ l.A.;.0 o 0 oX(.M.n.M.v.v.c.c.c.v.c.c.c.c.c.c.c.c.c.c.c.c.c.c.c.c.c.c.c.n.c.v.v.c.v.c.c.c.c.c.c.c.c.v.v.M.v.c.l.l.l.l.c.c.c.c.c.c.c.c.c.c.c.v.v.} } } [ ` c j } } } c.c.c.c.c.c.c.c.c.c.c.c.c.} [ } [ ' ' ' ' ' ' ' ' ' ' ` ` ` ' ' ' ` ] ] F C j c _ { { c.[ c.[ l.l.[ [ c.c.x.x.} } } } } } } } } } [ ' ' ' ' ' ' ` A A ' A F F ` ( ( ( ( ` ( ( ` ( ( ( ` ( ( ( ( ( ` } ' [ ' ' [ ' ' [ ' ' ' ' [ ' ' ' ' ' } [ [ ' ] A C C C A C ( C ( { { { { [ ' ' ' { ] R O o 6 a j _ ] ] ] ] ' ' ' ' ' ' ] ] ` ` ` ] ` ` C F F ( Z F J @ @ r.4X,X,X,X3XY * a.0.+.+.#.+.%.$.+.+.+.#.+.+.#.+.+.+.w + , T L L L I , . g.mXmXmXmXmXAXHXPXPXKXKXKXPXPXPXPXPXPXPXPXPXPXPXPXPXPXPXPXPXPXPXPXPXPXPXPXPXPXPXPXPXPXPXPXPXPXPXPXPXPXPXPXPXPXPXPXPXPXPXPXPXPXPXPXPX",
"PXPXPXPXPXPXPXPXPXPXPXPXPXPXPXPXPXPXPXPXPXPXPXPXPXPXPXPXPXPXPXPXPXPXPXPXPXPXPXPXPXPXPXPXPXPXPXPXPXPXPXPXPXPXPXPXPXPXPXPXKXFX*XX 0 >XuXrX9X6.# 5.s.6.*.,.,.*.,.,.,.,.,.,.,.,.,.*.*.*.O.* & w U T T Y ,   $ h h g s s g g s s s s i k D F F ' ` ' ' ' ` F F l.A.| 6 o 0 oX(.B.n.M.M.M.M.c.c.M.M.M.v.z.v.M.M.M.M.B.z.z.c.l.c.c.M.c.c.c.c.v.v.v.v.v.v.c.c.c.c.c.c.v.c.z.z.l.l.l.l.l.c.c.c.c.v.c.c.c.c.c.c.v.c.c.c.c.[ F k z c.c.c.c.c.c.c.c.c.c.c.l.c.c.l.l.k.k.k.[ ' ' ' ' ' ' ' ' ' ' ' ' ' ' ' ' ` ` ` V p V { { } c.k.c.l.l.l.l.c.k.c.c.c.c.c.x.c.c.c.c.c.x.x.x.k.[ [ } ' ' ' ' A G ( A G ' ( ( ( A A ( ( A ( ` ` ` ` ( A ( A A ' } [ [ [ c.c.[ [ [ [ [ [ ' [ [ [ ' [ [ [ [ [ ' ` A C A C A A A C A ' ' ' } [ [ [ ' ] ] E - o 5 a j _ ' ' ' ' ' ' ' ' ' ' ] ] ` ` ` ` ` ` A F ` A Z F R @ @ r.4X,X,X,X>XY * a.0.+.+.#.+.#.$.+.+.+.#.#.+.#.+.+.+.w + , T L L L Y * . g.mXmXmXmXmXAXHXPXPXHXKXKXPXPXPXPXPXPXPXPXPXPXPXPXPXPXPXPXPXPXPXPXPXPXPXPXPXPXPXPXPXPXPXPXPXPXPXPXPXPXPXPXPXPXPXPXPXPXPXPXPXPXPXPXPX",
"PXPXPXPXPXPXPXPXPXPXPXPXPXPXPXPXPXPXPXPXPXPXPXPXPXPXPXPXPXPXPXPXPXPXPXPXPXPXPXPXPXPXPXPXPXPXPXPXPXPXPXPXPXPXPXPXPXPXPXPXKXGX*XX 0 >XuXeX9X1.& 5.s.6.*.,.,.,.,.*.,.,.,.,.,.,.,.,.*.*.O.* & w U Y T Y ,   $ h s s s s s s s s s s i k _ F ` ' ' ' G ' ` F F c.A.| 6 o 6 oX(.B.n.A.v.M.v.v.v.v.v.v.v.v.v.A.A.M.B.B.M.M.z.c.c.c.c.c.v.c.v.v.v.v.v.v.v.c.c.c.c.c.c.v.v.v.c.c.c.c.c.l.l.l.l.c.c.c.c.c.c.c.c.c.c.c.c.l.[ D p V M.} [ [ l.c.c.l.c.l.l.l.k.l.l.k.' k.' ' ' ' ' ' ` ` ` ` ` ` ` ' ' ' ' ' ] _ M k M ] ` } [ c.} c.x.c.c.c.c.c.x.l.l.l.k.k.k.c.k.k.k.[ [ [ ' ' [ [ ' ' ` ` ( ` ` ` ` ` A ` ` F A F A A ` ` ` ` ` F A A A A ' [ [ [ [ c.l.[ [ [ [ [ [ [ [ [ [ [ [ [ [ [ [ ' A C C A Z A A A A A ' ' ' [ [ [ } ' ] ` E - o 6 a j _ ' ' ' ' ' ' ' ' ' { ] ] ` ` ` ` ` ` F ` C A Z F R @ @ r.4X,X,X,X3XT : a.0.+.+.+.+.+.#.+.+.+.#.#.+.#.+.+.+.w + , T P P U Y * . g.nXmXmXmXmXAXHXPXPXHXKXKXPXPXPXPXPXPXPXPXPXPXPXPXPXPXPXPXPXPXPXPXPXPXPXPXPXPXPXPXPXPXPXPXPXPXPXPXPXPXPXPXPXPXPXPXPXPXPXPXPXPXPXPXPX",
"PXPXPXPXPXPXPXPXPXPXPXPXPXPXPXPXPXPXPXPXPXPXPXPXPXPXPXPXPXPXPXPXPXPXPXPXPXPXPXPXPXPXPXPXPXPXPXPXPXPXPXPXPXPXPXPXPXPXPXPXKXGX*XX 0 >XuX6X9X1.+ 5.s.6.*.*.*.,.,.*.,.,.,.,.,.,.,.,.*.$.O.* & w I Y T Y ,   $ h s a s g g s s s s s i k _ F ` ' ' ' ( ' F D ' c.A.| 6 o 6 oX(.B.n.n.v.v.v.v.v.n.v.v.v.v.v.A.n.M.M.M.M.M.M.v.z.c.c.v.v.v.v.v.v.v.M.v.c.c.v.v.v.c.v.M.M.c.c.c.c.c.c.c.c.c.c.c.} } } c.} c.c.c.c.c.l.[ ' D p ) M.;.[ [ l.[ l.[ l.c.l.[ [ [ [ [ ' ' G ' [ ' ' ` ` ` ` ` ' ' ' ` ` ` ` ] ` M p ) _ ` [ l.k.x.c.} c.} c.c.c.c.} [ [ [ [ [ [ c.[ [ [ [ [ [ [ [ [ ' ' ` ` ` ` ` ` ` ` ( A ` ` F F F A F ` ` ` ` ` ` A A A A ' [ } [ [ [ [ [ [ [ [ [ [ [ [ [ ' ' [ [ [ [ ' ' A C A A C C C C Z A ' ' ' ' [ [ } ' ] ` J O O 6 a j _ ] ] ' ' ' ' ' { { { { ] ` ` ` ` ` ` ` ` C A Z F R @ @ r.4X,X,X1X3XT : a.9.+.+.+.+.+.+.+.+.+.#.#.+.#.+.+.@.w X , T P P U Y * . g.nXmXmXmXmXAXHXPXPXKXKXKXPXPXPXPXPXPXPXPXPXPXPXPXPXPXPXPXPXPXPXPXPXPXPXPXPXPXPXPXPXPXPXPXPXPXPXPXPXPXPXPXPXPXPXPXPXPXPXPXPXPXPXPXPX",
"PXPXPXPXPXPXPXPXPXPXPXPXPXPXPXPXPXPXPXPXPXPXPXPXPXPXPXPXPXPXPXPXPXPXPXPXPXPXPXPXPXPXPXPXPXPXPXPXPXPXPXPXPXPXPXPXPXPXPXPXPXGXh.X 9 >XeX6X9X7.@ 5.f.6.*.,.*.,.,.*.*.*.,.,.,.$.,.,.*.*.O.* $ w I Y Y Y 4   $ h a a s g g s s s s s i k D F F F F G G ' F F G l.c.] 0   6 $X(.B.A.M.c.c.c.c.v.v.c.c.c.z.c.c.M.A.A.M.M.M.v.v.v.v.c.c.c.c.c.v.v.v.v.v.v.c.c.c.c.c.c.c.c.c.c.c.c.c.c.c.c.c.c.c.c.c.[ [ [ c.c.c.c.l.l.[ ] C i | c.c.c.l.l.l.l.l.l.l.l.l.l.l.[ [ [ [ ' ' ' ] ] ` ` ` ] ] ` ' ' ' ' ' { ] m k C ] [ [ c.c.k.c.l.l.c.c.c.c.c.c.c.x.x.} c.x.c.c.[ [ [ ' ' [ ' ' ' ' ' ` ` ` ` ` ` ` ` ` ` ` ` ` ` ` ` ` ` ` ` ` F A A ` ( ( ' x.x.x.x.} } } } x.' [ } } ' ' ' } } c.c.[ ' ` C C C C C C C C C ` } ' ' ' ' [ [ ' ] ` J + X 1 a g _ ] ] ' { ] ' { { { { ' ] ] ` ` ` ` ` ` ` A A A D J + @ r.4X,X,X,X>XT & 9.0.+...+.+.+.+.+.+.#.#.#.+.#.+.+.+.w + , Y L L U I , . h.mXmXmXmXmXCXHXKXKXKXPXPXPXPXPXPXPXPXPXPXPXPXPXPXPXPXPXPXPXPXPXPXPXPXPXPXPXPXPXPXPXPXPXPXPXPXPXPXPXPXPXPXPXPXPXPXPXPXPXPXPXPXPXPXPX",
"PXPXPXPXPXPXPXPXPXPXPXPXPXPXPXPXPXPXPXPXPXPXPXPXPXPXPXPXPXPXPXPXPXPXPXPXPXPXPXPXPXPXPXPXPXPXPXPXPXPXPXPXPXPXPXPXPXPXPXPXPXGXh.X 0 -XeX1X9X7.@ 5.f.6.,.,.,.,.,.*.*.*.,.,.*.$.,.,.*.*.O.* & w U Y Y Y :   $ h h s s s s s s g g s i k D F A A F F G ' F F l.l.c.] 9   6 $X(.B.A.M.M.M.v.v.v.v.M.c.c.c.c.z.M.A.M.M.M.v.v.v.c.v.v.v.v.c.c.v.v.v.v.v.v.v.c.c.c.c.c.c.c.c.c.c.c.v.v.c.c.c.c.c.c.c.c.c.c.c.c.c.c.l.[ [ ] M p <.c.c.c.l.l.l.l.l.l.l.l.l.c.c.[ [ [ [ ' ' ' ` ` ' ` ' ' ' ` ' ' ' ' ' ' D k C { ' } [ c.c.l.k.c.c.c.c.c.l.c.c.c.c.c.c.c.x.} c.[ [ [ [ [ [ [ ' ' ' ` ` ` ` ( ( ( ( ` ( ( A A ( ( ( ( A A A A A A A ` ` ( ` [ c.x.x.} } } } } x.} } } } [ [ } } c.c.x.' ' ` C C C C C C C C C ` } [ ' ' ' ' [ ' ] ` J + + 1 a g _ ] ] ] ] ] ] ' ' ] ' ] ] ] ] ` ` ` ` ` ` A A A D J + @ r.1X,X,X1X>XT : 9.0.+...+.+.+.#.#.+.#.#.#.#.+.+.+.+.w + , Y L L U Y 4 X h.mXmXmXmXmXCXHXKXKXKXPXPXPXPXPXPXPXPXPXPXPXPXPXPXPXPXPXPXPXPXPXPXPXPXPXPXPXPXPXPXPXPXPXPXPXPXPXPXPXPXPXPXPXPXPXPXPXPXPXPXPXPXPXPXPX",
"PXPXPXPXPXPXPXPXPXPXPXPXPXPXPXPXPXPXPXPXPXPXPXPXPXPXPXPXPXPXPXPXPXPXPXPXPXPXPXPXPXPXPXPXPXPXPXPXPXPXPXPXPXPXPXPXJXPXPXPXKXGXh.X 0 -X6X1X6X3.@ &.f.6.*.,.,.,.,.*.*.*.,.,.$.$.,.,.*.*.O.* & r U Y Y I :   $ h h s g s s g g s s s i k F F A A A A A F F F M.l.c.] 6 o 6 $X(.B.A.M.v.M.M.v.A.A.B.M.M.M.M.M.M.M.M.M.M.v.v.v.v.v.v.c.v.v.v.c.v.v.c.c.v.v.v.v.v.v.v.v.v.v.v.c.v.v.v.v.v.v.v.v.v.v.c.c.v.v.c.c.c.l.[ [ ` m k <.c.c.c.l.l.l.l.l.l.l.c.c.l.l.l.c.[ [ ' ' ' ' ' ' k.[ [ ' ` ' } } } } ] ` C ] [ ' } [ c.c.l.c.c.c.c.c.c.c.c.c.c.c.c.c.c.c.c.c.[ [ [ c.c.[ ' ' ' ' ` ( ( ( ( ` ` ` ' ' ' ' ' ' ' ' ' ( ( ( ( ( ` ' ( A A ' } x.c.c.c.x.x.} } x.} } [ } } } } } [ [ ' ' ] C C A C C C C C C A ] } } [ [ [ ' [ ' ] ` J + + 1 a g _ ] ] [ ] ] ] ' ] ] ] ] ] ] ] ] ` ` ` ` ` ` A A D J + @ r.1X,X1X1X3X~ : 9.0.+.W +.+.+.#.#.#.#.#.+.+.+.+.+.+.w + , Y L L L I , X h.mXmXmXmXmXNXHXKXKXKXPXPXPXPXPXPXPXPXPXPXPXPXPXPXPXPXPXPXPXPXPXPXPXPXPXPXPXPXPXPXPXPXPXPXPXPXPXPXPXPXPXPXPXPXPXPXPXPXPXPXPXPXPXPXPX",
"PXPXPXPXPXPXPXPXPXPXPXPXPXPXPXPXPXPXPXPXPXPXPXPXPXPXPXPXPXPXPXPXPXPXPXPXPXPXPXPXPXPXPXPXPXPXPXPXPXPXPXPXPXPXPXPXPXPXPXKXJXDXg.X q -X9X,X4X3.& 5.d.6.*.,.,.,.,.*.,.,.,.,.*.*.,.,.*.*.~ * & r T T T I :   # h h g g s g g g h s s i k C F F F F A A A F G M.l.c.] 6 o 6 $XY.B.A.v.v.S.S.B.S.S.S.B.v.v.v.v.S.v.v.v.n.m.m.m.v.v.v.c.v.v.v.c.v.v.v.c.c.c.v.v.v.v.c.v.v.v.v.c.c.v.v.v.v.v.v.v.v.v.v.v.v.v.c.c.c.l.[ [ D m B A.c.c.c.c.c.c.c.l.l.c.c.c.c.[ l.c.[ [ [ ' ' ' ' k.x.k.' ' ' [ ' } [ } ] ] ] ' ' } ' [ c.c.c.c.c.v.c.c.c.c.c.c.c.c.c.c.c.c.c.c.[ [ c.c.c.[ ' ' ' ' ` ( ` ( ( ` ' ` ' ' ' ' ' ' ' ' ' ' ' ' ' ' ' ' ` ( ( ' } x.c.c.c.x.x.} } } } } [ } [ [ } } [ [ ' ' ` C C C C C C C C C A ` ' ' [ [ ' ' [ ' ] ` J + + 1 a g _ [ ' ' ] ] ] ] ' ] ] ] ] ] ] ` ` ` ` ` ` ` A A D v + @ r.4X,X,X1X2XT : 9.9...W +.+.+.#.#.+.#.#.+.+.+.+.+.+.w + , Y L L L I , X h.mXmXmXmXmXBXGXKXKXKXPXPXPXPXPXPXPXPXPXPXPXPXPXPXPXPXPXPXPXPXPXPXPXPXPXPXPXPXPXPXPXPXPXPXPXPXPXPXPXPXPXPXPXPXPXPXPXPXPXPXPXPXPXPXPX",
"PXPXPXPXPXPXPXPXPXPXPXPXPXPXPXPXPXPXPXPXPXPXPXPXPXPXPXPXPXPXPXPXPXPXPXPXPXPXPXPXPXPXPXPXPXPXPXPXPXPXPXPXPXKXKXKXPXKXKXJXFXmXO.  # *.#X3X8X3.@ &.d.6.*.,.,.,.,.,.,.,.,.,.*.,.,.,.*.*.O.* & r T U U I :   # h h g g s g g g s s s s k D F ' G F G F A F [ M.l.c.| 6 o 6 $XY.B.A.v.v.v.S.S.S.S.v.v.v.v.v.m.S.m.v.v.n.n.n.v.v.v.v.v.v.c.c.v.v.v.v.v.c.c.c.c.c.v.v.v.v.v.v.c.c.v.v.v.v.v.v.v.v.v.v.v.v.c.c.c.v.l.[ ] D k C n.c.c.c.c.c.c.c.c.c.c.c.c.c.} k.c.k.k.[ ' ' ' ' k.' ' ' ' ' ' [ [ [ [ ] ] ` [ [ } ' [ [ [ c.c.c.c.c.c.c.c.c.c.c.c.c.c.c.} } } k.c.c.c.c.[ ' ' [ ' ' ' ' ' ( ' ' A ( ( ( ( ( ( ( ( ( ' ' ' ' ' ' ' ' ( ' ' x.x.x.c.x.x.} } [ } [ } x.x.k.[ } } [ [ x.' ( C C C C A A C A C A ` ' ' ' [ ' ' [ ' ] ` J + + 1 a g _ ' ' ' ] ] ] ] ] ] ] ] ` ] ] ` A ` ` A ` ` A A D v + @ i.4X,X,X1X2XT : a.9...W +.+.+.#.+.+.#.+.+.#.+.#.+.+.w + , I L L K Y : X a.nXmXmXmXnXmXDXHXKXKXPXPXPXPXPXPXPXPXPXPXPXPXPXPXPXPXPXPXPXPXPXPXPXPXPXPXPXPXPXPXPXPXPXPXPXPXPXPXPXPXPXPXPXPXPXPXPXPXPXPXPXPXPXPXPX",
"PXPXPXPXPXPXPXPXPXPXPXPXPXPXPXPXPXPXPXPXPXPXPXPXPXPXPXPXPXPXPXPXPXPXPXPXPXPXPXPXPXPXPXPXPXPXPXPXPXPXPXPXPXKXKXKXKXDXAXnXaX8 X % = 5 6 Q |.6.& &.f.6.*.,.,.*.*.,.,.,.,.,.,.,.,.,.*.*.O.* & r T U Y I :   # h h g g s g h s s s s s k D ` ` F F G F F ` [ l.l.c.] 6 o 6 $XY.B.n.v.v.v.v.m.S.S.v.v.m.m.m.m.m.m.v.v.v.v.m.v.v.v.v.v.v.v.v.v.v.v.v.v.v.v.v.v.v.v.v.v.v.v.v.c.c.v.v.v.v.v.v.v.v.v.v.v.v.v.c.c.c.l.[ ] S p ` n.c.c.c.v.v.c.c.c.c.c.c.c.c.x.c.l.k.[ [ [ ' ' ' ' ' ' ' [ [ ' ' [ [ [ ] ] ' [ [ } } [ l.c.c.c.c.c.c.c.c.c.c.c.c.c.c.c.c.c.c.} c.c.c.c.k.[ [ [ ' ' ' ' ' ' ' ' ' ( ' ' ` ` ` ` ` ` ` ' ' ' ' ' ' ' ' ( ' [ x.x.x.} x.x.} [ ' } [ x.x.x.k.[ } } [ [ x.' A C C C A A A C C C ` ' ' ' ' ' [ [ [ [ [ ` J + + 1 a g _ ' ' ' { { ] ] ] ] ` ` ` ` ` ` A ` ` A ` ` A A D v + @ i.4X,X,X1X>XT : a.9.W W +.+.+.#.+.+.#.#.+.#.+.#.+.+.r + , I L L L Y ,   r hXvXnXnXnXnXBXDXGXKXKXPXPXPXPXPXPXPXPXPXPXPXPXPXPXPXPXPXPXPXPXPXPXPXPXPXPXPXPXPXPXPXPXPXPXPXPXPXPXPXPXPXPXPXPXPXPXPXPXPXPXPXPXPXPX",
"PXPXPXPXPXPXPXPXPXPXPXPXPXPXPXPXPXPXPXPXPXPXPXPXPXPXPXPXPXPXPXPXPXPXPXPXPXPXPXPXPXPXPXPXPXPXPXPXPXPXPXPXPXHXGXFXBXkXh.e X & * q &.*.K : 8 9 & 5.f.7.*.,.,.*.*.,.,.,.,.,.,.,.,.,.*.*.O.* & w T Y Y Y :   # h h g g s s h s a s s s k D ` ` F A A F ` ' c.l.l.} | 6 o 0 $XY.B.n.v.v.v.m.S.S.B.v.m.S.m.m.m.m.m.v.v.v.m.m.v.v.v.v.v.v.v.v.v.c.c.v.v.v.v.m.m.m.v.v.v.v.v.v.c.v.v.v.v.v.v.v.v.v.v.v.v.v.v.c.c.c.l.[ ` V p ' n.c.c.c.v.v.c.c.c.c.c.c.c.c.c.c.k.k.[ [ [ ' ' ' ' ' [ [ [ [ ' ' [ [ [ ' ' ' [ [ [ } [ c.c.k.k.c.c.c.c.c.c.c.c.c.c.c.c.c.c.c.} c.c.c.k.[ [ [ [ ' ' ' ' ' ' ' ' ' ( ' ' ` ` ` ` ` ` ` ` ` ` ` ` ` ` ' ( ' } c.c.x.[ } } } [ [ [ x.x.x.x.} [ } } } [ [ ` A ( C C ` A A C A C ` ' ' ' ' ' [ [ ' [ [ ` J + + < a g ) { ' ' ' ' ' ' ] ` ] ` ` ` ` ` ` ` ` F ` ` A A D J + @ r.4X,X,X,X>XT : a.9...W +.+.+.#.#.#.#.#.#.+.+.+...+.r + , Y I L U w &   X % e a.hXkXnXnXnXnXAXDXJXPXPXPXPXPXPXPXPXPXPXPXPXPXPXPXPXPXPXPXPXPXPXPXPXPXPXPXPXPXPXPXPXPXPXPXPXPXPXPXPXPXPXPXPXPXPXPXPXPXPXPXPXPX",
"PXPXPXPXPXPXPXPXPXPXPXPXPXPXPXPXPXPXPXPXPXPXPXPXPXPXPXPXPXPXPXPXPXPXPXPXPXPXPXPXPXPXPXPXPXPXPXPXPXKXKXHXHXAXnXdXy.= X + : 0 #.w.w.e.8.U * # # &.d.6.*.,.,.*.*.,.,.$.*.$.$.*.*.,.*.*.O.* * w T Y Y Y *   # h h g g a s s s s s s s k C A A A A A A F [ v.c.[ [ ] 6 o 0 $XY.B.A.A.v.v.S.S.S.v.v.v.v.v.n.v.v.n.m.m.n.m.n.v.z.z.z.v.v.m.v.c.c.c.c.c.c.c.v.v.v.c.c.c.v.v.v.v.v.v.v.v.n.v.v.n.n.n.v.v.v.v.c.c.c.[ [ ` M k } c.c.c.c.c.c.c.c.c.c.c.c.c.c.c.l.[ [ ' ' ' ' ' ' ' ' ' ' ' ' ' ' [ ' ' [ [ ' ' ' [ [ l.c.c.c.l.c.c.c.c.c.c.c.c.c.c.} } c.c.c.c.c.c.[ ' ' ' [ ' ' ' ' ' ' ' ( ( ( ( ( ( ' ' ' ' ' ' ' ' ' ' ' ' ' ( ( ( ' } c.x.} [ } } } [ } } } } } } } } } ' ' ' ] ( C C C C C F C C C C ` ' ' } } } [ [ [ [ ' { J O O 6 a j ) { ] ' [ ' ' ] ] ] ] ` ` ` ` F F F F F F F F F D J O @ r.1X,X,X,X3XY * a.r.+.W +.+.+.#.#.#.+.#.#.#.+.#.+.+.r + 5 Y Y Y 0 *     & X X X * r a.dXkXvXnXnXSXFXHXKXPXPXPXPXPXPXPXPXPXPXPXPXPXPXPXPXPXPXPXPXPXPXPXPXPXPXPXPXPXPXPXPXPXPXPXPXPXPXPXPXPXPXPXPXPXPXPXPXPXPX",
"PXPXPXPXPXPXPXPXPXPXPXPXPXPXPXPXPXPXPXPXPXPXPXPXPXPXPXPXPXPXPXPXPXPXPXPXPXPXPXPXPXPXPXPXPXPXPXPXPXKXKXHXCX;XO.= % + : 0 #.w.4.4.4.4.e.4.#.0 & &.d.6.*.,.,.*.,.,.*.$.,.,.$.*.,.,.*.*.O.* & w I Y Y Y :   # h h s s a s s s s s s s k D A F A G G F F [ v.c.[ [ ] 6 o 0 $XY.B.v.v.v.S.S.v.v.v.v.v.v.v.v.v.v.m.m.m.n.n.v.v.v.z.v.v.v.v.m.v.c.c.c.c.c.c.v.v.v.c.c.m.v.v.v.v.v.v.v.v.n.n.n.v.v.v.c.c.c.c.c.c.c.l.[ ` m m } c.c.c.c.c.c.c.c.c.c.c.c.c.c.c.[ [ ' ' ' ' ' ' ' ' ( ` ' ' ' ' ' [ [ } ' [ ' [ [ [ [ l.c.c.c.c.c.c.c.c.c.c.c.c.c.} } } } } } c.c.c.[ ' ' ' ' ' ' ' ( ( ' ' ( ( ( ' ` ` ' ' ' ' ' ' ' ' ' ' ' ' ' ( ( ( ' } } } } } x.x.} [ } } } } } } [ [ [ ' ' ' ` A C C C C C A C C C C ` ' ' } } ' ' [ [ ' ' ` J O o 6 a j ) ] ] ' ' ' ] ] ] ] ] ] ` ` ` F F F F F F F F F D J + @ r.4X,X,X,X3XY : a.9...W +.+.#.#.#.#.+.+.+.#.+.+...+.r % 8 Y r 8 @ + * 8 q 0 8 * + X X 8 r y.dXkXmXCXDXJXKXPXPXPXPXPXPXPXPXPXPXPXPXPXPXPXPXPXPXPXPXPXPXPXPXPXPXPXPXPXPXPXPXPXPXPXPXPXPXPXPXPXPXPXPXPXPXPXPXPX",
"PXPXPXPXPXPXPXPXPXPXPXPXPXPXPXPXPXPXPXPXPXPXPXPXPXPXPXPXPXPXPXPXPXPXPXPXPXPXPXPXPXPXPXPXPXPXPXPXPXKXKXGXhX8 . X 4 ! 6.7.w.4.4.4.4.4.4.e.p.*.5 *.f.6.*.,.*.*.,.,.$.$.,.,.$.*.,.,.*.&.O.* & w I Y Y I :   # h h s s a s g g s h s i k _ F F F G ' F F c.v.c.[ [ ] 6 o 0 $XY.B.v.v.m.S.S.v.v.m.v.z.v.v.v.v.c.n.m.m.v.v.c.v.c.c.v.c.c.v.m.n.n.n.v.v.v.v.v.v.n.c.m.n.v.v.v.v.v.v.v.v.v.n.n.v.v.v.c.c.c.c.c.c.c.l.[ D p V c.c.c.c.c.c.c.c.c.c.c.c.l.l.k.l.[ ' ' ' ' ' [ ' ' ] C ` ] ' ' ' [ [ [ } [ [ ' [ [ [ l.l.c.c.c.c.c.c.c.c.c.c.c.c.c.} } } } c.x.c.c.c.[ [ [ ' ' ( ( ' ( ( ( ' ' ( A ' ' ' ' ' ' ' ' ' ' ' ' ' ' ( ' ( ( A ' } [ [ x.x.x.x.} [ } } } } } [ [ [ [ ' ' ' ` C C C C C C A C C C C ` ' ' ' ' ' ' [ [ ' ' { J O o 6 a j ) ] ] ] ' ' ] ] ] ] ] ] ] ` ] ` F F F F F F F F D J @ @ r.4X,X,X,X3XY : 9.9...W +.+.#.#.#.#.+.+.+.#.+.+.+.+.r % 8 r 8 + + 8 q w K K K w 0 8 & + + + = 5.kXBXBXAXFXHXKXPXPXPXPXPXPXPXPXPXPXPXPXPXPXPXPXPXPXPXPXPXPXPXPXPXPXPXPXPXPXPXPXPXPXPXPXPXPXPXPXPXPXPXPXPXPXPX",
"PXPXPXPXPXPXPXPXPXPXPXPXPXPXPXPXPXPXPXPXPXPXPXPXPXPXPXPXPXPXPXPXPXPXPXPXPXPXPXPXPXPXPXPXPXPXPXPXPXKXKXHXsX= = 8 I r.t.e.4.4.4.P.e.e.e.'.[.i.h +.d.6.*.,.,.,.,.,.$.$.*.*.$.:.,.,.*.&.! * & w Y T Y Y ,   # h h s s a s d s s g s s k _ F A F F F F [ [ c.l.[ [ ` 6 o h $XY.B.A.v.m.S.v.v.v.v.n.v.n.v.v.v.v.v.v.c.c.c.c.v.c.c.c.v.v.n.n.n.n.n.v.v.v.v.n.n.n.n.n.n.v.v.v.v.c.c.c.c.v.v.v.v.v.v.c.c.v.c.c.c.c.[ F D p ` } c.c.c.c.c.c.c.c.c.c.c.[ l.l.l.[ ' ' ' ' [ ' ' ` ] V ] ] ' ' ' ' ' ' } ' ' [ [ [ c.c.c.c.c.c.c.c.c.c.c.c.c.c.c.x.} x.c.c.c.c.[ [ [ [ [ ' ' ' ( ' ' ' ' A ' ' ( ( ' ' ' ' ' ' ' ' ' ' ' ' ' ' ' ' ( ( ( [ } } } c.c.x.} x.x.x.x.} } } } } } } ' ' ` C C C C C C C C C A C A ] ] ' } [ ' ' ' ' ' ' { J O O 6 a j ) ] ] ' ' ' ] ] ] ] ' ` ` ` ` ` ` F F F F F F F D J @ @ r.4X,X,X,X-XY : a.8...W +.+.+.+.+.+.+.+.#.+.+.#.+.@.r + 4 8 + : 0 w K K U K U I I U I w 0 =   8 hXNXBXBXCXDXHXPXPXPXPXPXPXPXPXPXPXPXPXPXPXPXPXPXPXPXPXPXPXPXPXPXPXPXPXPXPXPXPXPXPXPXPXPXPXPXPXPXPXPXPXPXPXPX",
"PXPXPXPXPXPXPXPXPXPXPXPXPXPXPXPXPXPXPXPXPXPXPXPXPXPXPXPXPXPXPXPXPXPXPXPXPXPXPXPXPXPXPXPXPXPXPXPXPXKXHXGXsX= O.g.W W e.t.e.e.'.`.].[.f.8.1.+.0 T d.6.*.,.,.,.,.,.$.$.*.*.:.,.,.,.$.&.! * & w T Y Y Y ,   # h h s s a s j s g h s s k D F A F F F ` [ [ c.c.[ [ ` 6 O h $XY.B.A.v.m.B.v.v.v.v.n.n.n.v.v.v.v.v.v.v.c.c.v.v.c.c.c.v.v.n.n.n.n.n.n.n.n.n.n.n.n.n.n.n.v.v.v.v.c.c.c.c.c.c.c.v.v.v.c.c.v.c.c.c.c.' F C p ] } c.c.c.c.c.c.c.c.c.c.c.[ l.l.l.' ' ' ' ' ' [ ' ' ` V ' ' ' ' ' ' ' } } ' ' [ [ [ c.c.c.c.c.c.c.c.c.c.c.c.c.c.c.c.x.x.c.c.c.c.[ [ [ [ [ ' ' ' ( ' ' ' ( ( ' ' ( ( ' ' ' ' ' ' ' ' ' ' ' ' ' ' ' ' ( ( ( [ } [ } c.c.x.x.} x.x.x.} } } } } } } ' ' ` C C C C A C C C A A A ` ' ] ' ' ' ' ' ' ' ' ' { J O O 6 a j ) ] ] ' ' ' ] ] ] ] ' ` ` ` ` ` ` F F F F F F A D J @ @ r.4X,X,X,X-XY : a.0...W +.+.+.+.+.+.#.#.#.+...+.+.@.r + * & 4 q K K K L U K L U U L U Y ! r + = dXNXBXBXNXDXHXPXPXPXPXPXPXPXPXPXPXPXPXPXPXPXPXPXPXPXPXPXPXPXPXPXPXPXPXPXPXPXPXPXPXPXPXPXPXPXPXPXPXPXPXPXPXPX",
"PXPXPXPXPXPXPXPXPXPXPXPXPXPXPXPXPXPXPXPXPXPXPXPXPXPXPXPXPXPXPXPXPXPXPXPXPXPXPXPXPXPXPXPXPXPXPXPXPXKXKXGXsX= %.5X2Xq.Q q.t.'.p.i.1.T q 8 * + : ..d.6.*.*.*.*.*.,.*.$.*.,.,.,.*.*.$.&.! * & w I I Y Y :   # a h s s a s j g h s s s k _ F F ` F F ] [ } c.c.[ ;.] 6 o h $XY.B.n.v.S.v.v.v.v.v.n.n.v.v.n.v.v.c.z.z.v.v.z.z.v.v.v.c.c.v.v.n.n.n.n.n.n.n.n.n.n.n.n.n.v.v.v.v.v.v.v.c.v.v.v.v.v.v.v.v.v.c.c.c.c.G F m k ] } c.k.k.k.c.c.c.c.c.c.c.[ l.l.l.[ ' ' ' ' ' [ ' [ A C ' [ ' ' ' [ } } } ' ' [ [ c.c.c.c.c.c.c.c.c.c.c.c.c.c.c.c.c.c.c.c.c.c.c.} [ [ [ [ ' ' ` ( ' ' ' ( ' ' ' ( ( ' ' ' ' ' ' ' ' ' ' ' ' ' ' ' ' ( ' ' } [ [ } x.c.c.c.x.x.x.x.c.c.} } } } [ ' ' ( C C C C A A C C C C A ` ' ] ' ' ' ' [ [ ' ' ` ` J - O < y j ) ] ] ' ' ' ] ] ` ] ] ] ` ` ` ` ` ` ` F F F A Z D J @ @ r.4X,X,X,X-XY * a.0...W +.+.+.+.+.+.#.#.#.#.+.+.+.@.r + & 8 r K K U U K K K K L L U U Y ~ I + 4 hXNXBXNXNXAXGXKXPXPXPXPXPXPXPXPXPXPXPXPXPXPXPXPXPXPXPXPXPXPXPXPXPXPXPXPXPXPXPXPXPXPXPXPXPXPXPXPXPXPXPXPXPXPX",
"PXPXPXPXPXPXPXPXPXPXPXPXPXPXPXPXPXPXPXPXPXPXPXPXPXPXPXPXPXPXPXPXPXPXPXPXPXPXPXPXPXPXPXPXPXPXPXPXPXKXKXGXsX, +.3X3X3X].h w K 0 8 : @ * 8 r %.6.i.0.*.*.,.*.*.*.,.*.$.$.*.,.*.$.*.$.*.O.* & w I I Y I :   # h h s s a s g g g s s s k _ F F F F F [ } [ c.c.l.} ] 6 o 0 $XY.z.n.A.S.v.v.v.z.v.v.v.v.n.n.v.c.z.z.z.z.z.z.c.c.c.c.c.c.v.v.v.v.v.v.v.v.v.v.v.v.v.v.v.v.c.c.v.v.v.c.c.c.v.v.v.v.v.v.v.c.c.c.l.l.' F m m { c.c.l.l.c.c.c.c.c.c.c.c.k.x.c.k.' ' ' ' ' ' ' ' } C A ' [ ' ' ' } } } } ' ' [ [ c.c.c.c.c.c.c.c.c.c.c.c.c.c.} c.c.c.c.x.x.c.x.k.[ [ [ [ ' ' ( ( ' ' ' ( ' ' ' ( ( ' ' ' ' ' ' ' ' ' ' ' ' ' ' ' ' ( ( ' } ' ' } c.c.c.c.x.} x.x.c.} } } } [ ' ' ` A C A C C C A C A C C C ` ] ' ' ' ' ' [ [ ' ' ` ` J O o 6 y j _ ] ] ] ` ` ] ` ` ] ] ] ` ` ` ` ` ` ` ` F F A Z D J @ @ r.4X,X,X,X>XY * a.0...W +.+.+.+.+.#.#.#.#.+.+.+.+.@.r + + * 8 9 q K U Y U U U L L U U T ~ I + = hXVXBXBXBXAXGXPXPXPXPXPXPXPXPXPXPXPXPXPXPXPXPXPXPXPXPXPXPXPXPXPXPXPXPXPXPXPXPXPXPXPXPXPXPXPXPXPXPXPXPXPXPXPX",
"PXPXPXPXPXPXPXPXPXPXPXPXPXPXPXPXPXPXPXPXPXPXPXPXPXPXPXPXPXPXPXPXPXPXPXPXPXPXPXPXPXPXPXPXPXPXPXPXPXPXKXJXsX4 ..>X>X8X2X@.X X & 4 0 I *.0.d.8.6.,.*.*.*.*.*.*.,.*.*.$.$.$.,.*.$.,.$.$.~ * & w Y Y T I ,   + h h s s a s s g d s s s k D F F F A F [ l.[ [ l.k.c.{ 6 o 0 $XY.v.n.m.A.v.v.v.v.v.z.B.v.n.n.c.c.z.z.z.c.c.c.c.c.c.c.c.c.v.v.v.v.v.v.c.c.c.v.v.v.c.c.c.c.c.l.c.v.v.v.v.v.v.v.v.v.v.v.v.c.c.c.[ ' ' F k M { c.v.c.c.c.c.c.c.x.c.c.c.c.x.x.[ ' ' ' ' ' ' ' ' ' N ` ' ' ' ' ' ' ' ' ' ' [ } } c.c.c.c.c.c.c.c.c.c.c.c.k.l.l.c.c.c.l.k.k.k.k.[ ' ' [ ' ' ( ' ( ' ' ' ( ( ( ( ( ( ' ' ' ' ' ' ' ' ' ' ' ' ' ' ( ( A ( [ } [ ' } x.} } x.} } } x.x.x.} } } ' ' ` ( C C C C C C A C A C C C ` ] [ ' ' ' ' } [ ' ` ] ` J O O 6 s j _ ` ` ] ] ] ` ` ` ] ] ` ` ( ` ` ` ` ` ( C C C A F J @ + r.4X,X1X,X3XY & 0.0...W W +.^ +.+.#.+.+.+.+...+.+.~ Y 4 * # + X + * 8 q r Y Y T K K K T ~ I   = dXVXNXNXNXAXHXPXPXPXPXPXPXPXPXPXPXPXPXPXPXPXPXPXPXPXPXPXPXPXPXPXPXPXPXPXPXPXPXPXPXPXPXPXPXPXPXPXPXPXPXPXPXPX",
"PXPXPXPXPXPXPXPXPXPXPXPXPXPXPXPXPXPXPXPXPXPXPXPXPXPXPXPXPXPXPXPXPXPXPXPXPXPXPXPXPXPXPXPXPXPXPXPXPXKXKXJXsX4 ..>X>X>X-X6.& e 5.a.d.i.8.1.,.$.*.*.$.$.*.*.*.*.*.*.$.$.$.$.$.$.$.,.$.$.~ * & w Y Y T I ,   + h a s s s s s g d s s s k C F A F A ' [ [ [ [ l.l.c.{ 6 o h $XY.B.n.v.v.v.v.v.v.v.z.v.v.n.n.v.v.z.z.z.c.l.l.c.v.v.v.c.c.c.c.v.c.c.c.c.c.c.c.c.c.c.c.c.c.c.c.c.v.v.v.v.v.v.v.v.v.v.c.c.c.c.c.c.' ' C k C } c.z.c.c.c.c.c.c.c.c.x.c.c.x.c.[ ' ' ' ' ' ' ' ' ' m ` ] ' ' ' ' ' ' ' ' ' [ } } c.c.c.c.c.c.c.c.c.c.c.c.c.c.c.c.c.c.c.c.l.k.k.[ ' ' [ ' ' ( ( ' ' ' ' ( ( ` ' ' ' ' ' ' ' ' ' ' ' ' ' ' ' ' ' ( ( ( ' [ x.x.[ } } } } x.x.} } } } } } } ' ' { ] C ( C C C C C C C A C C C ` ] ' ' ' ' ' } [ ' ' ] ` J O O 6 s j _ ] ] ` ` ` ] ] ] ` ` ` ` ` ` ` ` ` ` ( C V C A D J @ + r.4X,X1X,X2XY * a.0.W W W +.+.+.+.#.+.+.+.+...+.+.O.~ ! ! w 8 4 +     + 4 0 q w 8 U T T ~ I   = dXVXNXBXBXAXHXPXPXPXPXPXPXPXPXPXPXPXPXPXPXPXPXPXPXPXPXPXPXPXPXPXPXPXPXPXPXPXPXPXPXPXPXPXPXPXPXPXPXPXPXPXPXPX",
"PXPXPXPXPXPXPXPXPXPXPXPXPXPXPXPXPXPXPXPXPXPXPXPXPXPXPXPXPXPXPXPXPXPXPXPXPXPXPXPXPXPXPXPXPXPXPXPXPXKXKXFXaX= ..>X>X>X-X6.* 0.a.8.8.3.$.$.:.$.$.:.$.$.*.,.,.*.*.*.$.$.$.*.*.*.*.,.$.$.~ * * w Y Y T I ,   + h a a s s s s s d s s s j C F A F F [ c.[ [ [ l.l.c.{ 6 o h $XY.B.n.v.c.v.v.v.v.v.z.z.v.n.n.v.v.z.v.v.c.l.l.v.M.M.M.c.c.c.c.v.c.c.c.c.c.c.c.c.c.c.c.c.c.c.c.c.v.v.v.v.v.v.v.v.v.v.c.c.c.c.c.[ [ ` V p ` } v.c.l.l.c.c.c.c.c.x.x.x.c.x.x.' ' [ ' ' ' ' [ ' ` m ] ` ' ' ' ' ' ' [ [ ' [ } } c.c.c.c.c.c.c.c.c.c.c.c.c.c.c.c.c.c.c.c.c.k.[ [ ' ' [ ' ( ( ( ' ' ' ' ( ( ' ' ' ' ' ' ' ' ' ' ' ' ' ' ' ' ' ' ( ( ( ' [ x.x.} } ' } } x.x.} } } } } } } ' ' { ` C A C A C C C C C A C C ` ] ] ] ' ' ' ' } [ ' ` ] ` J O o 6 s j _ ] ] ` ` ` ' ' ] ` ` ` ` ` ` ` ` ` ` F C V C Z D J @ + r.,X,X,X,X2XY * 9.0...W W +.+.+.+.#.+.+.+.+...+.+.+.~ ~ @.Y @.! r q 4 +     + + w ~ T T ~ I   = dXAXNXNXNXAXHXPXPXPXPXPXPXPXPXPXPXPXPXPXPXPXPXPXPXPXPXPXPXPXPXPXPXPXPXPXPXPXPXPXPXPXPXPXPXPXPXPXPXPXPXPXPXPX",
"PXPXPXPXPXPXPXPXPXPXPXPXPXPXPXPXPXPXPXPXPXPXPXPXPXPXPXPXPXPXPXPXPXPXPXPXPXPXPXPXPXPXPXPXPXPXPXPXPXPXPXFX*X= +.>X>X>X#X*.4 6.6.,.:.$.$.$.$.$.$.$.$.$.*.*.*.*.*.*.$.$.,.,.,.,.,.,.$.$.~ * & w Y Y Y I ,   @ h h g g s g g g d d h s k A F F F ' c.c.[ [ [ l.l.c.{ 6 o h $XU.z.v.v.v.v.v.v.v.v.z.M.v.n.n.v.v.v.v.v.c.c.c.c.c.c.v.c.c.c.c.v.v.v.c.v.c.c.c.c.v.c.v.c.c.c.c.c.x.c.v.v.v.v.c.c.c.c.v.v.v.c.c.[ [ ` M p { c.c.c.l.l.c.c.c.c.c.x.x.x.[ [ x.[ ' ' F ' ' ' ' ] ` m ` ' ` ' ' ' ' [ } } [ [ [ } c.c.c.c.c.c.c.c.c.c.c.c.c.c.c.c.c.k.k.[ [ [ k.[ ' ' ' ' ' ( ' ' ' ' ( ( ' ' ' ' ' ' ' ' ' ' ' ' ' ' ' ' ' ' ' ` ` ` [ c.} [ } x.x.[ [ [ } x.x.x.x.x.} } } } [ F C C C A F C C C C C A F ` ] [ ] ' ' ' ' ' [ ' [ { ` R O o < s j _ ` ` ` ` ` ] ' ] ` ` ` ] ] ] ` ] ` ` ` C V C A D J @ + r.,X,X,X,X>XY * a.0.+.Q ..+.^ +.#.+.+.+.+.W W W +.+.W T @.@.T ~ +.%.! r 8 #     r ! P T ~ I o = dXAXNXNXBXAXJXPXPXPXPXPXPXPXPXPXPXPXPXPXPXPXPXPXPXPXPXPXPXPXPXPXPXPXPXPXPXPXPXPXPXPXPXPXPXPXPXPXPXPXPXPXPXPX",
"PXPXPXPXPXPXPXPXPXPXPXPXPXPXPXPXPXPXPXPXPXPXPXPXPXPXPXPXPXPXPXPXPXPXPXPXPXPXPXPXPXPXPXPXPXPXPXPXPXPXPXFXh.= +.>X>X>X#X*.* 5.1.,.#.$.,.,.:.:.$.$.$.*.*.*.*.*.*.*.$.$.,.,.,.,.*.,.$.$.~ * & r Y T T I ,   + h h h j d g g h s d h s k A F ` F ' c.c.[ [ [ l.l.c.] 6 o h $XY.z.n.v.v.v.v.v.v.v.z.z.v.m.n.v.v.v.v.v.v.v.v.c.c.c.v.v.c.c.c.c.c.c.c.c.c.c.c.c.v.c.c.c.c.c.c.c.c.c.v.v.v.v.c.c.c.c.v.v.v.v.c.[ ' _ m m { } c.l.l.l.c.c.c.c.c.x.} x.x.[ x.' ' ' ` ' ' ' ' ] C m ` ] ] ' ' ' ' ' [ c.} [ [ [ c.c.c.c.c.c.c.c.c.c.c.c.c.c.c.c.l.k.k.k.[ k.[ ' ' ' ' ( ( ( ( ' ' ' ( ( ' ' ' ' ' ' ' ' ' ' ' ' ' ' ' ' ' ' ' ( ( ' [ } [ [ x.} } } } } } c.x.x.c.c.} } } ' ] C C C C F ` ` A C C C C C ` ' ' ] ' ' ' ' ' ' ' [ { ` J O o < s j _ ` ] ] ` ` ] ' ] ` ` ` ] ] ] ` ` ` ` ` C V C A D J @ + r.,X,X,X,X>XY * a.0.+.Q ..+.+.+.+.+.+.+.+.^ W W +.W W T T W ..^ ~ ^ ^ T ! r = + I Y P T ~ I   = dXAXNXNXBXAXJXPXPXPXPXPXPXPXPXPXPXPXPXPXPXPXPXPXPXPXPXPXPXPXPXPXPXPXPXPXPXPXPXPXPXPXPXPXPXPXPXPXPXPXPXPXPXPX",
"PXPXPXPXPXPXPXPXPXPXPXPXPXPXPXPXPXPXPXPXPXPXPXPXPXPXPXPXPXPXPXPXPXPXPXPXPXPXPXPXPXPXPXPXPXPXPXPXPXPXPXFXh.= +.>X>X>X-X*.* &.,.,.*.*.*.,.*.:.*.$.*.*.*.*.*.$.#.#.$.$.,.,.,.,.*.,.$.$.O.* & r Y T T I ,   @ h h g j d g g g d d s s k A A ` F [ c.c.l.[ [ l.l.c.] 6 o h $XY.B.n.v.v.c.v.v.v.v.z.z.c.n.n.v.v.v.v.v.v.v.v.v.v.v.v.c.c.v.v.c.c.c.[ [ [ [ [ [ c.c.c.c.c.c.c.c.c.c.v.v.v.v.c.c.c.c.v.v.v.c.c.[ ' D k V } } c.l.l.l.c.c.c.c.c.c.x.x.x.} x.' ' [ ' ` ' ' ' ] V M ` ] ] ] ` ' ' ' [ c.c.c.[ c.c.c.c.c.c.c.c.c.c.c.c.c.c.c.c.c.l.[ k.k.k.k.[ ' ' ' ( ' ' ' ' ' ' ' ( ( ( ( ' ' ' ' ' ' ' ' ' ' ' ' ' ' ' ' ' ( ( ' } } [ [ } } } x.c.} } c.x.x.x.x.} [ ' ' ` C C C A C A ` ` F A A C ( ` ' ' ] { ' ' ' ' ' ' ] ] ) J O o 6 s j _ ] ] ] ] ` ] ' ] ` ` ` ] ] ] ` ` ` ` ` C V C A D J @ @ 9.,X,X,X,X2XY * a.0...Q ..+.+.+.+.+.#.#.+.+.+.+.........W W W ..W W W W O.! 8 X K T T T ~ I   = hXAXNXNXNXAXJXPXPXPXPXPXPXPXPXPXPXPXPXPXPXPXPXPXPXPXPXPXPXPXPXPXPXPXPXPXPXPXPXPXPXPXPXPXPXPXPXPXPXPXPXPXPXPX",
"PXPXPXPXPXPXPXPXPXPXPXPXPXPXPXPXPXPXPXPXPXPXPXPXPXPXPXPXPXPXPXPXPXPXPXPXPXPXPXPXPXPXPXPXPXPXPXPXPXKXPXFXh.4 +.3X>X>X-X*.* *.,.>.,.*.*.*.*.*.*.*.*.*.*.*.*.#.#.#.$.*.,.,.,.,.,.,.$.$.! * * r I T U I ,   # h h s s d g g g s s s s j D F F ' l.c.c.l.[ [ [ l.c.] 6 o h $XU.B.n.v.v.v.v.v.v.v.v.z.c.v.v.v.v.v.v.v.v.v.v.M.c.c.c.c.c.c.c.c.} c.[ ' ' ' ' ' [ c.c.c.c.c.c.c.c.c.c.v.v.c.c.c.c.v.v.c.c.c.l.' ' C p C c.c.c.c.l.l.c.c.c.c.c.c.x.x.x.x.[ ' ' [ ' ' ' ' ' ` m M ` ] ' ' ' ' ' ' } } x.c.c.c.c.c.c.c.c.c.c.c.x.x.k.c.c.c.c.c.l.[ [ k.k.[ [ [ ' ' ' ( ' ' ' ' ' ' ( ( ( ( ' ' ' ' ' ' ( ( ( ( ( ( ( ' ' ' ' ( ( ' x.x.[ [ [ } c.[ [ [ [ } c.c.x.} } ' ' ` A C C C A C C ` C C C C C ` ] ' ' ] { { { { [ [ ' ` ` _ J O o 6 a j _ ] ] ] ` ` ] ] ` ` ` ` ` ] ] ` ` ` ` ` C V C A C J @ @ 9.,X,X,X,X>XY : a.6.W W +.+.+.+.+.+.#.+.+.^ W W W ......+.T T +.W W W W @.O.8 + K T T W T I X = hXVXNXNXBXAXJXPXPXPXPXPXPXPXPXPXPXPXPXPXPXPXPXPXPXPXPXPXPXPXPXPXPXPXPXPXPXPXPXPXPXPXPXPXPXPXPXPXPXPXPXPXPXPX",
"PXPXPXPXPXPXPXPXPXPXPXPXPXPXPXPXPXPXPXPXPXPXPXPXPXPXPXPXPXPXPXPXPXPXPXPXPXPXPXPXPXPXPXPXPXPXPXPXPXPXPXFXh.4 +.>X>X>X-X*.: 6.,.>.,.,.*.*.*.*.*.*.*.*.,.*.*.*.*.*.,.,.*.$.$.$.$.*.*.$.Y * * r U U U I ,   # h h s s d g s g g s s s j D F F ' c.c.l.c.[ [ [ l.c.] 6 o h $XU.B.n.v.v.v.v.v.v.v.v.v.v.v.v.v.c.v.v.v.c.c.c.v.c.c.c.l.c.c.c.} ' ' ' ` ` ` ` ` ' [ c.z.l.c.c.c.c.c.c.v.v.c.c.c.c.c.c.c.c.l.[ ] { V p ` c.c.c.c.l.l.c.c.c.c.c.x.} x.x.[ ' [ ' ' ' ' ' [ ` ` m C ] ] ' [ ' ' ' ' } } x.x.c.c.c.c.c.c.c.c.c.l.k.k.k.[ l.c.c.c.l.k.[ k.k.' [ [ ' ' ' ( ' ' ' ' ' ' ( ( ( ` ' ' ' ' ' ' ( ( ( ( ( ( ( ' ( ' ( ( ( [ x.} } } [ } c.[ [ ' [ [ [ [ } } } ' ' A A C C C C A A C C C C C C ` ] ' ' ' ] ' ' ] ] ' ' ` ` _ J O o 6 y j _ ] ] ] ] ] ] ` ` ` ` ` ` ] ] ` ` ` ` ( C V C A C J @ + r.,X,X,X,X>XY : a.6.W W +.+.+.+.+.#.#.#.+.+.W W W +.+.+.....+.+.T +.W W @.O.8 X r ! T W W I X 4 hXVXBXNXBXNXJXPXPXPXPXPXPXPXPXPXPXPXPXPXPXPXPXPXPXPXPXPXPXPXPXPXPXPXPXPXPXPXPXPXPXPXPXPXPXPXPXPXPXPXPXPXPXPX",
"PXPXPXPXPXPXPXPXPXPXPXPXPXPXPXPXPXPXPXPXPXPXPXPXPXPXPXPXPXPXPXPXPXPXPXPXPXPXPXPXPXPXPXPXPXPXPXPXPXPXKXFXh.= +.>X>X>X-X*.: 6.,.>.,.,.*.*.*.*.,.,.,.,.,.,.,.,.,.,.*.,.$.$.$.$.$.*.$.$.O.* * w U U U I ,   # h a s s s j g s s s s d j _ F ` [ c.c.c.c.c.;.M.l.c.] 6 o h $XU.B.n.v.v.v.v.v.v.v.c.v.v.v.v.v.c.c.c.c.c.c.c.v.c.c.c.c.c.c.c.[ ' ` ` ` _ _ V V V C ] } c.c.c.v.c.c.c.v.v.v.c.v.c.c.c.c.l.l.' ] ` m k ' c.c.c.l.l.l.k.l.k.k.[ } x.x.} ' ' [ ' ' ' ' ' [ ` ` m D ] ' ' [ ' ' ' ' } } x.x.c.c.c.c.c.c.c.c.l.l.k.k.c.[ k.c.c.c.k.l.k.[ [ ' ' ' ' ' ' ' ' ' ' ' ' ( ' ' ' ' ' ' ' ' ' ' ( ( ` ' ( ( ( ( A ( ( ' ' [ [ } x.x.[ } } k.[ [ [ [ [ [ [ ' ' ' ` C A A A C C C A C C C C A C ` ' ' ' ' ] ] ' ` ] ` ` ` ` _ J O O 6 a j / ] ' ' ] ] ] ` ` ` ] ` ` ] ] ] ` ` ` ( C V C A C J @ + 8.4X,X,X,X>XY : a.6.W W +.+.+.+.+.#.+.+.+.+.+.+.+.+.+.+.....+.+.T W ..+.@.O.8 + r ! T T T I X 4 hXVXBXNXBXNXJXPXPXPXPXPXPXPXPXPXPXPXPXPXPXPXPXPXPXPXPXPXPXPXPXPXPXPXPXPXPXPXPXPXPXPXPXPXPXPXPXPXPXPXPXPXPXPX",
"PXPXPXPXPXPXPXPXPXPXPXPXPXPXPXPXPXPXPXPXPXPXPXPXPXPXPXPXPXPXPXPXPXPXPXPXPXPXPXPXPXPXPXPXPXPXPXPXPXPXPXFXh.= ..>X>X>X-X%.* 5.,.,.,.*.*.*.*.,.,.,.,.*.*.*.*.*.*.*.,.*.$.#.$.$.$.*.$.$.O.* * w U U U I ,   # h a a s s j j s s s s j j _ F ` } c.c.c.c.} [ c.l.c.] 6 o h oXU.B.A.v.v.v.v.v.v.v.v.v.v.v.v.v.v.c.c.c.v.c.v.v.c.c.c.c.c.c.l.G F ` _ V j u t t u u j _ { c.v.v.c.v.v.v.v.v.v.c.c.c.c.c.c.c.[ ] ` c k } c.c.l.[ c.c.c.c.c.c.c.} x.x.' ' ' [ ' ' ' ' ' [ ] C m ` ' ' ' ' ' ' ' } } } x.x.c.c.c.c.c.c.c.c.c.c.c.c.c.k.[ l.c.c.l.l.' ' [ ' ' ' ' ' ' ' ( ' ' ' ( ( ' ' ' ' ' ' ' ' ' ' ( A A ( ` A ( ( A ` ( ( [ [ } x.} } } } } l.[ [ [ ' [ [ ' ' ' ' ` C C A C C C C A C C C F ` C ` ' ' ' ] ' ' ' ` ` ` ` ` ` ) J O o 6 a j / ` ] ] ` ` ] ` ] ] ] ` ` ] ] ] ` ` ` ` C V C A C J @ + 8.4X,X,X,X>XY : a.6.W W +.+.+.+.+.#.+.+.+.W W ^ +.+.+.+.+.+.+.+.W T +.+.+.O.8 X w Y Y T T I   4 hXVXBXNXBXNXJXPXPXPXPXPXPXPXPXPXPXPXPXPXPXPXPXPXPXPXPXPXPXPXPXPXPXPXPXPXPXPXPXPXPXPXPXPXPXPXPXPXPXPXPXPXPXPX",
"PXPXPXPXPXPXPXPXPXPXPXPXPXPXPXPXPXPXPXPXPXPXPXPXPXPXPXPXPXPXPXPXPXPXPXPXPXPXPXPXPXPXPXPXPXPXPXPXPXPXPXFXh.= +.3X>X4X>X%.* &.,.:.$.$.*.*.,.,.,.,.,.*.,.*.*.*.*.*.,.$.$.$.$.$.$.*.$.%.O.* * w U U U I :   + h a s s s j g s s s s i j C F ` } c.c.c.c.} ;.M.k.} ` 6 O h oXU.B.n.A.v.c.v.v.M.v.v.v.v.c.c.v.v.c.c.c.v.c.v.v.c.c.c.c.c.l.' F F C c u i z V V z j u s _ } c.c.c.c.v.v.v.v.c.c.l.c.c.l.l.c.[ [ ` p M } c.c.c.c.c.c.c.c.c.c.c.x.x.} ' ' ' ' ' ' ' ' ' ' ` C m ] ' ' ' ' ' ' } c.} c.c.c.c.c.c.c.c.c.c.c.c.c.c.c.c.c.l.[ l.c.' k.' [ [ ' ' ' ' ' ' ' ' ' ' ` ` ` ( ( ' ' ' ' ' ' ' ( ( A A ' ` A ( A ' ' ( ' } [ } } } } } } [ [ [ [ [ [ [ [ ' ' ' ] C C C C C C C C C A C C ` ` C ] ] ' ] ] ] ' ` ` ] ' ' ` ` _ J - O 6 g j ) ] ] ` ` ] ] ] ' ] ` ` ` ] ] ` ` A ` A C V C C C J - @ r.,X,X,X,X>X! * a.6.W W +.+.+.+.+.#.+.+.^ W W W +.+.+.+.+.+.+.+.T W +...@.O.8 X w Y U P P w   8 hXVXNXNXBXNXJXPXPXPXPXPXPXPXPXPXPXPXPXPXPXPXPXPXPXPXPXPXPXPXPXPXPXPXPXPXPXPXPXPXPXPXPXPXPXPXPXPXPXPXPXPXPXPX",
"PXPXPXPXPXPXPXPXPXPXPXPXPXPXPXPXPXPXPXPXPXPXPXPXPXPXPXPXPXPXPXPXPXPXPXPXPXPXPXPXPXPXPXPXPXPXPXPXPXPXPXFXh.= +.3X>X,X>X%.* &.,.:.$.*.*.*.*.*.,.,.,.*.*.*.*.*.*.*.$.$.$.$.$.$.$.*.$.%.O.* * w U U U I :   # h a s s s j j s s s s s d C F ' c.c.c.c.c.} } c.l.c.` 6 O h oXU.B.n.A.v.z.v.v.n.v.v.v.v.c.c.c.c.c.c.c.v.c.v.v.M.c.c.c.l.l.' F C d u V V C C C _ _ b u d _ } c.c.c.v.v.v.c.c.c.c.c.c.c.l.l.[ ] ( i _ } c.c.c.c.c.c.c.c.c.c.c.x.x.[ ' ' ' } [ [ ' ' ' ' ` m m ' ' ' ' ' ' ' } c.} } x.x.x.c.c.x.x.c.c.c.c.c.c.c.c.k.[ k.l.l.' ' [ ' ' ' ' ' ' ' ' ' ' ' ' ' ' ' ' ' ' ' ' ' ' ' ' ` ` A A ` ` ( ` ( ( ( ( [ } [ [ [ } x.} [ } [ [ [ [ [ [ ' { { ' ` C C C ` A C A F ` ` ` ` C C C ] ` ] ] ' ' ] ` ` ] ' ' ` ` _ J - O 6 g j ) ` ] ] ] ] ] ] ] ] ] ` ` ] ` ` A C ( C V N V N D J - @ 8.,X,X,X,X>XY : a.6...W +.+.+.+.+.#.+.+.W W W W +.+.+.+.+.+.+.+.T W +.+.@.! 8 X w Y T T T w   8 hXVXNXNXBXNXGXPXPXPXPXPXPXPXPXPXPXPXPXPXPXPXPXPXPXPXPXPXPXPXPXPXPXPXPXPXPXPXPXPXPXPXPXPXPXPXPXPXPXPXPXPXPXPX",
"PXPXPXPXPXPXPXPXPXPXPXPXPXPXPXPXPXPXPXPXPXPXPXPXPXPXPXPXPXPXPXPXPXPXPXPXPXPXPXPXPXPXPXPXPXPXPXPXPXPXPXFXh.* +.3X>X4X2X*.* &.*.:.*.*.*.*.*.,.*.*.,.*.*.$.*.*.*.*.$.$.$.$.$.$.*.*.$.%.Y * * w U U U I :   # h a s s s s j s s s s s d C ` [ c.c.c.c.c.} } } c.c.] 6 O h oXU.B.n.v.v.v.v.v.v.z.c.v.v.c.c.v.v.c.c.c.c.c.v.v.c.c.c.l.l.' F C k d V _ ` A A A ( ( _ V p k { } c.c.v.v.v.c.c.c.c.c.c.c.l.[ ' ] M i ] } c.c.c.c.c.c.c.c.c.c.k.[ } [ ' ' ' } [ ' ' ' ' ' ` k m ' ' ' ' ` ` ' c.c.c.c.c.c.c.c.c.x.x.c.c.c.c.c.c.c.c.[ [ k.k.k.[ ' ' ' ' ' ' ' ' ' ' ' ' ( ( ' ( ( ( ( ' ' ' ' ' ' ` ( ` ( ` ` ` ` ` ( A A ( [ } ' [ [ } } } } } ' [ [ [ [ [ ' { { ] ` C C _ ( C C A A ` ` ` ` A C C ] ] ] ] ] ' ' ` ] ] ' ' ` ` _ J - O 6 g j ) ] ] ] ] ' ' ' ] ] ] ] ] ` ` ` ` ` ` A V M C N C v @ @ r.,X,X,X,X>XY : 9.6...W +.+.^ +.+.#.+.+.+.W W +.+.+.+.+.+.+.+.+.T ..+.W @.! 8 + r ! T T T w   8 hXVXNXNXBXNXGXPXPXPXPXPXPXPXPXPXPXPXPXPXPXPXPXPXPXPXPXPXPXPXPXPXPXPXPXPXPXPXPXPXPXPXPXPXPXPXPXPXPXPXPXPXPXPX",
"PXPXPXPXPXPXPXPXPXPXPXPXPXPXPXPXPXPXPXPXPXPXPXPXPXPXPXPXPXPXPXPXPXPXPXPXPXPXPXPXPXPXPXPXPXPXPXPXPXKXKXFXh.= +.3X,X1X2X*.* &.,.:.$.*.*.*.,.,.,.*.,.*.*.$.$.*.*.*.*.$.$.#.$.$.*.#.#.%.! * * w U U U K :   # h h s s s s s g s s s s j S ` [ c.c.c.c.c.} } c.} } ` 6 O h oXU.z.n.c.v.m.n.n.v.v.v.v.v.c.c.v.v.c.c.c.c.c.c.c.l.c.c.c.[ F F m p M ` ` ` F F A A F F F m i S } c.v.v.c.c.c.c.c.c.c.c.c.c.[ ' ] m p [ } c.k.l.c.c.c.c.x.x.c.x.[ [ [ [ ' ' ' ' ' ' ' ' ' _ k C ' ' ' ' ' ' } c.c.c.c.c.c.c.c.} } } c.c.c.c.c.c.c.k.[ [ k.l.k.k.[ ' [ ' ' ' ' ' ' ' ' ' ( A A ( ( A ( ' ` F ` ' ' ( ( A F A ` ` ` ` ( A ( ' } } } [ } } [ } } ' [ [ { { { { { ] ] ] C C F ` C C C C C ` ` ` F C C ` ' ' ' ` ` ` ' ' ] ] ] ` ` ` ` J O O < s j ) ] ] ] ] ' ] ] ` ] ] ` ] ` ` ` ` ` ` F V V C A C v @ + r.,X,X,X,X>XY , r.6.+.W +.+.^ W +.#.+.+.+.+.+.+.+.+.+.+.+.+.+.+.W W W T ~ ! 8 + w Y T T T w X 8 hXVXNXNXBXNXGXPXPXPXPXPXPXPXPXPXPXPXPXPXPXPXPXPXPXPXPXPXPXPXPXPXPXPXPXPXPXPXPXPXPXPXPXPXPXPXPXPXPXPXPXPXPXPX",
"PXPXPXPXPXPXPXPXPXPXPXPXPXPXPXPXPXPXPXPXPXPXPXPXPXPXPXPXPXPXPXPXPXPXPXPXPXPXPXPXPXPXPXPXPXPXPXPXPXKXKXFXh.* +.5X,X1X2X*.* &.,.,.,.*.*.,.,.*.,.,.,.,.*.*.$.#.*.*.#.#.*.*.*.*.*.#.#.%.~ * * w U U U K *   # 0 h s s s s s s s s s s p S ` } c.c.c.c.c.} c.} { } ] 6 O h oXU.z.n.n.n.n.n.n.v.v.v.v.v.v.v.v.c.c.c.v.v.c.c.c.c.c.c.c.[ A V p m ` ( ` ` ` F F F F F F C p k { c.v.c.c.c.c.c.c.c.l.l.c.c.[ ' ` d m [ [ c.l.k.[ } x.c.c.c.c.x.x.} ' [ ' ' ' ' ' ' ' ` ] C k ` ' ' ' ' ' [ } c.c.c.c.} } } c.c.} } c.c.c.c.c.c.c.k.c.k.k.l.k.[ [ [ ' ' ' ' ' ' ' ' ' ' ' ( ( ' ' ( ( ( ` F F A ( ( ( A F A F ` ` ` A ( ( ' } } x.} } } } } { ' { { { { { { { ] ` ` C C ( ( ` ` C C C C F C F A C ` ] ' ' ` ` ` ' ' ] ] ' ' ] ` _ J O O < s j ) ` ] ] ' ' ] ] ` ] ] ] ` ` ` ` ` ` ` ` C V C N C l @ + r.,X,X,X,X2X~ , 0.6.+.^ +.+.+.+.+.#.+.+.+.+.+.+.+.W W W W W W +.W W W T ~ ! 8 + w Y T T T w X 8 hXVXBXNXBXNXJXPXPXPXPXPXPXPXPXPXPXPXPXPXPXPXPXPXPXPXPXPXPXPXPXPXPXPXPXPXPXPXPXPXPXPXPXPXPXPXPXPXPXPXPXPXPXPX",
"PXPXPXPXPXPXPXPXPXPXPXPXPXPXPXPXPXPXPXPXPXPXPXPXPXPXPXPXPXPXPXPXPXPXPXPXPXPXPXPXPXPXPXPXPXPXPXPXPXPXKXFXg.* +.3X,X4X2X*.* &.,.,.,.*.*.,.,.*.,.,.,.,.*.*.$.#.*.*.#.#.*.*.*.*.*.*.$.$.~ * * w T U I I *   # 0 h s s s s s s s g s s j S [ } l.c.c.c.c.c.c.c.} } ] 6 O h oXJ.z.m.m.n.n.v.v.v.n.v.v.v.v.v.v.c.c.v.v.v.v.c.c.c.c.c.} ` C m p C ` A ` ` ` ` F F F F F D k i ] c.v.c.c.c.c.c.c.c.l.l.l.x.[ ' ( p C } [ c.c.c.c.} x.x.c.c.c.x.x.} ' [ ' ' ' ' ' ' ' ' ` M k ] ' ' ' ` ' } } c.} x.c.} } } } c.} } c.c.c.c.c.c.c.l.c.c.l.k.k.[ ' [ ' ' ' ( ( ' ' ' ' ' ' ( ( ( ( ( A ( ( G F A ( ( ( ( ` ` A ( ( ( ( ( ' [ } x.x.} } } } } { [ { { { { [ [ [ ] ` C C C C C ( F C C A A C C C A C ` ] ] ' ` ] ` ' ] ` ] ' ' ] ` _ J O O 6 s j ) ` ` ' ' ' ] ] ] ] ] ` ` A ` ` ` ` ` ` C V C N C l @ + 8.,X,X,X,X2X~ , r.6.+.^ +.+.+.+.+.#.#.+.+.+.+.+.+.W W W W W W ..+.+.W W ~ ! 8 + w Y T T T w X 8 hXAXNXNXBXNXJXPXPXPXPXPXPXPXPXPXPXPXPXPXPXPXPXPXPXPXPXPXPXPXPXPXPXPXPXPXPXPXPXPXPXPXPXPXPXPXPXPXPXPXPXPXPXPX",
"PXPXPXPXPXPXPXPXPXPXPXPXPXPXPXPXPXPXPXPXPXPXPXPXPXPXPXPXPXPXPXPXPXPXPXPXPXPXPXPXPXPXPXPXPXPXPXPXPXPXKXFXh.* ^ 3X,X4X2X*.* *.,.:.:.*.,.,.,.*.*.,.,.*.*.*.$.*.*.*.$.#.*.*.*.*.*.*.$.$.O.* * w U U U K *   + 0 h a s s s s s g g g i k _ [ [ l.c.c.c.c.} } c.} } ` 1 O h oXU.z.n.n.n.m.v.v.n.n.v.v.v.v.c.v.v.v.v.v.c.v.v.c.c.c.c.[ C V p M ` ` A ` ] ` F F F F A F ` V i ` c.v.c.c.c.c.c.c.c.l.l.l.k.' ` V p ` } } [ k.c.c.x.c.c.x.x.c.x.x.[ [ ' ' ' ' ' [ ' ' ' ` V m ] ` ' ' ` [ } } c.} c.c.c.} } } c.x.} c.c.c.c.c.c.c.c.k.x.x.k.k.' ' [ ' ' ' ( ( ' ' ' ( ' ' ( ' ' ( Z A ( ( A ` ' ( ( ( ` ( A ( A ( A ( ( ' } [ } c.} } } } } { { { { { { ' ' ' ] A C C C C C C C C A ` ` C C C C C ` ] ] ' ' ' ` ] ` ` ] ' ' ` ` _ l O O 6 s j ) ` ] ] ' ' ] ] ] ] ] ` ` ` ` ` ` ` ` ` C V C A C h @ + 8.,X,X,X,X>XY , a.6.^ ^ +.#.#.#.#.#.#.+.+.+.+.W W W +.+.+.^ +.+.+.+.W W ~ ! 8 + w Y T T T w X 8 hXVXNXNXBXNXJXPXPXPXPXPXPXPXPXPXPXPXPXPXPXPXPXPXPXPXPXPXPXPXPXPXPXPXPXPXPXPXPXPXPXPXPXPXPXPXPXPXPXPXPXPXPXPX",
"PXPXPXPXPXPXPXPXPXPXPXPXPXPXPXPXPXPXPXPXPXPXPXPXPXPXPXPXPXPXPXPXPXPXPXPXPXPXPXPXPXPXPXPXPXPXPXPXPXPXKXFXg.* +.3X<X,X2X*.* 6.*.$.$.*.,.,.,.$.*.*.,.*.*.*.*.*.*.*.*.*.*.*.*.*.*.*.$.&.! * * w U U U K *   + h h a s s s s s s g g s k ` } [ c.c.c.c.} } [ [ } } ` 1 O h oXU.B.n.n.m.m.n.n.n.n.v.v.v.v.v.v.v.v.v.v.v.v.c.c.c.c.} ` C m k C ` ( ( ` ` ` F F F F A A ` V u C c.v.c.c.c.v.c.c.l.l.l.c.[ ' ` m k [ } [ [ l.c.c.c.c.c.} x.c.x.x.' ' ' [ } ' ' [ ' ' ` ` k M ] ' ' ' ' [ x.x.} } c.c.c.} } c.c.x.} c.c.c.c.c.c.c.c.c.c.x.[ k.[ [ ' ' ' ' ( ( ' ' ' ' ( ` ( ' ' ' ( ( ( ( ( ( ( A ( ` ` ( C ` ` ( ( ( ' [ [ [ [ } } } } } { { ] { { { { ' [ [ ` C C C C F C C C ` ` F ` C C C C A ] ] ] ] ' ] ` ` ` ] ] ] ' ` ` _ J O O 6 s j ) _ ] ] ' ' ] ] ] ] ] ` ` ` ` ` ` ` ` ` C C C A C v O @ 8.,X,X,X,X>XY , 0.6.^ ^ +.+.+.+.+.+.+.+.+.W +.^ W W +.+.+.+...+.+.+.W W ~ ! 8 + w Y T T T w X 8 hXVXBXBXBXNXGXPXPXPXPXPXPXPXPXPXPXPXPXPXPXPXPXPXPXPXPXPXPXPXPXPXPXPXPXPXPXPXPXPXPXPXPXPXPXPXPXPXPXPXPXPXPXPX",
"PXPXPXPXPXPXPXPXPXPXPXPXPXPXPXPXPXPXPXPXPXPXPXPXPXPXPXPXPXPXPXPXPXPXPXPXPXPXPXPXPXPXPXPXPXPXPXPXPXKXKXFXg.* +.3X<X,X2X*.= 6.*.$.$.*.*.*.*.*.*.*.*.*.*.*.*.*.*.*.*.*.*.*.*.*.*.#.#.%.! * * w U U U K *   + a h a s s s s s s s s s k ] } [ c.c.c.c.} } c.c.[ } ] 1 O h oXU.B.n.n.n.v.n.n.n.n.v.v.v.v.c.v.v.v.v.v.v.c.c.c.v.c.} ( C p B ( ` ` ( ` ` ` F F F F A F _ V u C c.x.k.x.c.c.c.c.c.l.l.c.[ ' ` p V } } } c.c.c.c.c.c.c.} x.x.x.x.[ [ ' ' ' ' ' ' ' ' ` _ p ( ' [ ' ' [ c.c.} } x.c.c.x.} } c.c.x.} c.c.c.c.c.c.c.k.k.x.x.[ k.' [ ' ' ' ' ( ( ( ' ' ' ' ' ' ' ' ( ' ' ( ` ( ( ( ( _ / C / ( ` ` ` ( ( ' } [ } [ } } } { { { } { { { { { ] ] ] F C C C C A C C A ` ` F ` C C C C ( ] ] ] ' ' ' ` ` ] ] ] ' ` ] ` _ J O @ 6 s j ) ` ] ] ' ' ] ] ] ] ] ` ` ` ` ] ` ` ` ( C C C A C l O @ 8.,X,X,X,X>XY , r.6.+.^ +.+.+.+.+.+.+.+.+.+.^ W W W W +.+.+.W W W ^ +.W ~ ! 8 + w Y T T T w X 8 hXVXNXNXBXNXGXPXPXPXPXPXPXPXPXPXPXPXPXPXPXPXPXPXPXPXPXPXPXPXPXPXPXPXPXPXPXPXPXPXPXPXPXPXPXPXPXPXPXPXPXPXPXPX",
"PXPXPXPXPXPXPXPXPXPXPXPXPXPXPXPXPXPXPXPXPXPXPXPXPXPXPXPXPXPXPXPXPXPXPXPXPXPXPXPXPXPXPXPXPXPXPXPXPXKXKXFXg.& +.5X<X1X2X*.= 6.*.$.$.*.*.*.*.*.*.*.*.*.*.*.*.*.*.*.*.*.$.*.*.*.*.#.#.&.~ * * w U U U K *   + h h s s s s s s s s s s k ] } } c.c.c.c.c.c.l.[ [ } ` 6 O h oXU.B.n.n.v.v.n.n.n.n.v.v.v.c.c.c.v.v.v.v.c.c.c.c.c.} ' C B d C ( ( ( ( ` ` ` F F F F A F D V u V c.x.c.c.c.v.c.l.l.l.l.[ ' ' C p / [ } [ c.c.c.c.c.c.c.} x.x.[ ' [ [ [ ' ' ' ' ' ' ' ` V k ` ` [ ' [ c.c.} x.c.c.c.c.} [ [ } c.x.} c.c.c.c.c.c.c.[ [ [ k.[ k.' ' ' ' ' ' ' ( ( ' ' ( A ( ( ( ( ( ( ( ( ` ` ` _ V c d j d d m { { ( ' ' } [ } [ [ ' ' ' { { { ] { { { { ' ] ` F A A C C A C C A ` ` F ` C C C C ` ] ' ' ' ' ' ` ` ] ] [ ' ` ` ` _ H O O 6 s j ) ` ` ` ` ` ` ` ] ] ] ` ` ` ] ` ` ` ` ` C C C A C h O @ 8.,X,X,X,X>XY , i.6.+.^ +.+.+.+.+.+.#.+.+.+.W W +.W W W W W W W W W +.W @.! 8 + w Y T T T w X 8 hXVXNXBXBXNXGXPXPXPXPXPXPXPXPXPXPXPXPXPXPXPXPXPXPXPXPXPXPXPXPXPXPXPXPXPXPXPXPXPXPXPXPXPXPXPXPXPXPXPXPXPXPXPX",
"PXPXPXPXPXPXPXPXPXPXPXPXPXPXPXPXPXPXPXPXPXPXPXPXPXPXPXPXPXPXPXPXPXPXPXPXPXPXPXPXPXPXPXPXPXPXPXPXPXKXKXGXg.* +.8X,X,X3X%.: 6.*.$.$.*.*.,.*.*.*.*.,.*.*.*.*.*.*.*.*.*.#.*.*.*.*.$.#.%.! * & r U U U I :   # h h s g s h g g s s s s z { } c.c.c.l.l.} } [ [ [ } ] 6 o h oXU.z.n.n.v.c.v.c.c.n.v.v.v.c.c.c.v.v.v.v.c.c.c.c.c.} ` / k m ` A ` ( ( ` ` ` ` A G G F F F C i C c.x.c.c.c.c.c.l.l.l.l.' ' ` N p _ l.l.l.c.c.c.c.c.c.c.k.[ [ [ ' ' ' ' ' ' [ ` ' ' ' ` k V ` ` ` ' [ } c.} c.c.c.c.c.} } x.x.c.x.x.c.c.c.c.c.c.x.[ [ l.[ ' [ ' ' ' ( ( ( ' ( ` ` ` ` ( ( ` ( ` ' ' G A ` _ / k i k V / / V i / A.' ' ' } ' } } ' ' ' ' [ { { { } { { ] { ` _ C A A C C C C C F ` ` C C C C C C ` ] ] ' ] ] ] ` ] ] ] ] ' ` ` { _ H O O 6 s j / _ ` ` ` ] ` ] ' ] ` ` ` ` ` ` ` ` ` A C C C C V l @ + r.4X,X,X,X>XT , r.6.+.^ +.+.+.+.#.#.+.+.+.W W W ^ +.W W ..+.+...+...+.^ T ! 8 + r T T T Y r X 8 hXVXMXNXBXNXGXPXPXPXPXPXPXPXPXPXPXPXPXPXPXPXPXPXPXPXPXPXPXPXPXPXPXPXPXPXPXPXPXPXPXPXPXPXPXPXPXPXPXPXPXPXPXPX",
"PXPXPXPXPXPXPXPXPXPXPXPXPXPXPXPXPXPXPXPXPXPXPXPXPXPXPXPXPXPXPXPXPXPXPXPXPXPXPXPXPXPXPXPXPXPXPXPXPXKXKXFXg.* +.8X,X,X3X$.: 6.*.$.$.*.*.*.*.#.*.*.*.#.#.*.*.*.*.*.*.*.*.*.*.#.#.$.#.%.! * & r U U U I :   # h h h g s s h s s s s s z { } c.[ c.l.l.} } [ [ [ { ` 6 o h oXH.z.v.n.v.c.v.c.c.n.v.v.v.v.v.v.M.v.v.v.v.c.c.c.c.} _ V d m ` A ` ` A A ` ` ` A G G F F D V i C c.c.c.c.c.c.c.l.l.l.[ ' ` ` m d ] l.l.l.c.} c.x.c.c.k.c.l.k.[ ' ' ' ' ( ' ' ` ' ' ` ` j M ` ` ` ' } c.c.x.c.c.c.c.c.c.c.c.c.c.c.c.c.c.c.c.c.c.c.[ [ [ ' ' ' ` ' ' ' ' ' ' ' ` A A ` ` ] ] ` ` ( ( ' ( ( V i p m ( / C C _ V d A.} } } } ' ' ' } { ' ] ] ' { { { { [ ] ] ` C C C C C C A C C ` ` C A ` C C C C ` ' ] ' ` ] ` ] ] ] ` ` ` ` ` ] _ l O O 6 s j / ` ` ] ' ` ` ` ` ` ` ` ` ` ` ` ` ` ` C C V V N V h + + r.4X,X,X,X>XT , r.6.+.+.+.+.+.+.#.#.+.W W W W W ^ W W +...+.+...+.+.+.^ T Y 8 + r T T T T r . 7 hXVXMXNXBXNXGXPXPXPXPXPXPXPXPXPXPXPXPXPXPXPXPXPXPXPXPXPXPXPXPXPXPXPXPXPXPXPXPXPXPXPXPXPXPXPXPXPXPXPXPXPXPXPX",
"PXPXPXPXPXPXPXPXPXPXPXPXPXPXPXPXPXPXPXPXPXPXPXPXPXPXPXPXPXPXPXPXPXPXPXPXPXPXPXPXPXPXPXPXPXPXPXPXPXKXKXFXg.* +.8X,X,X2X$.* &.*.$.$.*.*.*.*.*.*.*.*.$.$.*.*.*.*.*.*.*.*.*.*.$.#.$.$.$.! * & w U U T I :   + h h h g s s h g s s s s z { } } [ c.c.l.c.} } [ } { ` 6 o h oXJ.z.n.n.n.n.n.v.c.n.v.v.v.v.M.v.v.v.v.v.v.v.c.c.c.[ _ V p C A A ` ` A A ` ` ` A G G F F D V i C c.c.c.c.c.c.c.c.l.l.[ ' ` ( k m } l.l.l.x.x.c.c.c.l.k.c.c.k.[ ' ' ' ' ' ' ' ' ' ` ] V k _ ` ` ` } } c.c.x.c.c.c.c.c.x.x.c.c.c.c.c.c.c.c.c.c.c.c.[ [ [ ' ' ' ` ' ' ' ' ' ' ' ` ` ` ` ` ` ` ` ` ( ( ( / B i k V ( ( ( ( C _ / d <.n.} ' ' ' ' ' } { { [ ' [ { [ { [ ' ] ` C C C C C C C A C C ` ` C C ` C A A C ` ] ] ' ` ` ` ] ] ] ] ` ` ` ` ] _ l O O 6 s j / _ ` ` ` ` ` ` ` ` ` ` ` ( A ` ` ` F C V V V N V h @ + r.,X,X,X,X>XY , r.6.+.+.+.#.^ +.#.#.+.W W +.+.+.+.+.+.+...+.+.@.+.+.+.^ T Y 8 # r T T T T r X 8 hXVXMXNXBXNXGXPXPXPXPXPXPXPXPXPXPXPXPXPXPXPXPXPXPXPXPXPXPXPXPXPXPXPXPXPXPXPXPXPXPXPXPXPXPXPXPXPXPXPXPXPXPXPX",
"PXPXPXPXPXPXPXPXPXPXPXPXPXPXPXPXPXPXPXPXPXPXPXPXPXPXPXPXPXPXPXPXPXPXPXPXPXPXPXPXPXPXPXPXPXPXPXPXPXKXKXGXg.* +.3X,X<X2X%.* &.*.$.$.*.*.*.,.,.*.*.*.*.*.*.*.*.*.*.*.*.*.*.*.*.*.$.#.%.! * & w U U T I :   # h h h g g h s g j s s s k { c.} [ l.c.l.c.} } l.} { ` 6 o h oXJ.B.S.A.n.n.n.v.c.n.v.v.v.v.v.c.c.v.v.v.c.c.c.c.c.' _ B p ( A ( ` ` A ` ` ` ` A G G A F F V i _ c.c.c.c.c.c.c.c.c.c.[ ' ] ( p C { l.l.l.x.c.c.c.k.l.k.c.k.[ ' ' ' ' ' ' ' ' ' ' ` ] k c ` ` ` ' } } } x.x.x.x.x.x.x.x.x.c.c.x.x.c.c.c.c.x.x.x.x.l.[ ' ' ' ' ` ' ` ' ' ' ' ' ` ` ' ` ` ` ` A A ( ( / k i V V _ C C A A C _ / k <.A.} ' ' ' ' ' ' { { { { { [ ] [ ' ] ] ` C C C C C C C A C C ` ` ` C C C A A C ` ] ] ' ` ` ] ] ] ' ] ` ] ` ` ` _ l O O 6 s j / ] ` ` ` ' ] ] ` ` ` ` ` ` ` ` ] ` ` C V V C C V h O + r.,X,X,X,X>XY , r.6.+.+.+.#.^ W +.#.+.+.+.+.+.+.+.+.+.W ..+.+.@.+.+.+.^ T Y 8 + r T T T O.r X 8 hXVXNXNXBXNXGXPXPXPXPXPXPXPXPXPXPXPXPXPXPXPXPXPXPXPXPXPXPXPXPXPXPXPXPXPXPXPXPXPXPXPXPXPXPXPXPXPXPXPXPXPXPXPX",
"PXPXPXPXPXPXPXPXPXPXPXPXPXPXPXPXPXPXPXPXPXPXPXPXPXPXPXPXPXPXPXPXPXPXPXPXPXPXPXPXPXPXPXPXPXPXPXPXPXKXHXFXg.& +.5X>X,X>X%.* &.*.$.$.$.*.*.*.*.$.$.$.$.*.*.*.*.*.*.*.*.#.#.*.*.$.$.#.%.~ * & w U U U I ,   # a h g s s g h g d s s s k { c.c.[ l.c.c.c.} } [ } { ` 6 o a oXL.v.m.n.n.v.v.c.c.v.v.v.v.v.c.c.c.v.v.v.c.c.c.l.[ ` C k k ( ` A ` ` A ` F ` ` ( G A A F ` V i ] c.c.c.l.l.l.l.c.c.c.' ` ` M p ` } l.l.l.c.c.c.c.[ k.k.k.k.[ ' ' ' ' ' ' ' ' ' ' ] _ d M ] ` ] { } } } } x.x.x.x.x.x.x.} c.c.c.c.c.c.x.x.x.x.c.c.[ [ ' [ ' ' F ' ' ' ` ' ' ' ` ` ` ] ` ` ` A C _ V j i b V C ( C C A A C _ / k } A.' ' ' ' ' ' } { { { { ' ' [ ' ' { ] _ C C C C A A A A C C ` ` ` F A C C C C ] ] ] ] ] ] ] ] ' ] ] ` ] ` ` ` ` l O O 6 s j / ] ` ` ` ' ] ] ` ` ` ` ` ] ] ` ` ` ` C V V C C C h + + r.,X,X,X,X>XT , r.6.+.+.+.#.+.+.+.+.+.+.+.+.+.+.+.+.^ ^ ..+.....+.+.+.+.@.Y 8 # w U T T O.r . 8 hXVXMXNXBXBXGXPXPXPXPXPXPXPXPXPXPXPXPXPXPXPXPXPXPXPXPXPXPXPXPXPXPXPXPXPXPXPXPXPXPXPXPXPXPXPXPXPXPXPXPXPXPXPX",
"PXPXPXPXPXPXPXPXPXPXPXPXPXPXPXPXPXPXPXPXPXPXPXPXPXPXPXPXPXPXPXPXPXPXPXPXPXPXPXPXPXPXPXPXPXPXPXPXPXKXHXFXg.& +.5X,X,X2X%.* &.*.#.$.*.*.*.*.#.#.#.#.#.#.*.*.*.*.*.*.*.*.*.*.*.$.#.#.%.~ * & w I U U U ,   # 6 h a s s h h g s s s s z { } } c.l.c.l.c.} } [ } } ` 6 o h oXL.v.m.n.n.n.v.c.c.v.v.v.v.v.c.c.c.v.v.v.c.c.l.l.[ ` V p B ( ` A ( A A ` ` ` ` ` ( A A F ` V p ] c.c.c.l.l.l.l.c.c.c.[ ` ` c k ] c.k.k.l.c.c.c.c.[ k.[ [ k.[ ' ' ' ' ' ' [ ' ' ' ` V d _ ` ` ' } } c.} c.x.x.x.c.c.c.x.} c.c.c.c.c.x.x.x.x.x.x.x.[ [ [ [ ' ' F ' ' ' ( ' ' ' ` ` ` ` ` ` ` ( ( V p p V C C C C C C C C C _ V k } v.' ' ' ' ' ' } { { { { ] ] { { { ' ` C C C C C C A A A C C ` ` ` ` F C C C C ] ] ] ` ] ] ] ] ' ] ] ` ] ` ` ` ` h O O 6 s j / ] ` ` ] ] ` ] ] ] ` ` ` ] ] ` ` ` ` C V V C C V h + + r.,X,X,X,X>XY , r.6.+.+.+.#.+.+.+.+.+.+.+.W W W W W ^ ^ +.@.@...+.+.+.^ T Y 8 + r U T T Y r . 8 hXVXMXBXBXNXGXPXPXPXPXPXPXPXPXPXPXPXPXPXPXPXPXPXPXPXPXPXPXPXPXPXPXPXPXPXPXPXPXPXPXPXPXPXPXPXPXPXPXPXPXPXPXPX",
"PXPXPXPXPXPXPXPXPXPXPXPXPXPXPXPXPXPXPXPXPXPXPXPXPXPXPXPXPXPXPXPXPXPXPXPXPXPXPXPXPXPXPXPXPXPXPXPXPXKXKXFXg.& +.5X,X1X2X$.* &.*.#.$.*.*.*.*.*.*.*.*.*.*.*.*.*.*.*.#.#.#.*.*.*.*.#.#.$.~ * & w T U U U ,   # 6 h a s g h h s s d s s k { } [ c.c.c.l.c.c.c.c.} { ` 6 o 6 oXH.z.n.n.n.n.n.c.c.v.v.v.v.v.v.v.c.v.v.v.c.c.c.c.[ D M p C ( ( ( ( ( ` ` ` ` ` ' ( A A F F c p { c.x.c.l.l.l.k.c.c.c.[ F _ k B { c.k.l.l.k.c.c.c.[ k.c.[ [ [ ' ' ' ' ' ' ' ' ' ` ` c k ` ` ` { } } c.} c.c.c.c.x.x.x.x.} c.c.c.c.c.c.x.x.} } } } [ l.[ ' ' ' A ' ' ' ' ( ( ' ` ` ] ` ` ` ( _ V d d C ( ( A C C C C C D D _ V c c.c.' } } ' ' ' } { { { [ ' ' ' ' ' ] ` C C C C C C C C A C C F ` ` A C C C C C ' ] ] ] ` ] ' ' ' ] ` ` ` ` ] { _ h o O 6 s j ) ] ] ] ] ` ` ] ] ] ` ` ` ` ` ` ` ] ] C V C C C C h + + r.,X,X,X,X>XY , r.6.+.+.+.#.+.+.+.+.W W +.W W W W W W +...@.@...+.+.+.^ Y Y 4 + w U T T Y r . 8 hXVXMXNXBXNXGXPXPXPXPXPXPXPXPXPXPXPXPXPXPXPXPXPXPXPXPXPXPXPXPXPXPXPXPXPXPXPXPXPXPXPXPXPXPXPXPXPXPXPXPXPXPXPX",
"PXPXPXPXPXPXPXPXPXPXPXPXPXPXPXPXPXPXPXPXPXPXPXPXPXPXPXPXPXPXPXPXPXPXPXPXPXPXPXPXPXPXPXPXPXPXPXPXPXKXKXFXg.& +.4X,X1X2X*.: 6.*.$.$.*.*.*.*.*.#.*.*.*.*.*.*.#.#.*.*.#.#.#.*.*.*.*.#.%.! * * r I I U I :   # 0 a s g s s g s s s s s z ] [ [ c.c.c.c.c.} } } [ { ` 1 o h }.H.z.c.n.n.n.n.n.v.v.v.v.v.v.v.v.v.c.c.l.M.l.[ } ] C M i C ` ` ` ` ` ` ` ` ` F F G G A F D d m c.c.l.l.c.c.c.k.c.c.c.[ D V k C } x.[ l.l.[ c.c.c.} } c.[ ' ' x.' ' ' ' ' ' ' ' ] / j M ' ' [ c.[ c.c.c.c.c.c.c.x.c.c.c.c.c.c.c.c.c.k.k.k.k.k.k.k.k.k.k.' ( ( ( ' ' ` ' ' ' ` ` ` F F ' ( ( / i d C A A A C A ` ( A A A F D V k A.} [ [ ' ' ' ' { [ ] ] ' ] ' { [ ' ` ( ( ( ( D D D D ( ( ( C _ C _ C C C C C ` ] ' ] ] ' ] ` ] ' ` ` ` ] ` ` ` _ h O + 6 s j ) ] ] ] ] ] ` ] { ` ` ` ` ` ] ` ` ` ` C V V V N V h + + w.,X,X,X,X-XY , 0.6.^ ^ +.#.+.W +.^ W W W T T T W T T T +.@.@.T ....@.W Y ! 8 X w Y T T ~ w   8 hXVXNXBXBXBXGXPXPXPXPXKXKXPXPXPXPXPXPXPXPXPXPXPXPXPXPXPXPXPXPXPXPXPXPXPXPXPXPXPXPXPXPXPXPXPXPXPXPXPXPXPXPXPX",
"PXPXPXPXPXPXPXPXPXPXPXPXPXPXPXPXPXPXPXPXPXPXPXPXPXPXPXPXPXPXPXPXPXPXPXPXPXPXPXPXPXPXPXPXPXPXPXPXPXKXKXFXg.& +.4X,X4X3X*.: 6.*.$.$.*.*.,.*.*.*.*.*.*.#.#.*.*.#.#.$.*.*.$.*.*.$.*.#.%.! * * r I I U I :   # 0 a s s s s s s s s s s c ] [ [ c.c.c.c.c.} [ [ ' { ` 6 O h }.H.z.v.n.c.v.n.n.v.v.v.v.v.v.v.v.v.c.c.l.l.l.l.} ] _ M p ( ` ` ` ` ` A ` ' ` A A A A F F _ p C } c.l.l.c.c.c.k.l.[ [ [ D V p _ } c.c.l.l.c.c.c.c.} } [ ' ' ' ' [ ' ' ' ' ' ' ' ` b i _ ' ' [ c.c.c.c.c.c.} c.c.} } } c.c.c.c.c.c.c.[ [ k.k.[ [ [ [ [ [ ' ( ( ( ( ` ` ( ' ' ( ` ` F F A ` / i d / C C A A C A ( C A C A C S V m A.' ' ' ' ' { { ' ] ] ] ] ] ' { [ ] ` C C ( ( D D S S / / ( C C ( _ ( C C C C ( ] ] ] ] { { ] ] ] ] ` ] ] ' ` _ / h O + 6 s j ) ` ] ] ] ] ` ` { ` ` ` ` ` ` ` ] ` ` C C V V N M h o + w.,X,X,X,X-XI , 0.6.^ ^ +.+.+.W +.W W W W P T T W T T T @.T @.@.T @.T W T ! 8 X w Y T T ~ q   8 hXVXNXNXBXNXGXPXPXPXPXPXPXPXPXPXPXPXPXPXPXPXPXPXPXPXPXPXPXPXPXPXPXPXPXPXPXPXPXPXPXPXPXPXPXPXPXPXPXPXPXPXPXPX",
"PXPXPXPXPXPXPXPXPXPXPXPXPXPXPXPXPXPXPXPXPXPXPXPXPXPXPXPXPXPXPXPXPXPXPXPXPXPXPXPXPXPXPXPXPXPXPXPXPXKXKXFXg.& +.4X,X1X3X*.: 6.*.$.$.*.*.*.#.*.*.*.$.#.$.#.$.*.$.#.#.$.$.$.*.*.*.*.$.%.! * * r I I U I :   # 6 a s g a s g g g g s s z ] } [ c.c.c.c.c.} [ [ ' { ` 6 o h }.H.z.v.n.c.c.v.n.v.v.v.v.v.v.v.v.v.c.c.l.l.l.l.} ` _ m p _ ` ' ` ` ` ` ` ' ` A A A A A A C p ` } c.l.l.c.c.c.[ [ [ [ ] D m d ` } c.l.[ [ l.c.c.c.} } } [ ' ' ' ' ' ' ' ' ' ' ' ` k c ` ' [ [ } c.l.k.l.c.} c.c.c.} } x.x.} x.c.c.c.[ [ k.k.[ [ [ [ [ [ ' ' ( ( ( ( A ( ( ( A F A F D _ B i d C C C C A A A A A A ( ( F F _ c _ A.' [ } } } { ' ] ] ' ] ] ] ' { ] ` F C C ( ( D D D D / / ( C C C _ C C C C C ( ] ] ] ' ' ' ] ] ] ] ] ` ` ' ` _ / h O O 6 s j ) ` ] ] ] ] ` ] { ` ` ` ` ` ` ` ] ` ` C C C V N M h o + w.,X,X,X,X>XI , 0.6.^ +.+.+.^ W +.W ..+.W T T P P T T T T T @.T @.@.T W Y ! 8 + r ~ T T ~ q   8 hXVXNXNXBXNXGXPXPXPXPXPXPXPXPXPXPXPXPXPXPXPXPXPXPXPXPXPXPXPXPXPXPXPXPXPXPXPXPXPXPXPXPXPXPXPXPXPXPXPXPXPXPXPX",
"PXPXPXPXPXPXPXPXPXPXPXPXPXPXPXPXPXPXPXPXPXPXPXPXPXPXPXPXPXPXPXPXPXPXPXPXPXPXPXPXPXPXPXPXPXPXPXPXPXKXKXFXg.& +.8X,X4X2X%.* 6.*.$.$.*.*.*.#.*.*.*.$.$.$.#.$.$.$.$.#.$.#.$.$.*.*.$.#.%.O.* * w I I U I :   # 6 a h s s s g x g g s s c ] } } } c.c.c.c.} [ [ [ { ] 6 O h }.H.z.v.c.c.c.v.v.v.v.v.v.v.v.c.c.v.c.M.M.l.l.l.} ` _ m k _ ` ` ` ' ' ` ` ` ` ` ` ` ` A F V p { } x.k.l.l.l.c.[ [ [ ' ] _ d k ] } l.[ [ [ [ [ c.c.} } [ [ ' ' ' ' ' ' ' ` ' ' ` C d _ ] ' [ [ [ c.l.k.k.c.c.c.c.c.} } } } x.} x.c.c.[ [ k.[ [ [ [ ' ' ' ' ' ' ' ' ( ' ( ( ( ( A F D C V i d C ( ( C C C A A A A ` ` ` A C _ p { } ' ' ' { ' { ] ] ] [ ' ] ] [ { ] D C C C ( ( D D D D ( ( ( C C C _ ( C C C C ` ` ` ] ' ' ' ` ` ] ] ` ` ` ` D C / h o o 6 s j ) ` ` ` ] ] ` ' ' ] ` ] ` ` ` ` ] ` ` M C V V N V h + + w.,X,X,X,X>XY , 0.6.+.^ +.+.+.W W W +.+.+.W T T U U P T @.T T T T T T T @.! 8 + r Y T W ~ q   8 hXVXBXNXBXNXGXPXPXPXPXPXPXPXPXPXPXPXPXPXPXPXPXPXPXPXPXPXPXPXPXPXPXPXPXPXPXPXPXPXPXPXPXPXPXPXPXPXPXPXPXPXPXPX",
"PXPXPXPXPXPXPXPXPXPXPXPXPXPXPXPXPXPXPXPXPXPXPXPXPXPXPXPXPXPXPXPXPXPXPXPXPXPXPXPXPXPXPXPXPXPXPXPXPXPXKXFXg.& +.8X,X4X3X%.: 6.*.$.$.*.*.*.$.*.*.*.*.*.#.+...@...+.+.$.$.*.$.*.$.#.#.%.O.* * w I I U I :   # 6 a h g s s x g g g s s c ] } } } c.c.c.c.c.[ [ } { ] 6 O h }.H.z.c.c.c.v.n.v.v.v.c.c.c.c.c.c.v.c.M.l.l.l.l.} _ _ c m _ ` ` ' ' ' ' ` ` ` ` ` ` ` ( ( m m { } [ l.l.l.l.c.[ [ [ [ ` ( p V { [ k.' [ [ } [ [ [ } [ ' ' ' ' ' ' ' ' ' ` ' ` ` m c ` ' c.c.[ [ c.c.c.l.c.c.c.c.c.c.c.c.c.c.c.} x.x.l.[ [ [ [ [ [ ' ' ' ' ' ' ' ' ' ' ' A ` ' F F S b i d C C C ( C C ` C A ( A A C C A ( V k <.] ' ' { { ] { { ] ' ' ' ] ] { ' ` C C C C ( ( D D D D ( ( ( C C C _ _ C C C C ` ` ` ] ] { ' ` ` ] ] ` ` ` ` C C / h o o 6 s j ) ` ` ` ` ] ` ' ' ] ` ] ` ` ` ` ] ` ` M M V V N V h + + w.4X,X,X,X>XT , r.6.^ ^ +.+.+.W W W +.+.+.T T P U U U U T T @.T T T @.P @.! 8 + r Y T T ~ q   8 hXVXBXNXBXNXGXPXPXPXPXPXPXPXPXPXPXPXPXPXPXPXPXPXPXPXPXPXPXPXPXPXPXPXPXPXPXPXPXPXPXPXPXPXPXPXPXPXPXPXPXPXPXPX",
"PXPXPXPXPXPXPXPXPXPXPXPXPXPXPXPXPXPXPXPXPXPXPXPXPXPXPXPXPXPXPXPXPXPXPXPXPXPXPXPXPXPXPXPXPXPXPXPXPXKXKXFXg.& +.8X,X4X3X%., 6.*.$.$.*.*.*.*.*.*.*.#.+...T T T T T @.#.#.#.#.$.$.#.#.%.O.* * w I I U I :   # 6 a h s s s g g g s s s c ] c.c.l.l.c.c.c.c.[ l.} { ] 1 O h }.H.z.v.v.v.v.n.n.v.c.c.c.c.c.c.c.c.c.c.l.l.[ [ [ ` _ k m _ ` ` ` ` ` ` ` ` ` ` ( ( ` ` C k C { } c.c.l.l.c.c.[ [ [ ' ` C i _ { [ k.[ [ } } } } } } ' ' ' ' ' ' ' ' ' ' ' ' ` C p / { ' c.[ [ [ c.l.c.c.c.c.c.c.c.x.x.x.x.x.x.} x.x.l.[ [ [ [ [ ' ' ' ' ' ' ` ' ' ' ' ' ( ( ` F _ b u k C C C A C C C C C C A A ` A A C ( d / <.] ' ' } { [ { { ] ] ] ] ] ] ] ] A C C C C ( ( D D D D ( ( ( / C / ` C C C C ` ] ] ` ] ] ] ] ` ` ] ] ` ` ` A C C / h o o 6 s j ) ` ` ` ` ` ` ] ' ` ` ] ] ] ] ] ` ` _ M M V V N C h + + w.4X,X,X,X>XT , 0.1.^ ^ +.+.+.+.W W +.W ^ W T T U U U K U I T T T T T T T ! 8 + r Y T T ~ q X 8 hXVXBXNXBXNXGXPXPXPXPXPXPXPXPXPXPXPXPXPXPXPXPXPXPXPXPXPXPXPXPXPXPXPXPXPXPXPXPXPXPXPXPXPXPXPXPXPXPXPXPXPXPXPX",
"PXPXPXPXPXPXPXPXPXPXPXPXPXPXPXPXPXPXPXPXPXPXPXPXPXPXPXPXPXPXPXPXPXPXPXPXPXPXPXPXPXPXPXPXPXPXPXPXPXKXKXFXg.* #.8X,X4X3X%., 6.*.$.$.*.*.,.,.*.*.#.#.W T U T T T T @.#.#.#.#.#.*.#.#.%.O.* = r I I U I :   # 6 a h s s s g g s s s s c ] } c.l.c.c.c.} } [ l.} { ] 6 o h }.H.z.v.v.v.n.n.n.v.v.v.v.v.v.v.v.c.c.c.l.[ [ [ [ _ C k M ` ` ` ` ` ` ' ` ` ` ` ( ( ` ( C d / { c.c.c.l.l.c.c.[ [ [ ' ` B p _ { [ l.[ [ } } } } } [ ' ' ' ' ' ' ' ' ' ' ' ' ` m k ` { ' c.[ [ [ [ [ c.c.c.c.c.c.c.x.x.x.} } } [ } x.[ [ [ [ [ ' ' ' ` ` ` ` ( ` ( ( ' ' ( ( ( D V s x _ C A A A C C ` A F ( ` ` ` ` ( ( C d | | ] ' [ { { { { { ] [ [ [ ' ] ] ` C C C C C ( ( D D D D ( ( ( / C / _ C C C C C ] ] ` ` ] ] ] ` ` ] ` ` ` A C C / / h o o 6 s j ) F ` ` ] ` ` ] ' ` ` ` ] ] ] ] ` ` _ M M V V N C h + + w.4X,X,X,X>XT , 0.,.^ ^ +.+.+.+.+.+.+.W W ..T T U U U U K K K U T @.T T Y ! 8 + r Y T T ~ q X 8 hXVXBXNXBXNXGXPXPXPXPXPXPXPXPXPXPXPXPXPXPXPXPXPXPXPXPXPXPXPXPXPXPXPXPXPXPXPXPXPXPXPXPXPXPXPXPXPXPXPXPXPXPXPX",
"PXPXPXPXPXPXPXPXPXPXPXPXPXPXPXPXPXPXPXPXPXPXPXPXPXPXPXPXPXPXPXPXPXPXPXPXPXPXPXPXPXPXPXPXPXPXPXPXPXKXKXFXg.* #.8X,X9X3X$.: 6.*.#.*.*.*.*.*.*.*.#.+.I I Y I Y Y O.+.#.#.+.+.#.#.#.#.#.~ * * w U T Y Y :   # a a s s s s s s s s s s c ] } } } } [ } } } ;.[ l.} ] 6 O h }.J.v.v.n.v.c.c.c.v.v.c.c.c.c.c.c.} } c.} [ [ c.[ ` C k C ( ' ' ' ' ` ` ` ` ` F F A ` D V k ` [ c.l.l.c.l.l.l.l.[ { ` / k f } [ c.[ c.c.c.c.c.c.c.' ' ' ` ' ' [ ' ' ( ' ` ` C k V ` [ k.c.c.c.c.l.[ k.c.c.c.c.c.c.[ [ [ [ [ [ [ [ [ ' [ [ k.[ [ ' ' ' ' ' ' ' ( C A F G A ` _ / d k C A A A C C C ` ` ` D D ` ` ( ( ( / d B } [ ' ' [ [ [ [ ] ` [ [ ' ] ] ] ] ` C C ( C C ( C D D D D D D D D D D D C C C C ` ` ` ` ` ` ` ` ] ` ` ` ` C C C C C / h o o 6 g j / _ ] ] ` ` ` ` ` ` ] ] ` ` ` ` _ ` D M C C C N V h O + 8.,X,X,X,X>X@., 0.6.^ ^ +.+.+.+...W ......@.@.Y I I K I I K w w U T T Y T ! 8 X w P P T ~ q + 8 hXVXMXNXBXNXGXPXPXPXPXPXPXPXPXPXPXPXPXPXPXPXPXPXPXPXPXPXPXPXPXPXPXPXPXPXPXPXPXPXPXPXPXPXPXPXPXPXPXPXPXPXPXPX",
"PXPXPXPXPXPXPXPXPXPXPXPXPXPXPXPXPXPXPXPXPXPXPXPXPXPXPXPXPXPXPXPXPXPXPXPXPXPXPXPXPXPXPXPXPXPXPXPXPXKXKXFXg.* #.8X,X9X3X$.: 6.*.$.$.*.*.*.*.*.$.#.T I I I I T T @.+.#.+.T +.#.#.#.#.#.~ = * w I I Y Y :   # 6 a h s a s s g d d s s c [ } } c.} [ } } } [ [ l.} ` 6 O h }.H.v.v.n.v.c.c.c.v.v.c.c.c.c.c.c.c.c.c.} [ } c.' ( C j C ( ' ' ` ` ` ` ` ` F F F A ` C c M [ [ l.l.l.l.l.l.l.l.[ [ ` _ p V } } c.[ c.c.c.c.c.c.k.' ' ' ' ' ' ' ' ' ( ( ` ` M c ` ' k.k.c.c.c.c.l.[ k.c.l.[ [ l.l.l.[ k.[ [ [ [ [ [ [ [ k.[ [ [ ' ' ' ' ' ' ' ( ` A A A F _ V d k / C ( A A A A A F ` ` C D _ ( ( A ( C d { ' [ ' [ [ [ [ [ ] ` [ [ ] ] ] ] ` ( C ( ( C C ( C D D D D D D D D D S C C C C C ` ` ` ` ` ` ` ` ` ` ` ` C C C C C C / h o o 6 g j ) _ ] ] ` ` ` ] ` ` ` ] ] ` ` ` ` ` D m V V C N V h O + 8.4X,X,X,X>X@., 0.6.+.^ +.+.+.+.....+.....@.@.Y I I K I K K K K K U W Y P ! 8 . w T P T ~ q X 8 hXVXMXNXBXNXGXPXPXPXPXPXPXPXPXPXPXPXPXPXPXPXPXPXPXPXPXPXPXPXPXPXPXPXPXPXPXPXPXPXPXPXPXPXPXPXPXPXPXPXPXPXPXPX",
"PXPXPXPXPXPXPXPXPXPXPXPXPXPXPXPXPXPXPXPXPXPXPXPXPXPXPXPXPXPXPXPXPXPXPXPXPXPXPXPXPXPXPXPXPXPXPXPXPXKXKXFXg.* #.8X,X9X3X#.: 6.*.$.#.*.*.*.$.#.#.#.+.T I I T @.+.+.#.+.T @.+.+.#.#.#.#.~ = = w U U I I :   # 6 h h s s h g g d d g s c [ c.c.} } [ c.[ [ [ [ [ } ] 6 O a }.H.v.v.n.c.c.c.c.v.n.c.c.v.c.v.c.c.c.c.c.} [ [ G A C d / ( ' ` ( ` ` ` ` ` F F F F ( C k V } c.k.l.l.l.l.l.l.l.' ' ` / i ` } c.l.[ c.c.c.c.c.k.k.' ' [ ' ' ' ' ` ' ' ( ` C k M ] ' c.c.c.c.c.c.l.k.k.k.l.[ [ [ [ [ [ l.k.[ ' k.k.[ [ [ [ [ [ ' ' ' ( ( ' ' ' ` A A A F _ C d d C / ( ( ` F ` ` ` A ` ` C C F A ` ( ( m B ' } ' ' [ [ [ [ [ [ ` [ ' ' ] ] ] ` C ( ( C C C C ( D D D D D D D D D D C C _ C C ` ` ` ` ` ` ` ] ` ` ( ( C V C C V V / h O o 6 g j ) _ ` ` ] ` ` ` ` ` ` ] ] ] ` ` ` ` C M C C C N V h O @ r.4X,X,X,X>XT , 0.6.+.^ +.+.+...+.+.+.+.^ +.~ U K I I I K K I T T W W ..T ! 8 X r T P T ~ q   8 hXVXMXNXBXNXGXPXPXPXPXPXPXPXPXPXPXPXPXPXPXPXPXPXPXPXPXPXPXPXPXPXPXPXPXPXPXPXPXPXPXPXPXPXPXPXPXPXPXPXPXPXPXPX",
"PXPXPXPXPXPXPXPXPXPXPXPXPXPXPXPXPXPXPXPXPXPXPXPXPXPXPXPXPXPXPXPXPXPXPXPXPXPXPXPXPXPXPXPXPXPXPXPXPXKXKXFXg.* #.8X,X4X3X$.: 6.*.#.*.*.*.*.#.*.*.$.#.+.+.+.+.#.+.#.@.T T #.+.+.+.#.#.#.~ = = w I I I I :   # 6 h h g h h s s d d g g V } [ c.c.[ [ c.l.[ [ [ [ c.] 6 O a (.H.v.v.n.c.c.c.c.v.v.c.c.c.c.c.c.c.c.l.c.c.[ [ F A C k / ( ( ( ` ` ` ` ` ` ` F F F C C k ` c.c.k.l.l.l.l.l.l.l.[ ` _ B p ] } c.c.[ } c.[ l.k.k.k.[ [ [ [ ' ' ' ` ` ' ' ( B k ` ' [ c.l.c.c.c.l.c.c.c.c.c.[ [ [ [ [ [ l.k.[ [ k.[ ' [ [ [ [ [ ' ' ' ' ' ' ' ' ( G ( ( ( / p p V ( C C ( F ` ` ` ` ( ` ` F C C C ( ( C k ` } ' ' ' [ [ [ [ [ [ [ ] { ] ] ' ` C C ( ( C C C C ( C C C D D D D C D D C C _ C C ` ` ] ] ] ] ] ] ` ` ( C C C C C V C / h O o 5 g j ) _ ` ] ] ] ` ` ` ` ` ` ` ` ] ` ` ` C M V V V N V h O @ i.4X,X,X,X-XT , i.6.^ ^ +.+.+.....+.+.+.W W ^ I K K I I K I T T T ..W T T ! 8 X r T P T ~ q o 8 hXVXMXNXBXNXGXPXPXPXPXPXPXPXPXPXPXPXPXPXPXPXPXPXPXPXPXPXPXPXPXPXPXPXPXPXPXPXPXPXPXPXPXPXPXPXPXPXPXPXPXPXPXPX",
"PXPXPXPXPXPXPXPXPXPXPXPXPXPXPXPXPXPXPXPXPXPXPXPXPXPXPXPXPXPXPXPXPXPXPXPXPXPXPXPXPXPXPXPXPXPXPXPXPXHXKXFXg.& #.8X4X4X3X$.: 6.*.#.*.*.$.#.#.*.#.#.#.+.+.+.#.#.+.W U T +.+.+.+.#.#.#.#.~ = = K U I I I :   # a h h h g g s s d s s g V [ l.c.c.l.[ l.l.[ [ [ l.[ ] 6 o a (.G.v.v.n.v.v.c.c.c.c.c.c.c.c.c.c.c.[ l.l.l.l.[ G ( C k / ( A A ' ` ( ` ( ` F F F D D M m ' c.c.c.l.l.l.l.l.l.[ [ ` ( k m ' } c.c.[ } } [ [ k.[ k.[ [ [ [ ' ' ' ` F ' A A p C ` ' [ l.l.l.l.k.k.c.c.c.c.c.c.l.[ [ [ l.k.k.k.k.k.k.[ [ [ [ ' ' ' ' ' ' ' ( ' ' ( A A ` _ d p V C ( F A A ( ` ` ` ` ( ( ` A A C C ( ( m m ' [ ' ' [ [ [ [ [ [ [ [ ] { ] ] ` C C C C C C C C C ` C C C _ D D D C C C C C D C C ` ` ] ] ] ] ] ] ` ` A C C V V C V C / h o o 5 g j / _ ` ] ] ` ` ` ` ` ` ` ` ` ` ` ` ` C m V M N N V h O @ i.4X,X,X,X-XT , 0.6.^ ^ ^ +.+.+.+.+.+.+...+.T T K K I I U T T W T W W ..T ! 8 X I W P T ~ q   8 hXVXMXNXBXNXGXPXPXPXPXPXPXPXPXPXPXPXPXPXPXPXPXPXPXPXPXPXPXPXPXPXPXPXPXPXPXPXPXPXPXPXPXPXPXPXPXPXPXPXPXPXPXPX",
"PXPXPXPXPXPXPXPXPXPXPXPXPXPXPXPXPXPXPXPXPXPXPXPXPXPXPXPXPXPXPXPXPXPXPXPXPXPXPXPXPXPXPXPXPXPXPXPXPXHXKXFXg.* %.8X4X4X3X$.: 6.*.#.*.*.$.#.#.#.*.*.$.#.#.#.#.+.W T T #.#.+.+.#.#.#.#.#.! = = K I I U I :   # a h s s s h s s d s g g c [ l.l.l.l.[ l.l.[ [ [ [ [ ` 6 O a (.G.v.v.c.v.v.c.c.c.c.c.c.c.c.c.c.l.[ l.l.l.[ [ G A C k ( ( ' ' ' ' ' ` ` ` A A C D C m V [ c.c.v.l.l.l.l.l.l.[ [ ] C d / { } c.c.[ } c.[ [ [ [ k.[ [ [ [ ' ' G F F ` ` m m ` ' ' k.k.l.[ [ [ k.c.l.[ k.k.k.[ [ [ [ k.k.[ k.k.k.k.[ [ [ ' ' ' ' ' ' ' ' ( ( ( A F ` / k d C V F F A A A A ( ( ( ( ( ( ( A A A C ( B p ` [ ' ' ' [ [ ' [ [ [ [ [ ] [ ] ] ` C C C C C C C C C C C C C C C C C C C C C C C V C ` ` ] ` ` ` ` ` ( C C C V V C C V C V h o o 6 a j / _ ` ] ] ] ] ] ` ` ` ` ` ` ` ` _ ` V m C V C N V h O + r.4X,X,X1X>XO., i.6.+.^ +.+.+...+.+...+.+.+.T ^ U K K K U T T W W W W ..T ! 8 X I W T +.~ q   8 hXVXMXNXBXNXGXPXPXPXPXPXPXPXPXPXPXPXPXPXPXPXPXPXPXPXPXPXPXPXPXPXPXPXPXPXPXPXPXPXPXPXPXPXPXPXPXPXPXPXPXPXPXPX",
"PXPXPXPXPXPXPXPXPXPXPXPXPXPXPXPXPXPXPXPXPXPXPXPXPXPXPXPXPXPXPXPXPXPXPXPXPXPXPXPXPXPXPXPXPXPXPXPXPXJXHXFXg.* %.8X4X4X3X+.: 6.*.#.$.*.#.#.#.#.$.#.#.+.#.#.#.#.+.+.+.+.+.+.+.+.#.+.#.#.~ = = K U U K K :   # 0 h h s s h g s s s s s c [ l.l.l.[ [ l.l.[ [ [ ' [ _ 6 O h ^.D.z.v.c.v.v.c.c.c.x.k.k.c.c.l.[ [ [ l.l.[ ' ' F A M d C ( ( ` ` ` ` F ` ` A A C C V k ( [ k.k.c.l.l.l.l.l.l.' ' ] M k _ ' ' [ [ [ [ } [ [ [ ' ' [ [ [ [ ' G G F ` ` C p _ ] ' [ [ [ k.' ' [ [ c.[ ' [ [ ' ' ' ' ' ' ' ' ' [ ' [ [ [ [ ' ' G ' ' ' ' ' A ( ( A ` ( d d V ( C A C C F A A A A A ( ( ( A A A A A C m B ' ' ' ' ' ' ] ' [ [ [ [ [ ] ] ] ] C V V V C V C C C C C C C C C C C V C C V C V C M C ` ` ` ` ` ` ` _ C V V C V V V C V M V h o + 6 a j ) _ ` ` ` ` ` ` ` ` ` ` ` ` ` _ _ _ M m C V V N V h + + r.4X,X,X1X>XY , a.6.+.^ +.+.+.+.+.+...+.+.^ ^ ^ T U U K T W ^ T W W W T T ! 8 X I W T W ~ q X 8 hXVXMXNXBXNXGXPXPXPXPXPXPXPXPXPXPXPXPXPXPXPXPXPXPXPXPXPXPXPXPXPXPXPXPXPXPXPXPXPXPXPXPXPXPXPXPXPXPXPXPXPXPXPX",
"PXPXPXPXPXPXPXPXPXPXPXPXPXPXPXPXPXPXPXPXPXPXPXPXPXPXPXPXPXPXPXPXPXPXPXPXPXPXPXPXPXPXPXPXPXPXPXPXPXKXKXFXg.% *.3X,X4X2XO.* 6.%.%.$.%.#.#.$.#.#.#.+.+.+.+.+.+.#.#.+.+.+.+.....+...+.#.! : 4 r U K K K ,   # h h h h h h h s s a a s v ] ] ] ] ] ] [ ] ] ] ] ] ] _ 6 o h ^.<.} [ { { { { { { { [ ] { { ] ] ] { { { ] { ] ` / V d V / _ _ _ _ _ _ _ _ S C C C M k _ ] ` ] [ ] ] ] ] ] ] ] ` ` p k ] ] _ ` ` ] ] ] ` ` ` ` ` ` ` ` ` ` F ` ` ` C p V { ` ` ] ] { ' { { { { { ] ] ] ] ] ] ] ] ] ] ` ] ] ` ` ` ] ] ` ` F F F F _ _ C C _ _ _ / k s b ) / / V ) ) C / / C V S C _ ( ( C C C C k d _ ` ` ` ` ` ` ` ` ` ` ` ` ` ` _ _ _ V V M V V V V V V V V V V V V V V V V V V V V V V V _ _ _ _ _ _ _ / V V V V V V V V V V V 0 o O < h h E _ _ _ _ _ _ _ _ _ _ _ _ _ _ _ _ V V V V V M V J h @ + a.4X,X,X,X>X^ , a.6.+.....+.+.+.+.+.@.@.@.T T T T T T T T @.@.T T T W P T ! 8 + U W W W ~ w X 8 hXVXMXBXBXNXGXPXPXPXPXPXPXPXPXPXPXPXPXPXPXPXPXPXPXPXPXPXPXPXPXPXPXPXPXPXPXPXPXPXPXPXPXPXPXPXPXPXPXPXPXPXPXPX",
"PXPXPXPXPXPXPXPXPXPXPXPXPXPXPXPXPXPXPXPXPXPXPXPXPXPXPXPXPXPXPXPXPXPXPXPXPXPXPXPXPXPXPXPXPXPXPXPXPXPXPXFXg.* *.4X,X,X2X#.* 6.$.#.$.#.#.#.$.$.$.#.#.#.#.#.#.+.#.#.+.+.+.+...+.+.+.+.#.! : 4 r U K Y r =     , < 5 5 5 < 6 5 5 5 5 < 0 H H H H H H H H H H L H H h :   : U H h h h H H H H H H H H H H H H H H H H H H H H H 0 6 0 h h h h h h h h h h h h h 6 6 H H l l H H H H H H H H h h 1 h H H H H H h h H H H H H H H H H H h h l h h a 6 H J H l l H l H H l h h h h h h h H H H H H H H H H H h H H H H H h h h h h h h h h h h 6 < 0 0 0 h h h h h H H H h h h h h h h h h h h 6 h R H H H J H H H H H H H H h h h h 0 0 h h h h h h h h h h h h h h h h h h h h h h h h h h h h h h h h h h 0 0 h h h h h h h h 4   o : 5 5 0 h h h h h h h h h h h h h h h h h 0 h h h h h h 6 o + 5.4X4X,X,X>X+., 9.6.....#.+...+.+.+.W W W W T T T T T W T T T T T T ....Y ! 8 + U W W W ~ w + 8 hXVXNXNXNXNXGXPXPXPXPXPXPXPXPXPXPXPXPXPXPXPXPXPXPXPXPXPXPXPXPXPXPXPXPXPXPXPXPXPXPXPXPXPXPXPXPXPXPXPXPXPXPXPX",
"PXPXPXPXPXPXPXPXPXPXPXPXPXPXPXPXPXPXPXPXPXPXPXPXPXPXPXPXPXPXPXPXPXPXPXPXPXPXPXPXPXPXPXPXPXPXPXPXPXKXKXFXg.= *.4X,X,X>X+.: 0.*.#.$.#.#.#.$.$.$.#.#.o.#.#.#.+.#.#.+.+.....+.+.+.+.+.+.Y : , r I I Y q &       X X     # X . . X   X X X X X X X X X X X X X X X X X     X X X X X # # X # # # X X X X X X X . . . X . . X . . . . . . .       X X X X X X X X . # # o o # # + X X X X X X X   X X X X X X X X X X X X X . . . X X X   + #       X X + + + + + + + o X X X X X X X X X X X X X X X X X X # # X X X X X X X X X X X X X X     X X X X X X X X       X X X X # # # X X X X X # X # + X # # # X X X X X X X . X X X X       X     X X .       X X X X   X X X X X X X X X X X X .     X X X X X X X X X X X X . .           X X X X X X X X X X X X X X   X X         o o o       8 8.|.>X3X:X$., 9.6.......#.+.......W W W W T T W T T T T T T T T T @...Y ! 8 + I P W ^ ~ w + 8 hXVXNXNXBXNXGXPXPXPXPXPXPXPXPXPXPXPXPXPXPXPXPXPXPXPXPXPXPXPXPXPXPXPXPXPXPXPXPXPXPXPXPXPXPXPXPXPXPXPXPXPXPXPX",
"PXPXPXPXPXPXPXPXPXPXPXPXPXPXPXPXPXPXPXPXPXPXPXPXPXPXPXPXPXPXPXPXPXPXPXPXPXPXPXPXPXPXPXPXPXPXPXPXPXPXJXFXh.= 6.8X,X,X>X#., 0.*.#.$.$.$.#.$.#.#.#.#.#.#.#.#.+.+.#.+.+.+.+.+.+.+.#.+.+.Y * = r r 0 4 & X . e r r e r  .5.5.5.5.5.5.5.5.5.5.5.5.5.5.5.5.5.5.5.5.5.5.5.5.5.5.5.y.y.5.y.y.5.5.5.5.5.5.5.5.5.5.5.5.y.5.5.5.y.y.y.y.y.y.y.y.y.y.y.y.y.y.5.5.5.y.y.y.y.y.y.y.y.y.y.5.5.5.5.5.5.5.5.5.5.y.y.y.y.y.y.y.y.y.y.y.y.y.y.y.y.5.5.5.y.5.5.5.5.5.y.5.5.5.y.y.y.y.y.5.5.5.y.y.y.5.y.y.y.5.5.5.5.5.y.y.y.y.y.5.5.5.5.5.5.5.5.5.5.5.5.5.5.5.5.5.5.y.y.y.5.y.y.5.5.5.5.5.5.5.5.5.5.5.5.5.5.5.5.5.y.5.5.5.5.5.5.5.5.5.5.5.5.5.5.5.5.5.5.5.5.5.5.y.y.y.5.5.5.5.5.5.5.5.5.5.5.5.5.5.5.5.5.5.5.5.5.5.5.5.5.y.y.y.y.5.5.5.5.5.5.5.5.y.y.5.5.5.5.5.5.5.5.5.5.5.5.5.5.5.5.5.5.5.5.5.5.5.5.5.5.5.5.5.e . . $ 5 K W r.O.5 a.0.#.+.+.+.+.W +...W W W T T T @.....T T T @.@.T T Y T ! ! 8 + I ~ W T ! w + 8 hXNXNXNXBXAXGXPXPXPXPXPXPXPXPXPXPXPXPXPXPXPXPXPXPXPXPXPXPXPXPXPXPXPXPXPXPXPXPXPXPXPXPXPXPXPXPXPXPXPXPXPXPXPX",
"PXPXPXPXPXPXPXPXPXPXPXPXPXPXPXPXPXPXPXPXPXPXPXPXPXPXPXPXPXPXPXPXPXPXPXPXPXPXPXPXPXPXPXPXPXPXPXPXPXPXPXFXg.# 5.fX3X3X-X*.4 5.*.#.#.#.#.+.$.%.#.#.#.%.%.%.%.+.+.%.O.+.@.%.%.%.%.&.O.O.r & % = + X % % 7 sXnXmXmXnXnXBXBXBXBXBXBXBXBXBXBXBXBXBXBXBXNXBXBXBXBXBXBXBXNXVXNXNXNXNXCXNXNXBXBXNXNXNXNXNXBXBXBXBXBXBXBXBXNXBXBXBXBXCXCXCXCXCXCXCXCXCXCXCXCXCXCXCXCXCXAXAXCXBXBXCXNXNXNXNXNXNXNXNXNXNXCXCXCXCXNXNXNXNXNXNXNXBXBXBXCXCXBXNXNXNXNXNXNXNXNXNXNXNXBXBXBXBXSXSXSXBXBXBXBXBXSXBXCXCXCXCXCXCXBXBXNXNXNXNXCXCXBXNXNXNXNXNXNXNXNXNXNXNXBXBXBXBXBXNXBXCXCXCXCXCXBXBXBXBXCXCXNXNXBXNXNXNXBXBXNXNXNXNXNXBXNXNXNXNXNXNXNXNXNXNXBXCXCXCXNXCXCXNXCXNXCXCXNXCXNXNXBXBXNXCXNXNXNXNXCXCXCXCXBXCXCXCXNXNXBXSXBXSXSXSXSXBXBXNXNXNXNXNXNXNXNXNXNXNXNXNXCXCXBXBXBXBXNXNXNXNXNXNXBXNXBXBXBXBXBXmXBXBXBXmXnXhX5.* X + + 4 * # ! Y Y Y @.O.+.+.O.+.@.! ! @.Y Y Y ~ ! ! Y Y Y ~ Y Y Y Y ! ! 8 & r ! Y ! ! q # 8 hXVXNXNXAXDXKXPXPXPXPXPXPXPXPXPXPXPXPXPXPXPXPXPXPXPXPXPXPXPXPXPXPXPXPXPXPXPXPXPXPXPXPXPXPXPXPXPXPXPXPXPXPXPX",
"PXPXPXPXPXPXPXPXPXPXPXPXPXPXPXPXPXPXPXPXPXPXPXPXPXPXPXPXPXPXPXPXPXPXPXPXPXPXPXPXPXPXPXPXPXPXPXPXPXPXKXFXg.= = +.[.#X:X5.= 5.5.%.%.+.&.&.%.%.%.+.+.+.O.+.O.O.~ ! Y r q 0 8 8 * + # + X . . % % 8  .hXBXDXKXHXPXPXPXPXPXPXPXPXPXPXPXPXKXKXKXKXKXKXKXKXKXKXKXKXKXHXKXKXKXKXKXKXPXPXKXPXPXPXKXKXPXPXPXPXPXPXPXPXPXPXPXPXPXPXKXKXKXKXKXKXJXKXPXPXKXKXPXKXKXKXKXPXPXPXPXPXPXPXPXPXPXPXKXKXKXKXKXKXPXKXHXHXHXHXHXKXKXKXPXPXPXPXPXPXPXPXKXPXKXPXPXPXKXKXPXPXKXKXPXPXPXPXPXPXPXPXPXPXPXPXPXPXPXPXPXPXPXPXPXPXPXPXPXPXPXPXPXPXPXPXKXKXKXPXPXPXPXKXKXKXKXHXHXHXHXPXPXPXPXPXPXPXPXPXKXHXHXPXKXPXPXPXKXKXKXKXJXKXKXKXKXKXKXPXPXKXKXKXPXHXKXHXKXHXHXPXKXPXPXPXPXPXPXPXPXKXKXKXKXKXKXPXPXKXKXHXHXKXPXPXPXPXPXPXPXPXPXPXPXPXPXPXPXPXKXKXHXKXKXKXKXKXKXKXKXKXHXHXHXHXHXHXHXHXHXHXHXKXKXHXKXKXKXKXKXKXHXHXGXGXAXnX*Xr 8 = = % = # & + & & * 4 8 8 e w r ! Y ~ O.! O.O.@.@.O.@.@.@.Y Y ! ! 8 * Y O.O.O.r 8 X 8 hXAXAXDXJXPXPXPXPXPXPXPXPXPXPXPXPXPXPXPXPXPXPXPXPXPXPXPXPXPXPXPXPXPXPXPXPXPXPXPXPXPXPXPXPXPXPXPXPXPXPXPXPXPX",
"PXPXPXPXPXPXPXPXPXPXPXPXPXPXPXPXPXPXPXPXPXPXPXPXPXPXPXPXPXPXPXPXPXPXPXPXPXPXPXPXPXPXPXPXPXPXPXPXPXPXPXGXhX .= + & * 4 * X e 8 8 8 8 8 4 8 4 , , * * & & + + + + X % % % % & * = 8 e e  .5.h.kXBXDXFXJXPXKXKXPXPXPXPXPXPXPXPXPXPXPXPXPXPXPXPXPXPXPXPXPXPXPXPXPXPXPXPXPXPXPXPXPXPXPXPXPXPXPXPXPXPXPXPXPXPXPXPXPXPXPXPXPXPXPXPXPXPXPXPXPXPXPXPXPXPXPXPXPXPXPXPXPXPXPXPXPXPXPXPXPXPXPXPXPXPXPXPXPXPXPXPXPXKXHXPXPXPXPXPXPXPXPXPXPXPXPXPXPXPXPXPXPXPXPXPXKXKXPXPXPXPXPXPXPXPXPXPXPXPXPXPXPXPXPXPXPXPXPXPXPXPXPXPXPXPXPXPXPXPXPXPXPXPXPXPXPXPXPXPXPXPXPXPXPXPXPXPXPXPXPXPXPXPXPXPXPXPXPXPXPXPXPXPXPXPXPXPXPXPXPXPXPXPXPXPXPXPXPXPXPXPXPXPXPXPXPXPXPXPXPXPXPXPXPXPXPXPXPXPXPXPXPXPXPXPXPXPXPXPXPXPXPXPXPXPXKXKXKXPXPXPXPXPXPXPXPXPXPXPXPXPXPXPXPXPXPXPXPXPXPXPXPXPXPXPXKXPXPXPXPXPXPXPXKXKXKXHXHXPXJXGXDXDXBXhXg.5.5.r e 8 = * % % X X X X X X X X + & * * 4 5 8 8 8 0 0 0 q e 4 * 8 8 = + X # = 5.kXGXHXKXPXPXPXPXPXPXPXPXPXPXPXPXPXPXPXPXPXPXPXPXPXPXPXPXPXPXPXPXPXPXPXPXPXPXPXPXPXPXPXPXPXPXPXPXPXPXPXPXPXPX",
"PXPXPXPXPXPXPXPXPXPXPXPXPXPXPXPXPXPXPXPXPXPXPXPXPXPXPXPXPXPXPXPXPXPXPXPXPXPXPXPXPXPXPXPXPXPXPXPXPXPXPXPXFXkXpXy.5.e 8 = # % % % % % % % % % % % & = = 8 e e r O.5.5.y.y.g.h.pXsXhXkXnXSXDXGXJXPXPXPXPXPXPXPXPXPXPXPXPXPXPXPXPXPXPXPXPXPXPXPXPXPXPXPXPXPXPXPXPXPXPXPXPXPXPXPXPXPXPXPXPXPXPXPXPXPXPXPXPXPXPXPXPXPXPXPXPXPXPXPXPXPXPXPXPXPXPXPXPXPXPXPXPXPXPXPXPXPXPXPXPXPXPXPXPXPXPXPXPXPXPXPXPXPXPXPXPXPXPXPXPXPXPXPXPXPXPXPXPXPXPXPXPXPXPXPXPXPXPXPXPXPXPXPXPXPXPXPXPXPXPXPXPXPXPXPXPXPXPXPXPXPXPXPXPXPXPXPXPXPXPXPXPXPXPXPXPXPXPXPXPXPXPXPXPXPXPXPXPXPXPXPXPXPXPXPXPXPXPXPXPXPXPXPXPXPXPXPXPXPXPXPXPXPXPXPXPXPXPXPXPXPXPXPXPXPXPXPXPXPXPXPXPXPXPXPXPXPXPXPXPXPXPXPXPXPXPXPXPXPXPXPXPXPXPXPXPXPXPXPXPXPXPXPXPXPXPXPXPXPXPXPXPXPXPXPXPXPXPXPXPXPXPXPXPXPXPXPXPXPXPXPXPXPXPXPXPXPXPXPXPXPXPXPXPXPXPXPXJXJXGXDXAXnXkXhXdXh.g.y.y.5.5. .e e 7 = = % % % # % % % X X X . . % % % % = = e 5.y.sXvXGXHXKXKXPXPXPXPXPXPXPXPXPXPXPXPXPXPXPXPXPXPXPXPXPXPXPXPXPXPXPXPXPXPXPXPXPXPXPXPXPXPXPXPXPXPXPXPXPXPXPXPXPXPX",
"PXPXPXPXPXPXPXPXPXPXPXPXPXPXPXPXPXPXPXPXPXPXPXPXPXPXPXPXPXPXPXPXPXPXPXPXPXPXPXPXPXPXPXPXPXPXPXPXPXPXPXPXPXKXFXDXBXvXkXhXhXdXsX;X;X;XsXsXdXdXdXhXhXhXkXkXkXkXnXnXmXBXAXDXFXFXJXJXJXJXJXPXJXPXPXPXPXPXPXPXPXPXPXPXPXPXPXPXPXPXPXPXPXPXPXPXPXPXPXPXPXPXPXPXPXPXPXPXPXPXPXPXPXPXPXPXPXPXPXPXPXPXPXPXPXPXPXPXPXPXPXPXPXPXPXPXPXPXPXPXPXPXPXPXPXPXPXPXPXPXPXPXPXPXPXPXPXPXPXPXPXPXPXPXPXPXPXPXPXPXPXPXPXPXPXPXPXPXPXPXPXPXPXPXPXPXPXPXPXPXPXPXPXPXPXPXPXPXPXPXPXPXPXPXPXPXPXPXPXPXPXPXPXPXPXPXPXPXPXPXPXPXPXPXPXPXPXPXPXPXPXPXPXPXPXPXPXPXPXPXPXPXPXPXPXPXPXPXPXPXPXPXPXPXPXPXPXPXPXPXPXPXPXPXPXPXPXPXPXPXPXPXPXPXPXPXPXPXPXPXPXPXPXPXPXPXPXPXPXPXPXPXPXPXPXPXPXPXPXPXPXPXPXPXPXPXPXPXPXPXPXPXPXPXPXPXPXPXPXPXPXPXPXPXPXPXPXPXPXPXPXPXPXPXPXPXPXPXPXPXPXPXPXPXPXPXPXPXPXPXPXPXPXPXPXPXPXPXPXPXPXPXPXPXPXPXPXPXPXPXJXJXJXJXJXGXFXDXAXBXmXnXvXkXkXkXhXhXhXdXdX*Xh.g.y.y.y.y.y.y.g.;XdXhXkXkXmXDXGXJXKXHXKXPXPXPXPXPXPXPXPXPXPXPXPXPXPXPXPXPXPXPXPXPXPXPXPXPXPXPXPXPXPXPXPXPXPXPXPXPXPXPXPXPXPXPXPXPXPXPXPXPXPXPX",
"PXPXPXPXPXPXPXPXPXPXPXPXPXPXPXPXPXPXPXPXPXPXPXPXPXPXPXPXPXPXPXPXPXPXPXPXPXPXPXPXPXPXPXPXPXPXPXPXPXPXPXPXPXPXPXJXJXJXGXGXDXDXDXDXDXDXDXDXDXDXDXDXFXFXGXJXGXGXGXJXGXGXHXJXJXKXJXPXPXPXPXPXPXPXPXPXPXPXPXPXPXPXPXPXPXPXPXPXPXPXPXPXPXPXPXPXPXPXPXPXPXPXPXPXPXPXPXPXPXPXPXPXPXPXPXPXPXPXPXPXPXPXPXPXPXPXPXPXPXPXPXPXPXPXPXPXPXPXPXPXPXPXPXPXPXPXPXPXPXPXPXPXPXPXPXPXPXPXPXPXPXPXPXPXPXPXPXPXPXPXPXPXPXPXPXPXPXPXPXPXPXPXPXPXPXPXPXPXPXPXPXPXPXPXPXPXPXPXPXPXPXPXPXPXPXPXPXPXPXPXPXPXPXPXPXPXPXPXPXPXPXPXPXPXPXPXPXPXPXPXPXPXPXPXPXPXPXPXPXPXPXPXPXPXPXPXPXPXPXPXPXPXPXPXPXPXPXPXPXPXPXPXPXPXPXPXPXPXPXPXPXPXPXPXPXPXPXPXPXPXPXPXPXPXPXPXPXPXPXPXPXPXPXPXPXPXPXPXPXPXPXPXPXPXPXPXPXPXPXPXPXPXPXPXPXPXPXPXPXPXPXPXPXPXPXPXPXPXPXPXPXPXPXPXPXPXPXPXPXPXPXPXPXPXPXPXPXPXPXPXPXPXPXPXPXPXPXPXPXPXPXPXPXPXPXPXPXPXPXPXPXPXKXKXPXKXJXJXJXJXJXJXGXJXGXGXDXFXGXFXDXDXAXAXSXSXCXNXSXSXSXDXDXDXFXJXJXJXJXPXKXKXKXKXPXPXPXPXPXPXPXPXPXPXPXPXPXPXPXPXPXPXPXPXPXPXPXPXPXPXPXPXPXPXPXPXPXPXPXPXPXPXPXPXPXPXPXPXPXPXPXPXPXPX",
"PXPXPXPXPXPXPXPXPXPXPXPXPXPXPXPXPXPXPXPXPXPXPXPXPXPXPXPXPXPXPXPXPXPXPXPXPXPXPXPXPXPXPXPXPXPXPXPXPXPXPXPXPXPXPXPXPXPXPXPXPXPXPXPXKXKXKXKXKXKXKXKXPXPXPXPXPXPXPXPXKXKXKXKXPXPXPXPXPXPXPXPXPXPXPXPXPXPXPXPXPXPXPXPXPXPXPXPXPXPXPXPXPXPXPXPXPXPXPXPXPXPXPXPXPXPXPXPXPXPXPXPXPXPXPXPXPXPXPXPXPXPXPXPXPXPXPXPXPXPXPXPXPXPXPXPXPXPXPXPXPXPXPXPXPXPXPXPXPXPXPXPXPXPXPXPXPXPXPXPXPXPXPXPXPXPXPXPXPXPXPXPXPXPXPXPXPXPXPXPXPXPXPXPXPXPXPXPXPXPXPXPXPXPXPXPXPXPXPXPXPXPXPXPXPXPXPXPXPXPXPXPXPXPXPXPXPXPXPXPXPXPXPXPXPXPXPXPXPXPXPXPXPXPXPXPXPXPXPXPXPXPXPXPXPXPXPXPXPXPXPXPXPXPXPXPXPXPXPXPXPXPXPXPXPXPXPXPXPXPXPXPXPXPXPXPXPXPXPXPXPXPXPXPXPXPXPXPXPXPXPXPXPXPXPXPXPXPXPXPXPXPXPXPXPXPXPXPXPXPXPXPXPXPXPXPXPXPXPXPXPXPXPXPXPXPXPXPXPXPXPXPXPXPXPXPXPXPXPXPXPXPXPXPXPXPXPXPXPXPXPXPXPXPXPXPXPXPXPXPXPXPXPXPXPXPXPXPXPXPXPXPXPXPXPXPXPXPXPXPXPXPXPXPXPXPXPXJXKXKXHXHXHXHXHXHXHXKXKXKXPXPXKXPXPXKXJXKXPXPXKXPXPXPXPXPXPXPXPXPXPXPXPXPXPXPXPXPXPXPXPXPXPXPXPXPXPXPXPXPXPXPXPXPXPXPXPXPXPXPXPXPXPXPXPXPXPXPXPXPXPXPXPXPX",
"PXPXPXPXPXPXPXPXPXPXPXPXPXPXPXPXPXPXPXPXPXPXPXPXPXPXPXPXPXPXPXPXPXPXPXPXPXPXPXPXPXPXPXPXPXPXPXPXPXPXPXPXPXPXPXPXPXPXPXPXPXPXPXPXPXPXPXPXPXPXPXPXPXPXPXPXPXPXPXPXPXKXKXPXPXPXPXPXPXPXPXPXPXPXPXPXPXPXPXPXPXPXPXPXPXPXPXPXPXPXPXPXPXPXPXPXPXPXPXPXPXPXPXPXPXPXPXPXPXPXPXPXPXPXPXPXPXPXPXPXPXPXPXPXPXPXPXPXPXPXPXPXPXPXPXPXPXPXPXPXPXPXPXPXPXPXPXPXPXPXPXPXPXPXPXPXPXPXPXPXPXPXPXPXPXPXPXPXPXPXPXPXPXPXPXPXPXPXPXPXPXPXPXPXPXPXPXPXPXPXPXPXPXPXPXPXPXPXPXPXPXPXPXPXPXPXPXPXPXPXPXPXPXPXPXPXPXPXPXPXPXPXPXPXPXPXPXPXPXPXPXPXPXPXPXPXPXPXPXPXPXPXPXPXPXPXPXPXPXPXPXPXPXPXPXPXPXPXPXPXPXPXPXPXPXPXPXPXPXPXPXPXPXPXPXPXPXPXPXPXPXPXPXPXPXPXPXPXPXPXPXPXPXPXPXPXPXPXPXPXPXPXPXPXPXPXPXPXPXPXPXPXPXPXPXPXPXPXPXPXPXPXPXPXPXPXPXPXPXPXPXPXPXPXPXPXPXPXPXPXPXPXPXPXPXPXPXPXPXPXPXPXPXPXPXPXPXPXPXPXPXPXPXPXPXPXPXPXPXPXPXPXPXPXPXPXPXPXPXPXPXPXPXPXPXPXPXPXPXPXPXPXPXPXPXPXPXPXPXPXPXPXPXPXPXPXPXPXPXPXPXPXPXPXPXPXPXPXPXPXPXPXPXPXPXPXPXPXPXPXPXPXPXPXPXPXPXPXPXPXPXPXPXPXPXPXPXPXPXPXPXPXPXPXPXPXPXPXPXPXPXPXPXPX",
"PXPXPXPXPXPXPXPXPXPXPXPXPXPXPXPXPXPXPXPXPXPXPXPXPXPXPXPXPXPXPXPXPXPXPXPXPXPXPXPXPXPXPXPXPXPXPXPXPXPXPXPXPXPXPXPXPXPXPXPXPXPXPXPXPXPXPXPXPXPXPXPXPXPXPXPXPXPXPXPXPXPXPXPXPXPXPXPXPXPXPXPXPXPXPXPXPXPXPXPXPXPXPXPXPXPXPXPXPXPXPXPXPXPXPXPXPXPXPXPXPXPXPXPXPXPXPXPXPXPXPXPXPXPXPXPXPXPXPXPXPXPXPXPXPXPXPXPXPXPXPXPXPXPXPXPXPXPXPXPXPXPXPXPXPXPXPXPXPXPXPXPXPXPXPXPXPXPXPXPXPXPXPXPXPXPXPXPXPXPXPXPXPXPXPXPXPXPXPXPXPXPXPXPXPXPXPXPXPXPXPXPXPXPXPXPXPXPXPXPXPXPXPXPXPXPXPXPXPXPXPXPXPXPXPXPXPXPXPXPXPXPXPXPXPXPXPXPXPXPXPXPXPXPXPXPXPXPXPXPXPXPXPXPXPXPXPXPXPXPXPXPXPXPXPXPXPXPXPXPXPXPXPXPXPXPXPXPXPXPXPXPXPXPXPXPXPXPXPXPXPXPXPXPXPXPXPXPXPXPXPXPXPXPXPXPXPXPXPXPXPXPXPXPXPXPXPXPXPXPXPXPXPXPXPXPXPXPXPXPXPXPXPXPXPXPXPXPXPXPXPXPXPXPXPXPXPXPXPXPXPXPXPXPXPXPXPXPXPXPXPXPXPXPXPXPXPXPXPXPXPXPXPXPXPXPXPXPXPXPXPXPXPXPXPXPXPXPXPXPXPXPXPXPXPXPXPXPXPXPXPXPXPXPXPXPXPXPXPXPXPXPXPXPXPXPXPXPXPXPXPXPXPXPXPXPXPXPXPXPXPXPXPXPXPXPXPXPXPXPXPXPXPXPXPXPXPXPXPXPXPXPXPXPXPXPXPXPXPXPXPXPXPXPXPXPXPXPXPXPXPXPXPXPX",
"PXPXPXPXPXPXPXPXPXPXPXPXPXPXPXPXPXPXPXPXPXPXPXPXPXPXPXPXPXPXPXPXPXPXPXPXPXPXPXPXPXPXPXPXPXPXPXPXPXPXPXPXPXPXPXPXPXPXPXPXPXPXPXPXPXPXPXPXPXPXPXPXPXPXPXPXPXPXPXPXPXPXPXPXPXPXPXPXPXPXPXPXPXPXPXPXPXPXPXPXPXPXPXPXPXPXPXPXPXPXPXPXPXPXPXPXPXPXPXPXPXPXPXPXPXPXPXPXPXPXPXPXPXPXPXPXPXPXPXPXPXPXPXPXPXPXPXPXPXPXPXPXPXPXPXPXPXPXPXPXPXPXPXPXPXPXPXPXPXPXPXPXPXPXPXPXPXPXPXPXPXPXPXPXPXPXPXPXPXPXPXPXPXPXPXPXPXPXPXPXPXPXPXPXPXPXPXPXPXPXPXPXPXPXPXPXPXPXPXPXPXPXPXPXPXPXPXPXPXPXPXPXPXPXPXPXPXPXPXPXPXPXPXPXPXPXPXPXPXPXPXPXPXPXPXPXPXPXPXPXPXPXPXPXPXPXPXPXPXPXPXPXPXPXPXPXPXPXPXPXPXPXPXPXPXPXPXPXPXPXPXPXPXPXPXPXPXPXPXPXPXPXPXPXPXPXPXPXPXPXPXPXPXPXPXPXPXPXPXPXPXPXPXPXPXPXPXPXPXPXPXPXPXPXPXPXPXPXPXPXPXPXPXPXPXPXPXPXPXPXPXPXPXPXPXPXPXPXPXPXPXPXPXPXPXPXPXPXPXPXPXPXPXPXPXPXPXPXPXPXPXPXPXPXPXPXPXPXPXPXPXPXPXPXPXPXPXPXPXPXPXPXPXPXPXPXPXPXPXPXPXPXPXPXPXPXPXPXPXPXPXPXPXPXPXPXPXPXPXPXPXPXPXPXPXPXPXPXPXPXPXPXPXPXPXPXPXPXPXPXPXPXPXPXPXPXPXPXPXPXPXPXPXPXPXPXPXPXPXPXPXPXPXPXPXPXPXPXPXPXPXPXPXPX",
"PXPXPXPXPXPXPXPXPXPXPXPXPXPXPXPXPXPXPXPXPXPXPXPXPXPXPXPXPXPXPXPXPXPXPXPXPXPXPXPXPXPXPXPXPXPXPXPXPXPXPXPXPXPXPXPXPXPXPXPXPXPXPXPXPXPXPXPXPXPXPXPXPXPXPXPXPXPXPXPXPXPXPXPXPXPXPXPXPXPXPXPXPXPXPXPXPXPXPXPXPXPXPXPXPXPXPXPXPXPXPXPXPXPXPXPXPXPXPXPXPXPXPXPXPXPXPXPXPXPXPXPXPXPXPXPXPXPXPXPXPXPXPXPXPXPXPXPXPXPXPXPXPXPXPXPXPXPXPXPXPXPXPXPXPXPXPXPXPXPXPXPXPXPXPXPXPXPXPXPXPXPXPXPXPXPXPXPXPXPXPXPXPXPXPXPXPXPXPXPXPXPXPXPXPXPXPXPXPXPXPXPXPXPXPXPXPXPXPXPXPXPXPXPXPXPXPXPXPXPXPXPXPXPXPXPXPXPXPXPXPXPXPXPXPXPXPXPXPXPXPXPXPXPXPXPXPXPXPXPXPXPXPXPXPXPXPXPXPXPXPXPXPXPXPXPXPXPXPXPXPXPXPXPXPXPXPXPXPXPXPXPXPXPXPXPXPXPXPXPXPXPXPXPXPXPXPXPXPXPXPXPXPXPXPXPXPXPXPXPXPXPXPXPXPXPXPXPXPXPXPXPXPXPXPXPXPXPXPXPXPXPXPXPXPXPXPXPXPXPXPXPXPXPXPXPXPXPXPXPXPXPXPXPXPXPXPXPXPXPXPXPXPXPXPXPXPXPXPXPXPXPXPXPXPXPXPXPXPXPXPXPXPXPXPXPXPXPXPXPXPXPXPXPXPXPXPXPXPXPXPXPXPXPXPXPXPXPXPXPXPXPXPXPXPXPXPXPXPXPXPXPXPXPXPXPXPXPXPXPXPXPXPXPXPXPXPXPXPXPXPXPXPXPXPXPXPXPXPXPXPXPXPXPXPXPXPXPXPXPXPXPXPXPXPXPXPXPXPXPXPXPXPXPX",
"PXPXPXPXPXPXPXPXPXPXPXPXPXPXPXPXPXPXPXPXPXPXPXPXPXPXPXPXPXPXPXPXPXPXPXPXPXPXPXPXPXPXPXPXPXPXPXPXPXPXPXPXPXPXPXPXPXPXPXPXPXPXPXPXPXPXPXPXPXPXPXPXPXPXPXPXPXPXPXPXPXPXPXPXPXPXPXPXPXPXPXPXPXPXPXPXPXPXPXPXPXPXPXPXPXPXPXPXPXPXPXPXPXPXPXPXPXPXPXPXPXPXPXPXPXPXPXPXPXPXPXPXPXPXPXPXPXPXPXPXPXPXPXPXPXPXPXPXPXPXPXPXPXPXPXPXPXPXPXPXPXPXPXPXPXPXPXPXPXPXPXPXPXPXPXPXPXPXPXPXPXPXPXPXPXPXPXPXPXPXPXPXPXPXPXPXPXPXPXPXPXPXPXPXPXPXPXPXPXPXPXPXPXPXPXPXPXPXPXPXPXPXPXPXPXPXPXPXPXPXPXPXPXPXPXPXPXPXPXPXPXPXPXPXPXPXPXPXPXPXPXPXPXPXPXPXPXPXPXPXPXPXPXPXPXPXPXPXPXPXPXPXPXPXPXPXPXPXPXPXPXPXPXPXPXPXPXPXPXPXPXPXPXPXPXPXPXPXPXPXPXPXPXPXPXPXPXPXPXPXPXPXPXPXPXPXPXPXPXPXPXPXPXPXPXPXPXPXPXPXPXPXPXPXPXPXPXPXPXPXPXPXPXPXPXPXPXPXPXPXPXPXPXPXPXPXPXPXPXPXPXPXPXPXPXPXPXPXPXPXPXPXPXPXPXPXPXPXPXPXPXPXPXPXPXPXPXPXPXPXPXPXPXPXPXPXPXPXPXPXPXPXPXPXPXPXPXPXPXPXPXPXPXPXPXPXPXPXPXPXPXPXPXPXPXPXPXPXPXPXPXPXPXPXPXPXPXPXPXPXPXPXPXPXPXPXPXPXPXPXPXPXPXPXPXPXPXPXPXPXPXPXPXPXPXPXPXPXPXPXPXPXPXPXPXPXPXPXPXPXPXPXPXPX",
"PXPXPXPXPXPXPXPXPXPXPXPXPXPXPXPXPXPXPXPXPXPXPXPXPXPXPXPXPXPXPXPXPXPXPXPXPXPXPXPXPXPXPXPXPXPXPXPXPXPXPXPXPXPXPXPXPXPXPXPXPXPXPXPXPXPXPXPXPXPXPXPXPXPXPXPXPXPXPXPXPXPXPXPXPXPXPXPXPXPXPXPXPXPXPXPXPXPXPXPXPXPXPXPXPXPXPXPXPXPXPXPXPXPXPXPXPXPXPXPXPXPXPXPXPXPXPXPXPXPXPXPXPXPXPXPXPXPXPXPXPXPXPXPXPXPXPXPXPXPXPXPXPXPXPXPXPXPXPXPXPXPXPXPXPXPXPXPXPXPXPXPXPXPXPXPXPXPXPXPXPXPXPXPXPXPXPXPXPXPXPXPXPXPXPXPXPXPXPXPXPXPXPXPXPXPXPXPXPXPXPXPXPXPXPXPXPXPXPXPXPXPXPXPXPXPXPXPXPXPXPXPXPXPXPXPXPXPXPXPXPXPXPXPXPXPXPXPXPXPXPXPXPXPXPXPXPXPXPXPXPXPXPXPXPXPXPXPXPXPXPXPXPXPXPXPXPXPXPXPXPXPXPXPXPXPXPXPXPXPXPXPXPXPXPXPXPXPXPXPXPXPXPXPXPXPXPXPXPXPXPXPXPXPXPXPXPXPXPXPXPXPXPXPXPXPXPXPXPXPXPXPXPXPXPXPXPXPXPXPXPXPXPXPXPXPXPXPXPXPXPXPXPXPXPXPXPXPXPXPXPXPXPXPXPXPXPXPXPXPXPXPXPXPXPXPXPXPXPXPXPXPXPXPXPXPXPXPXPXPXPXPXPXPXPXPXPXPXPXPXPXPXPXPXPXPXPXPXPXPXPXPXPXPXPXPXPXPXPXPXPXPXPXPXPXPXPXPXPXPXPXPXPXPXPXPXPXPXPXPXPXPXPXPXPXPXPXPXPXPXPXPXPXPXPXPXPXPXPXPXPXPXPXPXPXPXPXPXPXPXPXPXPXPXPXPXPXPXPXPXPXPXPXPX",
"PXPXPXPXPXPXPXPXPXPXPXPXPXPXPXPXPXPXPXPXPXPXPXPXPXPXPXPXPXPXPXPXPXPXPXPXPXPXPXPXPXPXPXPXPXPXPXPXPXPXPXPXPXPXPXPXPXPXPXPXPXPXPXPXPXPXPXPXPXPXPXPXPXPXPXPXPXPXPXPXPXPXPXPXPXPXPXPXPXPXPXPXPXPXPXPXPXPXPXPXPXPXPXPXPXPXPXPXPXPXPXPXPXPXPXPXPXPXPXPXPXPXPXPXPXPXPXPXPXPXPXPXPXPXPXPXPXPXPXPXPXPXPXPXPXPXPXPXPXPXPXPXPXPXPXPXPXPXPXPXPXPXPXPXPXPXPXPXPXPXPXPXPXPXPXPXPXPXPXPXPXPXPXPXPXPXPXPXPXPXPXPXPXPXPXPXPXPXPXPXPXPXPXPXPXPXPXPXPXPXPXPXPXPXPXPXPXPXPXPXPXPXPXPXPXPXPXPXPXPXPXPXPXPXPXPXPXPXPXPXPXPXPXPXPXPXPXPXPXPXPXPXPXPXPXPXPXPXPXPXPXPXPXPXPXPXPXPXPXPXPXPXPXPXPXPXPXPXPXPXPXPXPXPXPXPXPXPXPXPXPXPXPXPXPXPXPXPXPXPXPXPXPXPXPXPXPXPXPXPXPXPXPXPXPXPXPXPXPXPXPXPXPXPXPXPXPXPXPXPXPXPXPXPXPXPXPXPXPXPXPXPXPXPXPXPXPXPXPXPXPXPXPXPXPXPXPXPXPXPXPXPXPXPXPXPXPXPXPXPXPXPXPXPXPXPXPXPXPXPXPXPXPXPXPXPXPXPXPXPXPXPXPXPXPXPXPXPXPXPXPXPXPXPXPXPXPXPXPXPXPXPXPXPXPXPXPXPXPXPXPXPXPXPXPXPXPXPXPXPXPXPXPXPXPXPXPXPXPXPXPXPXPXPXPXPXPXPXPXPXPXPXPXPXPXPXPXPXPXPXPXPXPXPXPXPXPXPXPXPXPXPXPXPXPXPXPXPXPXPXPXPXPXPX",
"PXPXPXPXPXPXPXPXPXPXPXPXPXPXPXPXPXPXPXPXPXPXPXPXPXPXPXPXPXPXPXPXPXPXPXPXPXPXPXPXPXPXPXPXPXPXPXPXPXPXPXPXPXPXPXPXPXPXPXPXPXPXPXPXPXPXPXPXPXPXPXPXPXPXPXPXPXPXPXPXPXPXPXPXPXPXPXPXPXPXPXPXPXPXPXPXPXPXPXPXPXPXPXPXPXPXPXPXPXPXPXPXPXPXPXPXPXPXPXPXPXPXPXPXPXPXPXPXPXPXPXPXPXPXPXPXPXPXPXPXPXPXPXPXPXPXPXPXPXPXPXPXPXPXPXPXPXPXPXPXPXPXPXPXPXPXPXPXPXPXPXPXPXPXPXPXPXPXPXPXPXPXPXPXPXPXPXPXPXPXPXPXPXPXPXPXPXPXPXPXPXPXPXPXPXPXPXPXPXPXPXPXPXPXPXPXPXPXPXPXPXPXPXPXPXPXPXPXPXPXPXPXPXPXPXPXPXPXPXPXPXPXPXPXPXPXPXPXPXPXPXPXPXPXPXPXPXPXPXPXPXPXPXPXPXPXPXPXPXPXPXPXPXPXPXPXPXPXPXPXPXPXPXPXPXPXPXPXPXPXPXPXPXPXPXPXPXPXPXPXPXPXPXPXPXPXPXPXPXPXPXPXPXPXPXPXPXPXPXPXPXPXPXPXPXPXPXPXPXPXPXPXPXPXPXPXPXPXPXPXPXPXPXPXPXPXPXPXPXPXPXPXPXPXPXPXPXPXPXPXPXPXPXPXPXPXPXPXPXPXPXPXPXPXPXPXPXPXPXPXPXPXPXPXPXPXPXPXPXPXPXPXPXPXPXPXPXPXPXPXPXPXPXPXPXPXPXPXPXPXPXPXPXPXPXPXPXPXPXPXPXPXPXPXPXPXPXPXPXPXPXPXPXPXPXPXPXPXPXPXPXPXPXPXPXPXPXPXPXPXPXPXPXPXPXPXPXPXPXPXPXPXPXPXPXPXPXPXPXPXPXPXPXPXPXPXPXPXPXPXPXPXPXPX",
"PXPXPXPXPXPXPXPXPXPXPXPXPXPXPXPXPXPXPXPXPXPXPXPXPXPXPXPXPXPXPXPXPXPXPXPXPXPXPXPXPXPXPXPXPXPXPXPXPXPXPXPXPXPXPXPXPXPXPXPXPXPXPXPXPXPXPXPXPXPXPXPXPXPXPXPXPXPXPXPXPXPXPXPXPXPXPXPXPXPXPXPXPXPXPXPXPXPXPXPXPXPXPXPXPXPXPXPXPXPXPXPXPXPXPXPXPXPXPXPXPXPXPXPXPXPXPXPXPXPXPXPXPXPXPXPXPXPXPXPXPXPXPXPXPXPXPXPXPXPXPXPXPXPXPXPXPXPXPXPXPXPXPXPXPXPXPXPXPXPXPXPXPXPXPXPXPXPXPXPXPXPXPXPXPXPXPXPXPXPXPXPXPXPXPXPXPXPXPXPXPXPXPXPXPXPXPXPXPXPXPXPXPXPXPXPXPXPXPXPXPXPXPXPXPXPXPXPXPXPXPXPXPXPXPXPXPXPXPXPXPXPXPXPXPXPXPXPXPXPXPXPXPXPXPXPXPXPXPXPXPXPXPXPXPXPXPXPXPXPXPXPXPXPXPXPXPXPXPXPXPXPXPXPXPXPXPXPXPXPXPXPXPXPXPXPXPXPXPXPXPXPXPXPXPXPXPXPXPXPXPXPXPXPXPXPXPXPXPXPXPXPXPXPXPXPXPXPXPXPXPXPXPXPXPXPXPXPXPXPXPXPXPXPXPXPXPXPXPXPXPXPXPXPXPXPXPXPXPXPXPXPXPXPXPXPXPXPXPXPXPXPXPXPXPXPXPXPXPXPXPXPXPXPXPXPXPXPXPXPXPXPXPXPXPXPXPXPXPXPXPXPXPXPXPXPXPXPXPXPXPXPXPXPXPXPXPXPXPXPXPXPXPXPXPXPXPXPXPXPXPXPXPXPXPXPXPXPXPXPXPXPXPXPXPXPXPXPXPXPXPXPXPXPXPXPXPXPXPXPXPXPXPXPXPXPXPXPXPXPXPXPXPXPXPXPXPXPXPXPXPXPXPXPX",
"PXPXPXPXPXPXPXPXPXPXPXPXPXPXPXPXPXPXPXPXPXPXPXPXPXPXPXPXPXPXPXPXPXPXPXPXPXPXPXPXPXPXPXPXPXPXPXPXPXPXPXPXPXPXPXPXPXPXPXPXPXPXPXPXPXPXPXPXPXPXPXPXPXPXPXPXPXPXPXPXPXPXPXPXPXPXPXPXPXPXPXPXPXPXPXPXPXPXPXPXPXPXPXPXPXPXPXPXPXPXPXPXPXPXPXPXPXPXPXPXPXPXPXPXPXPXPXPXPXPXPXPXPXPXPXPXPXPXPXPXPXPXPXPXPXPXPXPXPXPXPXPXPXPXPXPXPXPXPXPXPXPXPXPXPXPXPXPXPXPXPXPXPXPXPXPXPXPXPXPXPXPXPXPXPXPXPXPXPXPXPXPXPXPXPXPXPXPXPXPXPXPXPXPXPXPXPXPXPXPXPXPXPXPXPXPXPXPXPXPXPXPXPXPXPXPXPXPXPXPXPXPXPXPXPXPXPXPXPXPXPXPXPXPXPXPXPXPXPXPXPXPXPXPXPXPXPXPXPXPXPXPXPXPXPXPXPXPXPXPXPXPXPXPXPXPXPXPXPXPXPXPXPXPXPXPXPXPXPXPXPXPXPXPXPXPXPXPXPXPXPXPXPXPXPXPXPXPXPXPXPXPXPXPXPXPXPXPXPXPXPXPXPXPXPXPXPXPXPXPXPXPXPXPXPXPXPXPXPXPXPXPXPXPXPXPXPXPXPXPXPXPXPXPXPXPXPXPXPXPXPXPXPXPXPXPXPXPXPXPXPXPXPXPXPXPXPXPXPXPXPXPXPXPXPXPXPXPXPXPXPXPXPXPXPXPXPXPXPXPXPXPXPXPXPXPXPXPXPXPXPXPXPXPXPXPXPXPXPXPXPXPXPXPXPXPXPXPXPXPXPXPXPXPXPXPXPXPXPXPXPXPXPXPXPXPXPXPXPXPXPXPXPXPXPXPXPXPXPXPXPXPXPXPXPXPXPXPXPXPXPXPXPXPXPXPXPXPXPXPXPXPXPXPX",
"PXPXPXPXPXPXPXPXPXPXPXPXPXPXPXPXPXPXPXPXPXPXPXPXPXPXPXPXPXPXPXPXPXPXPXPXPXPXPXPXPXPXPXPXPXPXPXPXPXPXPXPXPXPXPXPXPXPXPXPXPXPXPXPXPXPXPXPXPXPXPXPXPXPXPXPXPXPXPXPXPXPXPXPXPXPXPXPXPXPXPXPXPXPXPXPXPXPXPXPXPXPXPXPXPXPXPXPXPXPXPXPXPXPXPXPXPXPXPXPXPXPXPXPXPXPXPXPXPXPXPXPXPXPXPXPXPXPXPXPXPXPXPXPXPXPXPXPXPXPXPXPXPXPXPXPXPXPXPXPXPXPXPXPXPXPXPXPXPXPXPXPXPXPXPXPXPXPXPXPXPXPXPXPXPXPXPXPXPXPXPXPXPXPXPXPXPXPXPXPXPXPXPXPXPXPXPXPXPXPXPXPXPXPXPXPXPXPXPXPXPXPXPXPXPXPXPXPXPXPXPXPXPXPXPXPXPXPXPXPXPXPXPXPXPXPXPXPXPXPXPXPXPXPXPXPXPXPXPXPXPXPXPXPXPXPXPXPXPXPXPXPXPXPXPXPXPXPXPXPXPXPXPXPXPXPXPXPXPXPXPXPXPXPXPXPXPXPXPXPXPXPXPXPXPXPXPXPXPXPXPXPXPXPXPXPXPXPXPXPXPXPXPXPXPXPXPXPXPXPXPXPXPXPXPXPXPXPXPXPXPXPXPXPXPXPXPXPXPXPXPXPXPXPXPXPXPXPXPXPXPXPXPXPXPXPXPXPXPXPXPXPXPXPXPXPXPXPXPXPXPXPXPXPXPXPXPXPXPXPXPXPXPXPXPXPXPXPXPXPXPXPXPXPXPXPXPXPXPXPXPXPXPXPXPXPXPXPXPXPXPXPXPXPXPXPXPXPXPXPXPXPXPXPXPXPXPXPXPXPXPXPXPXPXPXPXPXPXPXPXPXPXPXPXPXPXPXPXPXPXPXPXPXPXPXPXPXPXPXPXPXPXPXPXPXPXPXPXPXPXPXPXPXPX",
"PXPXPXPXPXPXPXPXPXPXPXPXPXPXPXPXPXPXPXPXPXPXPXPXPXPXPXPXPXPXPXPXPXPXPXPXPXPXPXPXPXPXPXPXPXPXPXPXPXPXPXPXPXPXPXPXPXPXPXPXPXPXPXPXPXPXPXPXPXPXPXPXPXPXPXPXPXPXPXPXPXPXPXPXPXPXPXPXPXPXPXPXPXPXPXPXPXPXPXPXPXPXPXPXPXPXPXPXPXPXPXPXPXPXPXPXPXPXPXPXPXPXPXPXPXPXPXPXPXPXPXPXPXPXPXPXPXPXPXPXPXPXPXPXPXPXPXPXPXPXPXPXPXPXPXPXPXPXPXPXPXPXPXPXPXPXPXPXPXPXPXPXPXPXPXPXPXPXPXPXPXPXPXPXPXPXPXPXPXPXPXPXPXPXPXPXPXPXPXPXPXPXPXPXPXPXPXPXPXPXPXPXPXPXPXPXPXPXPXPXPXPXPXPXPXPXPXPXPXPXPXPXPXPXPXPXPXPXPXPXPXPXPXPXPXPXPXPXPXPXPXPXPXPXPXPXPXPXPXPXPXPXPXPXPXPXPXPXPXPXPXPXPXPXPXPXPXPXPXPXPXPXPXPXPXPXPXPXPXPXPXPXPXPXPXPXPXPXPXPXPXPXPXPXPXPXPXPXPXPXPXPXPXPXPXPXPXPXPXPXPXPXPXPXPXPXPXPXPXPXPXPXPXPXPXPXPXPXPXPXPXPXPXPXPXPXPXPXPXPXPXPXPXPXPXPXPXPXPXPXPXPXPXPXPXPXPXPXPXPXPXPXPXPXPXPXPXPXPXPXPXPXPXPXPXPXPXPXPXPXPXPXPXPXPXPXPXPXPXPXPXPXPXPXPXPXPXPXPXPXPXPXPXPXPXPXPXPXPXPXPXPXPXPXPXPXPXPXPXPXPXPXPXPXPXPXPXPXPXPXPXPXPXPXPXPXPXPXPXPXPXPXPXPXPXPXPXPXPXPXPXPXPXPXPXPXPXPXPXPXPXPXPXPXPXPXPXPXPXPXPXPXPXPX",
"PXPXPXPXPXPXPXPXPXPXPXPXPXPXPXPXPXPXPXPXPXPXPXPXPXPXPXPXPXPXPXPXPXPXPXPXPXPXPXPXPXPXPXPXPXPXPXPXPXPXPXPXPXPXPXPXPXPXPXPXPXPXPXPXPXPXPXPXPXPXPXPXPXPXPXPXPXPXPXPXPXPXPXPXPXPXPXPXPXPXPXPXPXPXPXPXPXPXPXPXPXPXPXPXPXPXPXPXPXPXPXPXPXPXPXPXPXPXPXPXPXPXPXPXPXPXPXPXPXPXPXPXPXPXPXPXPXPXPXPXPXPXPXPXPXPXPXPXPXPXPXPXPXPXPXPXPXPXPXPXPXPXPXPXPXPXPXPXPXPXPXPXPXPXPXPXPXPXPXPXPXPXPXPXPXPXPXPXPXPXPXPXPXPXPXPXPXPXPXPXPXPXPXPXPXPXPXPXPXPXPXPXPXPXPXPXPXPXPXPXPXPXPXPXPXPXPXPXPXPXPXPXPXPXPXPXPXPXPXPXPXPXPXPXPXPXPXPXPXPXPXPXPXPXPXPXPXPXPXPXPXPXPXPXPXPXPXPXPXPXPXPXPXPXPXPXPXPXPXPXPXPXPXPXPXPXPXPXPXPXPXPXPXPXPXPXPXPXPXPXPXPXPXPXPXPXPXPXPXPXPXPXPXPXPXPXPXPXPXPXPXPXPXPXPXPXPXPXPXPXPXPXPXPXPXPXPXPXPXPXPXPXPXPXPXPXPXPXPXPXPXPXPXPXPXPXPXPXPXPXPXPXPXPXPXPXPXPXPXPXPXPXPXPXPXPXPXPXPXPXPXPXPXPXPXPXPXPXPXPXPXPXPXPXPXPXPXPXPXPXPXPXPXPXPXPXPXPXPXPXPXPXPXPXPXPXPXPXPXPXPXPXPXPXPXPXPXPXPXPXPXPXPXPXPXPXPXPXPXPXPXPXPXPXPXPXPXPXPXPXPXPXPXPXPXPXPXPXPXPXPXPXPXPXPXPXPXPXPXPXPXPXPXPXPXPXPXPXPXPXPXPXPXPX",
"PXPXPXPXPXPXPXPXPXPXPXPXPXPXPXPXPXPXPXPXPXPXPXPXPXPXPXPXPXPXPXPXPXPXPXPXPXPXPXPXPXPXPXPXPXPXPXPXPXPXPXPXPXPXPXPXPXPXPXPXPXPXPXPXPXPXPXPXPXPXPXPXPXPXPXPXPXPXPXPXPXPXPXPXPXPXPXPXPXPXPXPXPXPXPXPXPXPXPXPXPXPXPXPXPXPXPXPXPXPXPXPXPXPXPXPXPXPXPXPXPXPXPXPXPXPXPXPXPXPXPXPXPXPXPXPXPXPXPXPXPXPXPXPXPXPXPXPXPXPXPXPXPXPXPXPXPXPXPXPXPXPXPXPXPXPXPXPXPXPXPXPXPXPXPXPXPXPXPXPXPXPXPXPXPXPXPXPXPXPXPXPXPXPXPXPXPXPXPXPXPXPXPXPXPXPXPXPXPXPXPXPXPXPXPXPXPXPXPXPXPXPXPXPXPXPXPXPXPXPXPXPXPXPXPXPXPXPXPXPXPXPXPXPXPXPXPXPXPXPXPXPXPXPXPXPXPXPXPXPXPXPXPXPXPXPXPXPXPXPXPXPXPXPXPXPXPXPXPXPXPXPXPXPXPXPXPXPXPXPXPXPXPXPXPXPXPXPXPXPXPXPXPXPXPXPXPXPXPXPXPXPXPXPXPXPXPXPXPXPXPXPXPXPXPXPXPXPXPXPXPXPXPXPXPXPXPXPXPXPXPXPXPXPXPXPXPXPXPXPXPXPXPXPXPXPXPXPXPXPXPXPXPXPXPXPXPXPXPXPXPXPXPXPXPXPXPXPXPXPXPXPXPXPXPXPXPXPXPXPXPXPXPXPXPXPXPXPXPXPXPXPXPXPXPXPXPXPXPXPXPXPXPXPXPXPXPXPXPXPXPXPXPXPXPXPXPXPXPXPXPXPXPXPXPXPXPXPXPXPXPXPXPXPXPXPXPXPXPXPXPXPXPXPXPXPXPXPXPXPXPXPXPXPXPXPXPXPXPXPXPXPXPXPXPXPXPXPXPXPXPXPXPXPX",
"PXPXPXPXPXPXPXPXPXPXPXPXPXPXPXPXPXPXPXPXPXPXPXPXPXPXPXPXPXPXPXPXPXPXPXPXPXPXPXPXPXPXPXPXPXPXPXPXPXPXPXPXPXPXPXPXPXPXPXPXPXPXPXPXPXPXPXPXPXPXPXPXPXPXPXPXPXPXPXPXPXPXPXPXPXPXPXPXPXPXPXPXPXPXPXPXPXPXPXPXPXPXPXPXPXPXPXPXPXPXPXPXPXPXPXPXPXPXPXPXPXPXPXPXPXPXPXPXPXPXPXPXPXPXPXPXPXPXPXPXPXPXPXPXPXPXPXPXPXPXPXPXPXPXPXPXPXPXPXPXPXPXPXPXPXPXPXPXPXPXPXPXPXPXPXPXPXPXPXPXPXPXPXPXPXPXPXPXPXPXPXPXPXPXPXPXPXPXPXPXPXPXPXPXPXPXPXPXPXPXPXPXPXPXPXPXPXPXPXPXPXPXPXPXPXPXPXPXPXPXPXPXPXPXPXPXPXPXPXPXPXPXPXPXPXPXPXPXPXPXPXPXPXPXPXPXPXPXPXPXPXPXPXPXPXPXPXPXPXPXPXPXPXPXPXPXPXPXPXPXPXPXPXPXPXPXPXPXPXPXPXPXPXPXPXPXPXPXPXPXPXPXPXPXPXPXPXPXPXPXPXPXPXPXPXPXPXPXPXPXPXPXPXPXPXPXPXPXPXPXPXPXPXPXPXPXPXPXPXPXPXPXPXPXPXPXPXPXPXPXPXPXPXPXPXPXPXPXPXPXPXPXPXPXPXPXPXPXPXPXPXPXPXPXPXPXPXPXPXPXPXPXPXPXPXPXPXPXPXPXPXPXPXPXPXPXPXPXPXPXPXPXPXPXPXPXPXPXPXPXPXPXPXPXPXPXPXPXPXPXPXPXPXPXPXPXPXPXPXPXPXPXPXPXPXPXPXPXPXPXPXPXPXPXPXPXPXPXPXPXPXPXPXPXPXPXPXPXPXPXPXPXPXPXPXPXPXPXPXPXPXPXPXPXPXPXPXPXPXPXPXPXPXPX",
"PXPXPXPXPXPXPXPXPXPXPXPXPXPXPXPXPXPXPXPXPXPXPXPXPXPXPXPXPXPXPXPXPXPXPXPXPXPXPXPXPXPXPXPXPXPXPXPXPXPXPXPXPXPXPXPXPXPXPXPXPXPXPXPXPXPXPXPXPXPXPXPXPXPXPXPXPXPXPXPXPXPXPXPXPXPXPXPXPXPXPXPXPXPXPXPXPXPXPXPXPXPXPXPXPXPXPXPXPXPXPXPXPXPXPXPXPXPXPXPXPXPXPXPXPXPXPXPXPXPXPXPXPXPXPXPXPXPXPXPXPXPXPXPXPXPXPXPXPXPXPXPXPXPXPXPXPXPXPXPXPXPXPXPXPXPXPXPXPXPXPXPXPXPXPXPXPXPXPXPXPXPXPXPXPXPXPXPXPXPXPXPXPXPXPXPXPXPXPXPXPXPXPXPXPXPXPXPXPXPXPXPXPXPXPXPXPXPXPXPXPXPXPXPXPXPXPXPXPXPXPXPXPXPXPXPXPXPXPXPXPXPXPXPXPXPXPXPXPXPXPXPXPXPXPXPXPXPXPXPXPXPXPXPXPXPXPXPXPXPXPXPXPXPXPXPXPXPXPXPXPXPXPXPXPXPXPXPXPXPXPXPXPXPXPXPXPXPXPXPXPXPXPXPXPXPXPXPXPXPXPXPXPXPXPXPXPXPXPXPXPXPXPXPXPXPXPXPXPXPXPXPXPXPXPXPXPXPXPXPXPXPXPXPXPXPXPXPXPXPXPXPXPXPXPXPXPXPXPXPXPXPXPXPXPXPXPXPXPXPXPXPXPXPXPXPXPXPXPXPXPXPXPXPXPXPXPXPXPXPXPXPXPXPXPXPXPXPXPXPXPXPXPXPXPXPXPXPXPXPXPXPXPXPXPXPXPXPXPXPXPXPXPXPXPXPXPXPXPXPXPXPXPXPXPXPXPXPXPXPXPXPXPXPXPXPXPXPXPXPXPXPXPXPXPXPXPXPXPXPXPXPXPXPXPXPXPXPXPXPXPXPXPXPXPXPXPXPXPXPXPXPXPXPX",
"PXPXPXPXPXPXPXPXPXPXPXPXPXPXPXPXPXPXPXPXPXPXPXPXPXPXPXPXPXPXPXPXPXPXPXPXPXPXPXPXPXPXPXPXPXPXPXPXPXPXPXPXPXPXPXPXPXPXPXPXPXPXPXPXPXPXPXPXPXPXPXPXPXPXPXPXPXPXPXPXPXPXPXPXPXPXPXPXPXPXPXPXPXPXPXPXPXPXPXPXPXPXPXPXPXPXPXPXPXPXPXPXPXPXPXPXPXPXPXPXPXPXPXPXPXPXPXPXPXPXPXPXPXPXPXPXPXPXPXPXPXPXPXPXPXPXPXPXPXPXPXPXPXPXPXPXPXPXPXPXPXPXPXPXPXPXPXPXPXPXPXPXPXPXPXPXPXPXPXPXPXPXPXPXPXPXPXPXPXPXPXPXPXPXPXPXPXPXPXPXPXPXPXPXPXPXPXPXPXPXPXPXPXPXPXPXPXPXPXPXPXPXPXPXPXPXPXPXPXPXPXPXPXPXPXPXPXPXPXPXPXPXPXPXPXPXPXPXPXPXPXPXPXPXPXPXPXPXPXPXPXPXPXPXPXPXPXPXPXPXPXPXPXPXPXPXPXPXPXPXPXPXPXPXPXPXPXPXPXPXPXPXPXPXPXPXPXPXPXPXPXPXPXPXPXPXPXPXPXPXPXPXPXPXPXPXPXPXPXPXPXPXPXPXPXPXPXPXPXPXPXPXPXPXPXPXPXPXPXPXPXPXPXPXPXPXPXPXPXPXPXPXPXPXPXPXPXPXPXPXPXPXPXPXPXPXPXPXPXPXPXPXPXPXPXPXPXPXPXPXPXPXPXPXPXPXPXPXPXPXPXPXPXPXPXPXPXPXPXPXPXPXPXPXPXPXPXPXPXPXPXPXPXPXPXPXPXPXPXPXPXPXPXPXPXPXPXPXPXPXPXPXPXPXPXPXPXPXPXPXPXPXPXPXPXPXPXPXPXPXPXPXPXPXPXPXPXPXPXPXPXPXPXPXPXPXPXPXPXPXPXPXPXPXPXPXPXPXPXPXPXPXPXPX",
"PXPXPXPXPXPXPXPXPXPXPXPXPXPXPXPXPXPXPXPXPXPXPXPXPXPXPXPXPXPXPXPXPXPXPXPXPXPXPXPXPXPXPXPXPXPXPXPXPXPXPXPXPXPXPXPXPXPXPXPXPXPXPXPXPXPXPXPXPXPXPXPXPXPXPXPXPXPXPXPXPXPXPXPXPXPXPXPXPXPXPXPXPXPXPXPXPXPXPXPXPXPXPXPXPXPXPXPXPXPXPXPXPXPXPXPXPXPXPXPXPXPXPXPXPXPXPXPXPXPXPXPXPXPXPXPXPXPXPXPXPXPXPXPXPXPXPXPXPXPXPXPXPXPXPXPXPXPXPXPXPXPXPXPXPXPXPXPXPXPXPXPXPXPXPXPXPXPXPXPXPXPXPXPXPXPXPXPXPXPXPXPXPXPXPXPXPXPXPXPXPXPXPXPXPXPXPXPXPXPXPXPXPXPXPXPXPXPXPXPXPXPXPXPXPXPXPXPXPXPXPXPXPXPXPXPXPXPXPXPXPXPXPXPXPXPXPXPXPXPXPXPXPXPXPXPXPXPXPXPXPXPXPXPXPXPXPXPXPXPXPXPXPXPXPXPXPXPXPXPXPXPXPXPXPXPXPXPXPXPXPXPXPXPXPXPXPXPXPXPXPXPXPXPXPXPXPXPXPXPXPXPXPXPXPXPXPXPXPXPXPXPXPXPXPXPXPXPXPXPXPXPXPXPXPXPXPXPXPXPXPXPXPXPXPXPXPXPXPXPXPXPXPXPXPXPXPXPXPXPXPXPXPXPXPXPXPXPXPXPXPXPXPXPXPXPXPXPXPXPXPXPXPXPXPXPXPXPXPXPXPXPXPXPXPXPXPXPXPXPXPXPXPXPXPXPXPXPXPXPXPXPXPXPXPXPXPXPXPXPXPXPXPXPXPXPXPXPXPXPXPXPXPXPXPXPXPXPXPXPXPXPXPXPXPXPXPXPXPXPXPXPXPXPXPXPXPXPXPXPXPXPXPXPXPXPXPXPXPXPXPXPXPXPXPXPXPXPXPXPXPXPXPXPX",
"PXPXPXPXPXPXPXPXPXPXPXPXPXPXPXPXPXPXPXPXPXPXPXPXPXPXPXPXPXPXPXPXPXPXPXPXPXPXPXPXPXPXPXPXPXPXPXPXPXPXPXPXPXPXPXPXPXPXPXPXPXPXPXPXPXPXPXPXPXPXPXPXPXPXPXPXPXPXPXPXPXPXPXPXPXPXPXPXPXPXPXPXPXPXPXPXPXPXPXPXPXPXPXPXPXPXPXPXPXPXPXPXPXPXPXPXPXPXPXPXPXPXPXPXPXPXPXPXPXPXPXPXPXPXPXPXPXPXPXPXPXPXPXPXPXPXPXPXPXPXPXPXPXPXPXPXPXPXPXPXPXPXPXPXPXPXPXPXPXPXPXPXPXPXPXPXPXPXPXPXPXPXPXPXPXPXPXPXPXPXPXPXPXPXPXPXPXPXPXPXPXPXPXPXPXPXPXPXPXPXPXPXPXPXPXPXPXPXPXPXPXPXPXPXPXPXPXPXPXPXPXPXPXPXPXPXPXPXPXPXPXPXPXPXPXPXPXPXPXPXPXPXPXPXPXPXPXPXPXPXPXPXPXPXPXPXPXPXPXPXPXPXPXPXPXPXPXPXPXPXPXPXPXPXPXPXPXPXPXPXPXPXPXPXPXPXPXPXPXPXPXPXPXPXPXPXPXPXPXPXPXPXPXPXPXPXPXPXPXPXPXPXPXPXPXPXPXPXPXPXPXPXPXPXPXPXPXPXPXPXPXPXPXPXPXPXPXPXPXPXPXPXPXPXPXPXPXPXPXPXPXPXPXPXPXPXPXPXPXPXPXPXPXPXPXPXPXPXPXPXPXPXPXPXPXPXPXPXPXPXPXPXPXPXPXPXPXPXPXPXPXPXPXPXPXPXPXPXPXPXPXPXPXPXPXPXPXPXPXPXPXPXPXPXPXPXPXPXPXPXPXPXPXPXPXPXPXPXPXPXPXPXPXPXPXPXPXPXPXPXPXPXPXPXPXPXPXPXPXPXPXPXPXPXPXPXPXPXPXPXPXPXPXPXPXPXPXPXPXPXPXPXPXPX",
"PXPXPXPXPXPXPXPXPXPXPXPXPXPXPXPXPXPXPXPXPXPXPXPXPXPXPXPXPXPXPXPXPXPXPXPXPXPXPXPXPXPXPXPXPXPXPXPXPXPXPXPXPXPXPXPXPXPXPXPXPXPXPXPXPXPXPXPXPXPXPXPXPXPXPXPXPXPXPXPXPXPXPXPXPXPXPXPXPXPXPXPXPXPXPXPXPXPXPXPXPXPXPXPXPXPXPXPXPXPXPXPXPXPXPXPXPXPXPXPXPXPXPXPXPXPXPXPXPXPXPXPXPXPXPXPXPXPXPXPXPXPXPXPXPXPXPXPXPXPXPXPXPXPXPXPXPXPXPXPXPXPXPXPXPXPXPXPXPXPXPXPXPXPXPXPXPXPXPXPXPXPXPXPXPXPXPXPXPXPXPXPXPXPXPXPXPXPXPXPXPXPXPXPXPXPXPXPXPXPXPXPXPXPXPXPXPXPXPXPXPXPXPXPXPXPXPXPXPXPXPXPXPXPXPXPXPXPXPXPXPXPXPXPXPXPXPXPXPXPXPXPXPXPXPXPXPXPXPXPXPXPXPXPXPXPXPXPXPXPXPXPXPXPXPXPXPXPXPXPXPXPXPXPXPXPXPXPXPXPXPXPXPXPXPXPXPXPXPXPXPXPXPXPXPXPXPXPXPXPXPXPXPXPXPXPXPXPXPXPXPXPXPXPXPXPXPXPXPXPXPXPXPXPXPXPXPXPXPXPXPXPXPXPXPXPXPXPXPXPXPXPXPXPXPXPXPXPXPXPXPXPXPXPXPXPXPXPXPXPXPXPXPXPXPXPXPXPXPXPXPXPXPXPXPXPXPXPXPXPXPXPXPXPXPXPXPXPXPXPXPXPXPXPXPXPXPXPXPXPXPXPXPXPXPXPXPXPXPXPXPXPXPXPXPXPXPXPXPXPXPXPXPXPXPXPXPXPXPXPXPXPXPXPXPXPXPXPXPXPXPXPXPXPXPXPXPXPXPXPXPXPXPXPXPXPXPXPXPXPXPXPXPXPXPXPXPXPXPXPXPXPXPXPX",
"PXPXPXPXPXPXPXPXPXPXPXPXPXPXPXPXPXPXPXPXPXPXPXPXPXPXPXPXPXPXPXPXPXPXPXPXPXPXPXPXPXPXPXPXPXPXPXPXPXPXPXPXPXPXPXPXPXPXPXPXPXPXPXPXPXPXPXPXPXPXPXPXPXPXPXPXPXPXPXPXPXPXPXPXPXPXPXPXPXPXPXPXPXPXPXPXPXPXPXPXPXPXPXPXPXPXPXPXPXPXPXPXPXPXPXPXPXPXPXPXPXPXPXPXPXPXPXPXPXPXPXPXPXPXPXPXPXPXPXPXPXPXPXPXPXPXPXPXPXPXPXPXPXPXPXPXPXPXPXPXPXPXPXPXPXPXPXPXPXPXPXPXPXPXPXPXPXPXPXPXPXPXPXPXPXPXPXPXPXPXPXPXPXPXPXPXPXPXPXPXPXPXPXPXPXPXPXPXPXPXPXPXPXPXPXPXPXPXPXPXPXPXPXPXPXPXPXPXPXPXPXPXPXPXPXPXPXPXPXPXPXPXPXPXPXPXPXPXPXPXPXPXPXPXPXPXPXPXPXPXPXPXPXPXPXPXPXPXPXPXPXPXPXPXPXPXPXPXPXPXPXPXPXPXPXPXPXPXPXPXPXPXPXPXPXPXPXPXPXPXPXPXPXPXPXPXPXPXPXPXPXPXPXPXPXPXPXPXPXPXPXPXPXPXPXPXPXPXPXPXPXPXPXPXPXPXPXPXPXPXPXPXPXPXPXPXPXPXPXPXPXPXPXPXPXPXPXPXPXPXPXPXPXPXPXPXPXPXPXPXPXPXPXPXPXPXPXPXPXPXPXPXPXPXPXPXPXPXPXPXPXPXPXPXPXPXPXPXPXPXPXPXPXPXPXPXPXPXPXPXPXPXPXPXPXPXPXPXPXPXPXPXPXPXPXPXPXPXPXPXPXPXPXPXPXPXPXPXPXPXPXPXPXPXPXPXPXPXPXPXPXPXPXPXPXPXPXPXPXPXPXPXPXPXPXPXPXPXPXPXPXPXPXPXPXPXPXPXPXPXPXPXPXPX",
"PXPXPXPXPXPXPXPXPXPXPXPXPXPXPXPXPXPXPXPXPXPXPXPXPXPXPXPXPXPXPXPXPXPXPXPXPXPXPXPXPXPXPXPXPXPXPXPXPXPXPXPXPXPXPXPXPXPXPXPXPXPXPXPXPXPXPXPXPXPXPXPXPXPXPXPXPXPXPXPXPXPXPXPXPXPXPXPXPXPXPXPXPXPXPXPXPXPXPXPXPXPXPXPXPXPXPXPXPXPXPXPXPXPXPXPXPXPXPXPXPXPXPXPXPXPXPXPXPXPXPXPXPXPXPXPXPXPXPXPXPXPXPXPXPXPXPXPXPXPXPXPXPXPXPXPXPXPXPXPXPXPXPXPXPXPXPXPXPXPXPXPXPXPXPXPXPXPXPXPXPXPXPXPXPXPXPXPXPXPXPXPXPXPXPXPXPXPXPXPXPXPXPXPXPXPXPXPXPXPXPXPXPXPXPXPXPXPXPXPXPXPXPXPXPXPXPXPXPXPXPXPXPXPXPXPXPXPXPXPXPXPXPXPXPXPXPXPXPXPXPXPXPXPXPXPXPXPXPXPXPXPXPXPXPXPXPXPXPXPXPXPXPXPXPXPXPXPXPXPXPXPXPXPXPXPXPXPXPXPXPXPXPXPXPXPXPXPXPXPXPXPXPXPXPXPXPXPXPXPXPXPXPXPXPXPXPXPXPXPXPXPXPXPXPXPXPXPXPXPXPXPXPXPXPXPXPXPXPXPXPXPXPXPXPXPXPXPXPXPXPXPXPXPXPXPXPXPXPXPXPXPXPXPXPXPXPXPXPXPXPXPXPXPXPXPXPXPXPXPXPXPXPXPXPXPXPXPXPXPXPXPXPXPXPXPXPXPXPXPXPXPXPXPXPXPXPXPXPXPXPXPXPXPXPXPXPXPXPXPXPXPXPXPXPXPXPXPXPXPXPXPXPXPXPXPXPXPXPXPXPXPXPXPXPXPXPXPXPXPXPXPXPXPXPXPXPXPXPXPXPXPXPXPXPXPXPXPXPXPXPXPXPXPXPXPXPXPXPXPXPXPXPXPX",
"PXPXPXPXPXPXPXPXPXPXPXPXPXPXPXPXPXPXPXPXPXPXPXPXPXPXPXPXPXPXPXPXPXPXPXPXPXPXPXPXPXPXPXPXPXPXPXPXPXPXPXPXPXPXPXPXPXPXPXPXPXPXPXPXPXPXPXPXPXPXPXPXPXPXPXPXPXPXPXPXPXPXPXPXPXPXPXPXPXPXPXPXPXPXPXPXPXPXPXPXPXPXPXPXPXPXPXPXPXPXPXPXPXPXPXPXPXPXPXPXPXPXPXPXPXPXPXPXPXPXPXPXPXPXPXPXPXPXPXPXPXPXPXPXPXPXPXPXPXPXPXPXPXPXPXPXPXPXPXPXPXPXPXPXPXPXPXPXPXPXPXPXPXPXPXPXPXPXPXPXPXPXPXPXPXPXPXPXPXPXPXPXPXPXPXPXPXPXPXPXPXPXPXPXPXPXPXPXPXPXPXPXPXPXPXPXPXPXPXPXPXPXPXPXPXPXPXPXPXPXPXPXPXPXPXPXPXPXPXPXPXPXPXPXPXPXPXPXPXPXPXPXPXPXPXPXPXPXPXPXPXPXPXPXPXPXPXPXPXPXPXPXPXPXPXPXPXPXPXPXPXPXPXPXPXPXPXPXPXPXPXPXPXPXPXPXPXPXPXPXPXPXPXPXPXPXPXPXPXPXPXPXPXPXPXPXPXPXPXPXPXPXPXPXPXPXPXPXPXPXPXPXPXPXPXPXPXPXPXPXPXPXPXPXPXPXPXPXPXPXPXPXPXPXPXPXPXPXPXPXPXPXPXPXPXPXPXPXPXPXPXPXPXPXPXPXPXPXPXPXPXPXPXPXPXPXPXPXPXPXPXPXPXPXPXPXPXPXPXPXPXPXPXPXPXPXPXPXPXPXPXPXPXPXPXPXPXPXPXPXPXPXPXPXPXPXPXPXPXPXPXPXPXPXPXPXPXPXPXPXPXPXPXPXPXPXPXPXPXPXPXPXPXPXPXPXPXPXPXPXPXPXPXPXPXPXPXPXPXPXPXPXPXPXPXPXPXPXPXPXPXPXPXPX",
"PXPXPXPXPXPXPXPXPXPXPXPXPXPXPXPXPXPXPXPXPXPXPXPXPXPXPXPXPXPXPXPXPXPXPXPXPXPXPXPXPXPXPXPXPXPXPXPXPXPXPXPXPXPXPXPXPXPXPXPXPXPXPXPXPXPXPXPXPXPXPXPXPXPXPXPXPXPXPXPXPXPXPXPXPXPXPXPXPXPXPXPXPXPXPXPXPXPXPXPXPXPXPXPXPXPXPXPXPXPXPXPXPXPXPXPXPXPXPXPXPXPXPXPXPXPXPXPXPXPXPXPXPXPXPXPXPXPXPXPXPXPXPXPXPXPXPXPXPXPXPXPXPXPXPXPXPXPXPXPXPXPXPXPXPXPXPXPXPXPXPXPXPXPXPXPXPXPXPXPXPXPXPXPXPXPXPXPXPXPXPXPXPXPXPXPXPXPXPXPXPXPXPXPXPXPXPXPXPXPXPXPXPXPXPXPXPXPXPXPXPXPXPXPXPXPXPXPXPXPXPXPXPXPXPXPXPXPXPXPXPXPXPXPXPXPXPXPXPXPXPXPXPXPXPXPXPXPXPXPXPXPXPXPXPXPXPXPXPXPXPXPXPXPXPXPXPXPXPXPXPXPXPXPXPXPXPXPXPXPXPXPXPXPXPXPXPXPXPXPXPXPXPXPXPXPXPXPXPXPXPXPXPXPXPXPXPXPXPXPXPXPXPXPXPXPXPXPXPXPXPXPXPXPXPXPXPXPXPXPXPXPXPXPXPXPXPXPXPXPXPXPXPXPXPXPXPXPXPXPXPXPXPXPXPXPXPXPXPXPXPXPXPXPXPXPXPXPXPXPXPXPXPXPXPXPXPXPXPXPXPXPXPXPXPXPXPXPXPXPXPXPXPXPXPXPXPXPXPXPXPXPXPXPXPXPXPXPXPXPXPXPXPXPXPXPXPXPXPXPXPXPXPXPXPXPXPXPXPXPXPXPXPXPXPXPXPXPXPXPXPXPXPXPXPXPXPXPXPXPXPXPXPXPXPXPXPXPXPXPXPXPXPXPXPXPXPXPXPXPXPXPXPXPX",
"PXPXPXPXPXPXPXPXPXPXPXPXPXPXPXPXPXPXPXPXPXPXPXPXPXPXPXPXPXPXPXPXPXPXPXPXPXPXPXPXPXPXPXPXPXPXPXPXPXPXPXPXPXPXPXPXPXPXPXPXPXPXPXPXPXPXPXPXPXPXPXPXPXPXPXPXPXPXPXPXPXPXPXPXPXPXPXPXPXPXPXPXPXPXPXPXPXPXPXPXPXPXPXPXPXPXPXPXPXPXPXPXPXPXPXPXPXPXPXPXPXPXPXPXPXPXPXPXPXPXPXPXPXPXPXPXPXPXPXPXPXPXPXPXPXPXPXPXPXPXPXPXPXPXPXPXPXPXPXPXPXPXPXPXPXPXPXPXPXPXPXPXPXPXPXPXPXPXPXPXPXPXPXPXPXPXPXPXPXPXPXPXPXPXPXPXPXPXPXPXPXPXPXPXPXPXPXPXPXPXPXPXPXPXPXPXPXPXPXPXPXPXPXPXPXPXPXPXPXPXPXPXPXPXPXPXPXPXPXPXPXPXPXPXPXPXPXPXPXPXPXPXPXPXPXPXPXPXPXPXPXPXPXPXPXPXPXPXPXPXPXPXPXPXPXPXPXPXPXPXPXPXPXPXPXPXPXPXPXPXPXPXPXPXPXPXPXPXPXPXPXPXPXPXPXPXPXPXPXPXPXPXPXPXPXPXPXPXPXPXPXPXPXPXPXPXPXPXPXPXPXPXPXPXPXPXPXPXPXPXPXPXPXPXPXPXPXPXPXPXPXPXPXPXPXPXPXPXPXPXPXPXPXPXPXPXPXPXPXPXPXPXPXPXPXPXPXPXPXPXPXPXPXPXPXPXPXPXPXPXPXPXPXPXPXPXPXPXPXPXPXPXPXPXPXPXPXPXPXPXPXPXPXPXPXPXPXPXPXPXPXPXPXPXPXPXPXPXPXPXPXPXPXPXPXPXPXPXPXPXPXPXPXPXPXPXPXPXPXPXPXPXPXPXPXPXPXPXPXPXPXPXPXPXPXPXPXPXPXPXPXPXPXPXPXPXPXPXPXPXPXPXPXPX",
"PXPXPXPXPXPXPXPXPXPXPXPXPXPXPXPXPXPXPXPXPXPXPXPXPXPXPXPXPXPXPXPXPXPXPXPXPXPXPXPXPXPXPXPXPXPXPXPXPXPXPXPXPXPXPXPXPXPXPXPXPXPXPXPXPXPXPXPXPXPXPXPXPXPXPXPXPXPXPXPXPXPXPXPXPXPXPXPXPXPXPXPXPXPXPXPXPXPXPXPXPXPXPXPXPXPXPXPXPXPXPXPXPXPXPXPXPXPXPXPXPXPXPXPXPXPXPXPXPXPXPXPXPXPXPXPXPXPXPXPXPXPXPXPXPXPXPXPXPXPXPXPXPXPXPXPXPXPXPXPXPXPXPXPXPXPXPXPXPXPXPXPXPXPXPXPXPXPXPXPXPXPXPXPXPXPXPXPXPXPXPXPXPXPXPXPXPXPXPXPXPXPXPXPXPXPXPXPXPXPXPXPXPXPXPXPXPXPXPXPXPXPXPXPXPXPXPXPXPXPXPXPXPXPXPXPXPXPXPXPXPXPXPXPXPXPXPXPXPXPXPXPXPXPXPXPXPXPXPXPXPXPXPXPXPXPXPXPXPXPXPXPXPXPXPXPXPXPXPXPXPXPXPXPXPXPXPXPXPXPXPXPXPXPXPXPXPXPXPXPXPXPXPXPXPXPXPXPXPXPXPXPXPXPXPXPXPXPXPXPXPXPXPXPXPXPXPXPXPXPXPXPXPXPXPXPXPXPXPXPXPXPXPXPXPXPXPXPXPXPXPXPXPXPXPXPXPXPXPXPXPXPXPXPXPXPXPXPXPXPXPXPXPXPXPXPXPXPXPXPXPXPXPXPXPXPXPXPXPXPXPXPXPXPXPXPXPXPXPXPXPXPXPXPXPXPXPXPXPXPXPXPXPXPXPXPXPXPXPXPXPXPXPXPXPXPXPXPXPXPXPXPXPXPXPXPXPXPXPXPXPXPXPXPXPXPXPXPXPXPXPXPXPXPXPXPXPXPXPXPXPXPXPXPXPXPXPXPXPXPXPXPXPXPXPXPXPXPXPXPXPXPXPXPX",
"PXPXPXPXPXPXPXPXPXPXPXPXPXPXPXPXPXPXPXPXPXPXPXPXPXPXPXPXPXPXPXPXPXPXPXPXPXPXPXPXPXPXPXPXPXPXPXPXPXPXPXPXPXPXPXPXPXPXPXPXPXPXPXPXPXPXPXPXPXPXPXPXPXPXPXPXPXPXPXPXPXPXPXPXPXPXPXPXPXPXPXPXPXPXPXPXPXPXPXPXPXPXPXPXPXPXPXPXPXPXPXPXPXPXPXPXPXPXPXPXPXPXPXPXPXPXPXPXPXPXPXPXPXPXPXPXPXPXPXPXPXPXPXPXPXPXPXPXPXPXPXPXPXPXPXPXPXPXPXPXPXPXPXPXPXPXPXPXPXPXPXPXPXPXPXPXPXPXPXPXPXPXPXPXPXPXPXPXPXPXPXPXPXPXPXPXPXPXPXPXPXPXPXPXPXPXPXPXPXPXPXPXPXPXPXPXPXPXPXPXPXPXPXPXPXPXPXPXPXPXPXPXPXPXPXPXPXPXPXPXPXPXPXPXPXPXPXPXPXPXPXPXPXPXPXPXPXPXPXPXPXPXPXPXPXPXPXPXPXPXPXPXPXPXPXPXPXPXPXPXPXPXPXPXPXPXPXPXPXPXPXPXPXPXPXPXPXPXPXPXPXPXPXPXPXPXPXPXPXPXPXPXPXPXPXPXPXPXPXPXPXPXPXPXPXPXPXPXPXPXPXPXPXPXPXPXPXPXPXPXPXPXPXPXPXPXPXPXPXPXPXPXPXPXPXPXPXPXPXPXPXPXPXPXPXPXPXPXPXPXPXPXPXPXPXPXPXPXPXPXPXPXPXPXPXPXPXPXPXPXPXPXPXPXPXPXPXPXPXPXPXPXPXPXPXPXPXPXPXPXPXPXPXPXPXPXPXPXPXPXPXPXPXPXPXPXPXPXPXPXPXPXPXPXPXPXPXPXPXPXPXPXPXPXPXPXPXPXPXPXPXPXPXPXPXPXPXPXPXPXPXPXPXPXPXPXPXPXPXPXPXPXPXPXPXPXPXPXPXPXPXPXPXPX",
"PXPXPXPXPXPXPXPXPXPXPXPXPXPXPXPXPXPXPXPXPXPXPXPXPXPXPXPXPXPXPXPXPXPXPXPXPXPXPXPXPXPXPXPXPXPXPXPXPXPXPXPXPXPXPXPXPXPXPXPXPXPXPXPXPXPXPXPXPXPXPXPXPXPXPXPXPXPXPXPXPXPXPXPXPXPXPXPXPXPXPXPXPXPXPXPXPXPXPXPXPXPXPXPXPXPXPXPXPXPXPXPXPXPXPXPXPXPXPXPXPXPXPXPXPXPXPXPXPXPXPXPXPXPXPXPXPXPXPXPXPXPXPXPXPXPXPXPXPXPXPXPXPXPXPXPXPXPXPXPXPXPXPXPXPXPXPXPXPXPXPXPXPXPXPXPXPXPXPXPXPXPXPXPXPXPXPXPXPXPXPXPXPXPXPXPXPXPXPXPXPXPXPXPXPXPXPXPXPXPXPXPXPXPXPXPXPXPXPXPXPXPXPXPXPXPXPXPXPXPXPXPXPXPXPXPXPXPXPXPXPXPXPXPXPXPXPXPXPXPXPXPXPXPXPXPXPXPXPXPXPXPXPXPXPXPXPXPXPXPXPXPXPXPXPXPXPXPXPXPXPXPXPXPXPXPXPXPXPXPXPXPXPXPXPXPXPXPXPXPXPXPXPXPXPXPXPXPXPXPXPXPXPXPXPXPXPXPXPXPXPXPXPXPXPXPXPXPXPXPXPXPXPXPXPXPXPXPXPXPXPXPXPXPXPXPXPXPXPXPXPXPXPXPXPXPXPXPXPXPXPXPXPXPXPXPXPXPXPXPXPXPXPXPXPXPXPXPXPXPXPXPXPXPXPXPXPXPXPXPXPXPXPXPXPXPXPXPXPXPXPXPXPXPXPXPXPXPXPXPXPXPXPXPXPXPXPXPXPXPXPXPXPXPXPXPXPXPXPXPXPXPXPXPXPXPXPXPXPXPXPXPXPXPXPXPXPXPXPXPXPXPXPXPXPXPXPXPXPXPXPXPXPXPXPXPXPXPXPXPXPXPXPXPXPXPXPXPXPXPXPXPXPXPX",
"PXPXPXPXPXPXPXPXPXPXPXPXPXPXPXPXPXPXPXPXPXPXPXPXPXPXPXPXPXPXPXPXPXPXPXPXPXPXPXPXPXPXPXPXPXPXPXPXPXPXPXPXPXPXPXPXPXPXPXPXPXPXPXPXPXPXPXPXPXPXPXPXPXPXPXPXPXPXPXPXPXPXPXPXPXPXPXPXPXPXPXPXPXPXPXPXPXPXPXPXPXPXPXPXPXPXPXPXPXPXPXPXPXPXPXPXPXPXPXPXPXPXPXPXPXPXPXPXPXPXPXPXPXPXPXPXPXPXPXPXPXPXPXPXPXPXPXPXPXPXPXPXPXPXPXPXPXPXPXPXPXPXPXPXPXPXPXPXPXPXPXPXPXPXPXPXPXPXPXPXPXPXPXPXPXPXPXPXPXPXPXPXPXPXPXPXPXPXPXPXPXPXPXPXPXPXPXPXPXPXPXPXPXPXPXPXPXPXPXPXPXPXPXPXPXPXPXPXPXPXPXPXPXPXPXPXPXPXPXPXPXPXPXPXPXPXPXPXPXPXPXPXPXPXPXPXPXPXPXPXPXPXPXPXPXPXPXPXPXPXPXPXPXPXPXPXPXPXPXPXPXPXPXPXPXPXPXPXPXPXPXPXPXPXPXPXPXPXPXPXPXPXPXPXPXPXPXPXPXPXPXPXPXPXPXPXPXPXPXPXPXPXPXPXPXPXPXPXPXPXPXPXPXPXPXPXPXPXPXPXPXPXPXPXPXPXPXPXPXPXPXPXPXPXPXPXPXPXPXPXPXPXPXPXPXPXPXPXPXPXPXPXPXPXPXPXPXPXPXPXPXPXPXPXPXPXPXPXPXPXPXPXPXPXPXPXPXPXPXPXPXPXPXPXPXPXPXPXPXPXPXPXPXPXPXPXPXPXPXPXPXPXPXPXPXPXPXPXPXPXPXPXPXPXPXPXPXPXPXPXPXPXPXPXPXPXPXPXPXPXPXPXPXPXPXPXPXPXPXPXPXPXPXPXPXPXPXPXPXPXPXPXPXPXPXPXPXPXPXPXPXPXPXPX",
"PXPXPXPXPXPXPXPXPXPXPXPXPXPXPXPXPXPXPXPXPXPXPXPXPXPXPXPXPXPXPXPXPXPXPXPXPXPXPXPXPXPXPXPXPXPXPXPXPXPXPXPXPXPXPXPXPXPXPXPXPXPXPXPXPXPXPXPXPXPXPXPXPXPXPXPXPXPXPXPXPXPXPXPXPXPXPXPXPXPXPXPXPXPXPXPXPXPXPXPXPXPXPXPXPXPXPXPXPXPXPXPXPXPXPXPXPXPXPXPXPXPXPXPXPXPXPXPXPXPXPXPXPXPXPXPXPXPXPXPXPXPXPXPXPXPXPXPXPXPXPXPXPXPXPXPXPXPXPXPXPXPXPXPXPXPXPXPXPXPXPXPXPXPXPXPXPXPXPXPXPXPXPXPXPXPXPXPXPXPXPXPXPXPXPXPXPXPXPXPXPXPXPXPXPXPXPXPXPXPXPXPXPXPXPXPXPXPXPXPXPXPXPXPXPXPXPXPXPXPXPXPXPXPXPXPXPXPXPXPXPXPXPXPXPXPXPXPXPXPXPXPXPXPXPXPXPXPXPXPXPXPXPXPXPXPXPXPXPXPXPXPXPXPXPXPXPXPXPXPXPXPXPXPXPXPXPXPXPXPXPXPXPXPXPXPXPXPXPXPXPXPXPXPXPXPXPXPXPXPXPXPXPXPXPXPXPXPXPXPXPXPXPXPXPXPXPXPXPXPXPXPXPXPXPXPXPXPXPXPXPXPXPXPXPXPXPXPXPXPXPXPXPXPXPXPXPXPXPXPXPXPXPXPXPXPXPXPXPXPXPXPXPXPXPXPXPXPXPXPXPXPXPXPXPXPXPXPXPXPXPXPXPXPXPXPXPXPXPXPXPXPXPXPXPXPXPXPXPXPXPXPXPXPXPXPXPXPXPXPXPXPXPXPXPXPXPXPXPXPXPXPXPXPXPXPXPXPXPXPXPXPXPXPXPXPXPXPXPXPXPXPXPXPXPXPXPXPXPXPXPXPXPXPXPXPXPXPXPXPXPXPXPXPXPXPXPXPXPXPXPXPXPXPX",
"PXPXPXPXPXPXPXPXPXPXPXPXPXPXPXPXPXPXPXPXPXPXPXPXPXPXPXPXPXPXPXPXPXPXPXPXPXPXPXPXPXPXPXPXPXPXPXPXPXPXPXPXPXPXPXPXPXPXPXPXPXPXPXPXPXPXPXPXPXPXPXPXPXPXPXPXPXPXPXPXPXPXPXPXPXPXPXPXPXPXPXPXPXPXPXPXPXPXPXPXPXPXPXPXPXPXPXPXPXPXPXPXPXPXPXPXPXPXPXPXPXPXPXPXPXPXPXPXPXPXPXPXPXPXPXPXPXPXPXPXPXPXPXPXPXPXPXPXPXPXPXPXPXPXPXPXPXPXPXPXPXPXPXPXPXPXPXPXPXPXPXPXPXPXPXPXPXPXPXPXPXPXPXPXPXPXPXPXPXPXPXPXPXPXPXPXPXPXPXPXPXPXPXPXPXPXPXPXPXPXPXPXPXPXPXPXPXPXPXPXPXPXPXPXPXPXPXPXPXPXPXPXPXPXPXPXPXPXPXPXPXPXPXPXPXPXPXPXPXPXPXPXPXPXPXPXPXPXPXPXPXPXPXPXPXPXPXPXPXPXPXPXPXPXPXPXPXPXPXPXPXPXPXPXPXPXPXPXPXPXPXPXPXPXPXPXPXPXPXPXPXPXPXPXPXPXPXPXPXPXPXPXPXPXPXPXPXPXPXPXPXPXPXPXPXPXPXPXPXPXPXPXPXPXPXPXPXPXPXPXPXPXPXPXPXPXPXPXPXPXPXPXPXPXPXPXPXPXPXPXPXPXPXPXPXPXPXPXPXPXPXPXPXPXPXPXPXPXPXPXPXPXPXPXPXPXPXPXPXPXPXPXPXPXPXPXPXPXPXPXPXPXPXPXPXPXPXPXPXPXPXPXPXPXPXPXPXPXPXPXPXPXPXPXPXPXPXPXPXPXPXPXPXPXPXPXPXPXPXPXPXPXPXPXPXPXPXPXPXPXPXPXPXPXPXPXPXPXPXPXPXPXPXPXPXPXPXPXPXPXPXPXPXPXPXPXPXPXPXPXPXPXPXPX",
"PXPXPXPXPXPXPXPXPXPXPXPXPXPXPXPXPXPXPXPXPXPXPXPXPXPXPXPXPXPXPXPXPXPXPXPXPXPXPXPXPXPXPXPXPXPXPXPXPXPXPXPXPXPXPXPXPXPXPXPXPXPXPXPXPXPXPXPXPXPXPXPXPXPXPXPXPXPXPXPXPXPXPXPXPXPXPXPXPXPXPXPXPXPXPXPXPXPXPXPXPXPXPXPXPXPXPXPXPXPXPXPXPXPXPXPXPXPXPXPXPXPXPXPXPXPXPXPXPXPXPXPXPXPXPXPXPXPXPXPXPXPXPXPXPXPXPXPXPXPXPXPXPXPXPXPXPXPXPXPXPXPXPXPXPXPXPXPXPXPXPXPXPXPXPXPXPXPXPXPXPXPXPXPXPXPXPXPXPXPXPXPXPXPXPXPXPXPXPXPXPXPXPXPXPXPXPXPXPXPXPXPXPXPXPXPXPXPXPXPXPXPXPXPXPXPXPXPXPXPXPXPXPXPXPXPXPXPXPXPXPXPXPXPXPXPXPXPXPXPXPXPXPXPXPXPXPXPXPXPXPXPXPXPXPXPXPXPXPXPXPXPXPXPXPXPXPXPXPXPXPXPXPXPXPXPXPXPXPXPXPXPXPXPXPXPXPXPXPXPXPXPXPXPXPXPXPXPXPXPXPXPXPXPXPXPXPXPXPXPXPXPXPXPXPXPXPXPXPXPXPXPXPXPXPXPXPXPXPXPXPXPXPXPXPXPXPXPXPXPXPXPXPXPXPXPXPXPXPXPXPXPXPXPXPXPXPXPXPXPXPXPXPXPXPXPXPXPXPXPXPXPXPXPXPXPXPXPXPXPXPXPXPXPXPXPXPXPXPXPXPXPXPXPXPXPXPXPXPXPXPXPXPXPXPXPXPXPXPXPXPXPXPXPXPXPXPXPXPXPXPXPXPXPXPXPXPXPXPXPXPXPXPXPXPXPXPXPXPXPXPXPXPXPXPXPXPXPXPXPXPXPXPXPXPXPXPXPXPXPXPXPXPXPXPXPXPXPXPXPXPXPXPXPX",
"PXPXPXPXPXPXPXPXPXPXPXPXPXPXPXPXPXPXPXPXPXPXPXPXPXPXPXPXPXPXPXPXPXPXPXPXPXPXPXPXPXPXPXPXPXPXPXPXPXPXPXPXPXPXPXPXPXPXPXPXPXPXPXPXPXPXPXPXPXPXPXPXPXPXPXPXPXPXPXPXPXPXPXPXPXPXPXPXPXPXPXPXPXPXPXPXPXPXPXPXPXPXPXPXPXPXPXPXPXPXPXPXPXPXPXPXPXPXPXPXPXPXPXPXPXPXPXPXPXPXPXPXPXPXPXPXPXPXPXPXPXPXPXPXPXPXPXPXPXPXPXPXPXPXPXPXPXPXPXPXPXPXPXPXPXPXPXPXPXPXPXPXPXPXPXPXPXPXPXPXPXPXPXPXPXPXPXPXPXPXPXPXPXPXPXPXPXPXPXPXPXPXPXPXPXPXPXPXPXPXPXPXPXPXPXPXPXPXPXPXPXPXPXPXPXPXPXPXPXPXPXPXPXPXPXPXPXPXPXPXPXPXPXPXPXPXPXPXPXPXPXPXPXPXPXPXPXPXPXPXPXPXPXPXPXPXPXPXPXPXPXPXPXPXPXPXPXPXPXPXPXPXPXPXPXPXPXPXPXPXPXPXPXPXPXPXPXPXPXPXPXPXPXPXPXPXPXPXPXPXPXPXPXPXPXPXPXPXPXPXPXPXPXPXPXPXPXPXPXPXPXPXPXPXPXPXPXPXPXPXPXPXPXPXPXPXPXPXPXPXPXPXPXPXPXPXPXPXPXPXPXPXPXPXPXPXPXPXPXPXPXPXPXPXPXPXPXPXPXPXPXPXPXPXPXPXPXPXPXPXPXPXPXPXPXPXPXPXPXPXPXPXPXPXPXPXPXPXPXPXPXPXPXPXPXPXPXPXPXPXPXPXPXPXPXPXPXPXPXPXPXPXPXPXPXPXPXPXPXPXPXPXPXPXPXPXPXPXPXPXPXPXPXPXPXPXPXPXPXPXPXPXPXPXPXPXPXPXPXPXPXPXPXPXPXPXPXPXPXPXPXPXPXPX",
"PXPXPXPXPXPXPXPXPXPXPXPXPXPXPXPXPXPXPXPXPXPXPXPXPXPXPXPXPXPXPXPXPXPXPXPXPXPXPXPXPXPXPXPXPXPXPXPXPXPXPXPXPXPXPXPXPXPXPXPXPXPXPXPXPXPXPXPXPXPXPXPXPXPXPXPXPXPXPXPXPXPXPXPXPXPXPXPXPXPXPXPXPXPXPXPXPXPXPXPXPXPXPXPXPXPXPXPXPXPXPXPXPXPXPXPXPXPXPXPXPXPXPXPXPXPXPXPXPXPXPXPXPXPXPXPXPXPXPXPXPXPXPXPXPXPXPXPXPXPXPXPXPXPXPXPXPXPXPXPXPXPXPXPXPXPXPXPXPXPXPXPXPXPXPXPXPXPXPXPXPXPXPXPXPXPXPXPXPXPXPXPXPXPXPXPXPXPXPXPXPXPXPXPXPXPXPXPXPXPXPXPXPXPXPXPXPXPXPXPXPXPXPXPXPXPXPXPXPXPXPXPXPXPXPXPXPXPXPXPXPXPXPXPXPXPXPXPXPXPXPXPXPXPXPXPXPXPXPXPXPXPXPXPXPXPXPXPXPXPXPXPXPXPXPXPXPXPXPXPXPXPXPXPXPXPXPXPXPXPXPXPXPXPXPXPXPXPXPXPXPXPXPXPXPXPXPXPXPXPXPXPXPXPXPXPXPXPXPXPXPXPXPXPXPXPXPXPXPXPXPXPXPXPXPXPXPXPXPXPXPXPXPXPXPXPXPXPXPXPXPXPXPXPXPXPXPXPXPXPXPXPXPXPXPXPXPXPXPXPXPXPXPXPXPXPXPXPXPXPXPXPXPXPXPXPXPXPXPXPXPXPXPXPXPXPXPXPXPXPXPXPXPXPXPXPXPXPXPXPXPXPXPXPXPXPXPXPXPXPXPXPXPXPXPXPXPXPXPXPXPXPXPXPXPXPXPXPXPXPXPXPXPXPXPXPXPXPXPXPXPXPXPXPXPXPXPXPXPXPXPXPXPXPXPXPXPXPXPXPXPXPXPXPXPXPXPXPXPXPXPXPXPXPX"
};
