/* XPM */
static char *so_long_floor[] = {
/* columns rows colors chars-per-pixel */
"64 64 24 1 ",
"  c #609B2A",
". c #639E2D",
"X c #66A32F",
"o c #67A530",
"O c #68A630",
"+ c #6CAE33",
"@ c #70AF33",
"# c #6EB034",
"$ c #72B636",
"% c #78B736",
"& c #77B836",
"* c #78B937",
"= c #77BB38",
"- c #7CBD38",
"; c #7EC23A",
": c #82C23A",
"> c #88C73C",
", c #86CA3D",
"< c #8FCD3F",
"1 c #90CF3F",
"2 c #8DD03F",
"3 c #90D03F",
"4 c #8ED140",
"5 c #91D441",
/* pixels */
"$$$$$$$$$$$$$$$$$$$$$$$$$$$$$$$$$$$$$$$$$$$$$$$$$$$$$$$$$$$$$$$$",
"$$$$$$$$$$$$$$$$$$$$$$$$$$$$$$$$$$$$$$$$$$$$$$$$$$$$$$$$$$$$$$$$",
"$$$$$$$$$$$$$$$$$$$$$$$$$$$$$$$$$$$$$$$$$$$$$$$$$$$$$$$$$$$$$$$$",
"$$$$$$$$$$$$$$$$$$$$$$$$$$$$$$$$$$$$$$$$$$$$$$$$$$$$$$$$$$$$$$$$",
"$$$$$$$$$$$$$$$$$$$$$$$$$$$$$$$$$$$$$$$$$$$$$$$$$$$$$$$$$$$$$$$$",
"+++++++++++++++++++++++#####$$$$$$$$$$$#######+++++++++++#######",
"++++++++++++++++++++++++++++++++++++++++++++++++++++++++++++++++",
"++++++++++++++++++++++++++++++++++++++++++++++++++++++++++++++++",
"$$$$$$$$$$$$$$$$$$$$+++++++++++++++++++++++++++++#####++++++++++",
"**********************&$$$$$$++++++++++#$$$$$$&&*******&$$$$$$$$",
"::::::::::::::---***************&&&*****-------;;:::::;---------",
"<<<<<<<<<<<<<<<<<<::::::::::::::><<<<<<<<<<<<<<<<<<<<<<<<<<<<<<<",
"<<1355555555555555555555555555555555555311111355555553<<111<<1<<",
"5555555555555555555555555555555555555555555555555555555555555555",
"5555555555555555555555555555555555555555555555555555555555555555",
"555555552<<<<244444445555454555555555555555555555555555555555555",
"<<<<<,::;;;;;;;;::::::::::::::::::::::,,,,,,,,,<<<<<<<<<<<22<<<<",
";;;;;;;;;;;;;;;;;;;;;;;;;;;;;;;;;;;;;;;;;;;;;;;;;;;;;;;;;;;;;;;;",
";;;;;;;;;;;;;;;;;;;;;;;;;;;;;;;;;;;;;;;;;;;;;;;;;;;;;;;;;;;;;;;;",
";;;;;;;;;;;;;;;;;;;;;;;;;;;;;;;;;;;;;;;;;;;;;;;;;;;;;;;;;;;;;;;;",
";;;;;;;----------------------;;;;;;;;;;;;;;;;;;;;;--;;;;;;;;;;;;",
"-=&&&$$$$$$$$$$$$$$$$$$$$$$$$$$$$$$&&&&&&&&&&&&&&$$$$&&---------",
"$$$$$$$$$$$$$$$$$$$$$$$$$$$$$$$$$$$$$$$$$$$$$$$$$$$$$$$$$$$$$$$$",
"$$$$$$$$$$$$$$$$$$$$$$$$$$$$$$$$$$$$$$$$$$$$$$$$$$$$$$$$$$$$$$$$",
"$$$$$$$$$$$$$$$$$$$$$$$$$$$$$$$$$$$$$$$$$$$$$$$$$$$$$$$$$$$$$$$$",
"$$$$$$$$$$$$$$$$$$$$$$$$$$$$$$$$$$$$$$$$$$$$$$$$$$$$$$$$$$$$$$$$",
"$$$$$$$$$$$$$$$$$$$$$$$$$$$$$$$$$$$$$$$$$$$$$$$$$$$$$$$$$$$$$$$$",
"$$$$$$$$$$$$$$$$$$$$$$$$$$$$$$$$$$$$$$$$$$$$$$$$$$$$$$$$$$$$$$$$",
"$$$$$$$$$$$$$$$$$$$$$$$$$$$$$$$$$$$$$$$$$$$$$$$$$$$$$$$$$$$$$$$$",
"$$$$$$$$$$$$$$$$$$$$$$$$$$$$$$$$$$$$$$$$$$$$$$$$$$$$$$$$$$$$$$$$",
"$$$$$$$$$$$$$$$$$$$$$$$$$$$$$$$$$$$$$$$$$$$$$$$$$$$$$$$$$$$$$$$$",
"$$$$$$$$$$$$$$$$$$$$$$$$$$$$$$$$$$$$$$$$$$$$$$$$$$$$$$$$$$$$$$$$",
"$$$$$$$$$$$$$$$$$$$$$$$$$$$$$$$$$$$$$$$$$$$$$$$$$$$$$$$$$$$$$$$$",
"$$$$$$$$$$$$$$$$$$$$$$$$$$$$$$$$$$$$$$$$$$$$$$$$$$$$$$$$$$$$$$$$",
"$$$$$$$$$$$$$$$$$$$$$$$$$$$$$$$$$$$$$$$$$$$$$$$$$$$$$$$$$$$$$$$$",
"$$$$$$$$$$$$$$$$$$$$$$$$$$$$$$$$$$$$$$$$$$$$$$$$$$$$$$$$$$$$$$$$",
"==----==--===&&$$$$$$$$$$$$$$$$$$$$$$$$$$$$$$&&&&&&&&&&&&&&&&&&&",
",,,,,,,,,,,,,,,::;;----&==-----;;;;;;;;;:::::,,,,,,,,,,:,::::,,,",
",,,,<,,,<,,,,,,,,,,,,,,,,,,,,,,,,,,,<<,,,,,,,,,,,,,,,,,,,,,,,,,,",
"::::::::,,:::::,,,,,,,,,,,,,,,,,,,,,,,,,,,,,,,,,,,,,,,,,,,,,,,,,",
"%%*%*******************-------;::::::;-------*************----**",
"%%%%%%%$$$$$$$$$$$$$%%%%%%%%$$$$%%%%%%%%**%%%%%%%%%%%%%%%%%%%%$$",
"@@$$$$@++++++++++++++++++++++O+++++++@@$$$$$$$$$$$$$$$$$$$$$$$@@",
"XXXXXXXooOOOO++++OOOOOOOXXXXXXXXXXXXXXooOOOOOooooXXXXXXXXXXXXXXX",
"XXXXXXXXXXXXXXXXXXXXXXXXXXXXXXXXXXXXXXXXXXXXXXXXXXXXXXXXXXXXXXXX",
"XXooooO++++++++++++++++++++++++++++++OOOOOOOOOooooooooooXXXXXXXX",
"++++++++++++++++++++++++++++++++++++++++++++++++++++++++++++++++",
"++++++++++++++++++++++++++++++++++++++++++++++++++++++++++++++++",
"++++++++++++++++++++++++++++++++++++++++++++++++++++++++++++++++",
"++++++++++++++++++++++++++++++++++++++++++++++++++++++++++++++++",
"++++++++++++++++++++++++++++++++++++++++++++++++++++++++++++++++",
"oooooooooooooooooooOOO+++++++++++++++++++++++++OOOOOOOO+++++++++",
"XXXXXXXXXXXXXXXXXXXXXXXXXXXoOOOO++++OOOooXXXXXXXXXXXXXXXXXXXXXXX",
"XXXXXXXXXXXXXXXXXXXXXXXXXXXXXXXXXXXXXXXXXXXXXXXXXXXXXXXXXXXXXXXX",
"XXXXXXXXXXXXXXXXXXXXXXXXXXXXXXXXXXXXXXXXXXXXXXXXXXXXXXXXXXXXXXXX",
"XXXXXXXXXXXXXXXXXXXXXXXXXXXXXXXXXXXXXXXXXXXXXXXXXXXXXXXXXXXXXXXX",
"XXXXXXXXXXXXXXXXXXXXXXXXXXXXXXXXXXXXXXXXXXXXXXXXXXXXXXXXXXXXXXXX",
"XXXXXXXXXXXXXXXXXXXXXXXXXXXXXXXXXXXXXXXXXXXXXX....XXXXXXXXXXXXXX",
"........XXXXXXXXXXXXXXXXXXXXXX..X..........................X....",
"................................................................",
"................................................................",
"................................................................",
"................................................................",
"...... .....   .....   .....   ....... .....   .....   .....   ."
};
