/* XPM */
static char *so_long_wall[] = {
/* columns rows colors chars-per-pixel */
"64 64 52 1 ",
"  c #47241C",
". c #4C261D",
"X c #4F281E",
"o c #50271D",
"O c #532A1F",
"+ c #5A2D1F",
"@ c #4E2A21",
"# c #552C21",
"$ c #5B2E22",
"% c #563025",
"& c #5D3124",
"* c #5D3529",
"= c #612F22",
"- c #643324",
"; c #6B3626",
": c #6D3827",
"> c #63362A",
", c #6C3728",
"< c #65392B",
"1 c #703726",
"2 c #713927",
"3 c #7C3F27",
"4 c #743C2A",
"5 c #7A3E2C",
"6 c #6C3E30",
"7 c #723F31",
"8 c #7D412D",
"9 c #6F4132",
"0 c #744132",
"q c #7C4534",
"w c #7E4937",
"e c #7E4938",
"r c #84442D",
"t c #88442F",
"y c #8D482F",
"u c #90472E",
"i c #90472F",
"p c #854431",
"a c #8B4731",
"s c #824A37",
"d c #8D4932",
"f c #874D3A",
"g c #884F3B",
"h c #884F3C",
"j c #904730",
"k c #914A32",
"l c #9A4D35",
"z c #974F38",
"x c #89503C",
"c c #965036",
"v c #95523B",
"b c #99543D",
/* pixels */
"kyk4-14;;11;&kkkkkkkd-22;12;;-rkkkkkkk4kkkkkkkd:kkkkkkkrrkkkkklk",
"rrr;$-----;-Orataartr$-;-----+5ataataa-raaaaatr-rttrtaa44attatta",
":;;----&@***&<<<&&;::&---O-----;:;$::;-:::&-;::-,:,#-;---;;-$;::",
"kkkkkkkr6gffgffx08kkkkkkk4dkkkkkka4lkkkkkk88kkkkkkk:rttyttyr2kku",
"kkkkkkla:xffxgfx0rklkkkkk4kkkkkkld5kkkkkkkrrklkkkkk2ttttttut2kkk",
"kkkkkkla:xxfgxfg0rkkkkkkk4kkkkkkld5kkkkkkk8rkklkkkk2tyttuttt2kkk",
";;;;:::-#<<<<<<<%&:::;:::#:::,;;;-#;;;-:::&-:,:-:::O-;;-----O;;;",
"=$-#:8r88r85-88rr88r4-r88rr8p,#&-&&&&$O88rr88r4&0000000<#=--$--$",
";14=rkkkkkkk4dkkkkkka5lkklkkl8-::;:::;-kkkkkkla:fffffff0-14;;21;",
"2;2-rkkkkkkk4kkkkkkkd5lkkkkkkr-;::,::;-kkklkkld:fffffff0-;241121",
";;;$5ddddaad,addddddr4kdddddk4&;--;---$addddddp>wwwfeee:$;;;;;;;",
"$$$#----$---$---$&---&---#&>>%###@X$$$#--;$&---$---#&--&#&$OX$+$",
"kkkkkkkr4kkkkkdk58kkkkkkk4wwffsffw4kkkkkdk88kkkkkkd4dkkkkkkd4kkd",
"kklkkkka4kkkkkkk8rlkkkkkk4effffffw4kkkkkkkrrkkkkkkk4kkklkkkd4kkk",
"lkklkkld4kkkklkk8rklkkklk4ffsgffgf4klkklkkrrkklkklk4kkkllkkk4klk",
"4544454:&4444444-,5444444&<66:666<>4454444--4444444&:5544544&544",
"r88><0000000&58888884-8r88888,:88q888q#$=&$$&&$$8885888,,8888888",
"kkl80xgfggff:dkkkkkkt5kkkkkklrrkkkkckk;;;22;24;;lkkkkkkrrklkkkkk",
"kkk8qgxgfxgg:dkkkkkkd5kkkkkkkrpkkkkkkk;;1;2;;4;;kkkkkkkrrklkkkkk",
"kdk50fffffff:dddkddka4kkdkkkk8qdkkddkd-;;;;;;;--kkkkkkk88kkkddkk",
";--$&--*#---#---$&---$---$---&&---$---#$$$.#$+##---##$$oO$$$#---",
"kkkkkkkp4kkdkkkk58kkkkkkd4dkkkkkka4kkdkkkk5qkkkdkkd--;;;;;;;;kkk",
"kkkkkkkr4kkkkkkk58kkkkkkk5kkkkkkkt5kkkkkkk88kkkkckk;;;;2;;4;;kkk",
"kkklkkld4lkkllklrpklkklkk5kkklkkld5kkkkkkkrpkbzkkbc,;1;4111;;klk",
"55555554-5555855;,5554555&55555554-8855855-:88848q8#$$$$$$$$$555",
"844-O$$$$$$$.55455454.O#OO#OO.,4484485#<<<<<<<>#4854454-,4444455",
"kkl5-22;22;;-kkkkkkka$;;-;;-;$rkkkklkk:qqqqqqq0:lkkkkkkrrkkkkkkk",
"kkl4-41;14;;-kkkkkkkt$;--;--;=rklkklkk:qqqpqqq0:lkkkkkkrrkkkkkkk",
"kkk4-;2;;;;;-kkkkkkka+-------$rkkkkkkk,qqqqqqq0:kkkkkkk8rkkkkkkk",
"---#.OOo.###.---$&--&.oOO O#O.$---$---#&*&#@##@.$$$#-->$$>--$---",
"trrrrrr3,ddddkdd45attttda:adadkaap4akdaddd4&;;;;;;;#akddddat:tdd",
"ttttrtt34kdkkkkk55kkykkku4dkkkkkka4kkkkkkk5-;2;;11;&dkkkkkkd4kkk",
"ttttttyr4lkkkkkl88kkkkkkk5kkklkkld5kkkkkkk8-242142;-kkklkklk4kkk",
"52353252-rr8rr8r,:8rr58r5-8rrrr8r5-rr88rrr,#==-==-=O8r8rr8r8-8rr",
"O##.-;;:;;::#<<<><<<>$;::;:::&*<><<><<#;::;;,;-O,,;-,::$X#######",
"212-rkkkkklk4fggggggf4klkklkk8qgggggxf:kkkklkkd4klkkkkk8-::2::::",
";;2-8lkkkkkk4ffgfffgw4kkkkkkk80ggffggf:dkkkkkkt,kkkkkkk8&;:;;::;",
"1;2-rkkkkkkk:fggxgfxf4kkkkkkkrqgxggggf:kkkkkkkd:kkkklkk8-::4::::",
"+OOO-;:--;;;#><>*><<>&;;;-;;;&&<<>*<<>#;;;--;;-O;:;-,:;&@#O#XO#O",
"ytrtart8;raaraat45ttatraa;rartdttr:raaraat25araartd-ratraatr:rtt",
"kkkkkkka4kkkkkkk8rkkkkkkk5kkkkkkkd5kkkkkkk8rkkkkkkk4dkkkkkkd4kkk",
"kkkkklkt5lkklkkl8rlkkklkk5kkkkkkla5lkkkkklrrklkkkkk4kkkkkklk4kkk",
"prparra8>aprrarp44pappaar,prrapra8:ppprarp44pparpap-pprppppr-rar",
";;,#.OOX.O#X.;;;--;;-#;;;-;;;$.###X###.-;,--;;-.###.###.$;;;-;;;",
"lkk5$--;--;-$kkkkkkkd4ukkukkk5;;;4:;41-kkkklkkd$;1;;;2:-rkkkkkkk",
"kkl4+;--;;--&dkkkkkkt5kkukkyk5-22;;4;;-dkkkkkka$:;;11;1-8kkkkkkk",
"kkl4$;;;;;;;&kkllkkld5lkkkkkk5-24::22:-kkklkkla$11144;2-rkllkllk",
"4;:&.OOO.OOO.::::;:4,$::;-:;:&O#$$O$$#@::::::4,.O$Oo$$$X-::4;:4:",
"rr88r8r4-rrrrrrr;:q0qq0qq-8rrrrrr5;rrrrrrr;:r555558$5rr8rr85-8rr",
"kkkkkkkd4kkkkkkk5qggggggg4kkkkkkkd5kkkkkkk8rkkkjukk;akkkkkkd4kkk",
"kkkkdkkr4kkkkkkk50ggsfgff4dkkkdkka5kkkkkkk85jkatkka4aakkdkka2kkj",
"dddddddr:kdaddtd49sfswssw:addddddr4ddddkdd54aattttr;aatdaadr;ada",
"<<<&-::;-:,;$;;,--::-&:,,-,;:--,;;-,1;#$+$OO$$OO:,;-,;;-&<<<&<<<",
"gff0pkkkkkkk:dkkkkkka4kkkkkkk5rkkkkukk-;;;;:;;--kkkkkkk50gfgffff",
"gfg0rkkkkkkk4kkkkkkkd5kkkkkkk8rkkkkkkk-;;;:;;:;;kkkkkkkr0fgxfggf",
"ffx0rlkkkkkk4kkkkkkka5lkklkklrrllkklkk;;;22;;2;;lkklkkkr0gxgfxxf",
":<:&-44::44:#::24:44;&442:4:4--242;44;XOOOOOO+OO44::4::-*<::<:::",
"88855884&0000090>:8858888-48885884*0009000*;8585855&45555584&555",
"kkklkkkd:fxffggf0pkkkkkkk4kkkkkkkd0fxgfggg0pkkkkkkk4akkkkkkd4kkk",
"kkkkkkkr6gffgffx08lkkkkkk4ddkkkkkt7gffgffg0rkkkkkkk4dkkkddkd4kkk",
"ddkkdkkr:fffffff68kkdkkdd4ddkkdkkr:fffffsf05kkdkkkd:pdddddka:kka",
"$$$#-;;-&>--%--:&-;;-#$$$O$$$#-;;;&::-%>;;--;;-$;;;&;;;-#&&$X$$$",
";;;&5aaddtdd;dkkkkkka-;;;;;;;$8kdkkkkk:akkkkkka;kkkkdkk5&:;:;;;;",
"0006fvvvvvvv0vbvbbvvv60000000:gbvbvvbv0vbvvbvvv0vbbvvbbs60000000"
};
