/* XPM */
static char *XPM3_dumpling[] = {
/* columns rows colors chars-per-pixel */
"64 64 190 2 ",
"   c #E8D9AF",
".  c #E3D3A4",
"X  c #F2E8C0",
"o  c #E0CF9E",
"O  c #F4EBC7",
"+  c #CAAE72",
"@  c #CCB175",
"#  c #CEB478",
"$  c #EFE3BB",
"%  c #CDB377",
"&  c #CBB174",
"*  c #F8F0D0",
"=  c #F4EAC5",
"-  c #EADDB2",
";  c #F5EDC9",
":  c #F8F1D2",
">  c #C5A768",
",  c #CCB275",
"<  c #C7AA6D",
"1  c #D8BF86",
"2  c #EFE3B9",
"3  c #CCB274",
"4  c #F5ECC8",
"5  c #CDB479",
"6  c #F1E5BB",
"7  c #CEB57B",
"8  c #C7AA6B",
"9  c #DDCB95",
"0  c #BE9D5C",
"q  c #CCB274",
"w  c #F8F0D0",
"e  c #F0E5BC",
"r  c #F4EBC4",
"t  c #D6BF84",
"y  c #F8F1D2",
"u  c #D9C58B",
"i  c #F7EFCE",
"p  c #F5ECC9",
"a  c #F6EECA",
"s  c #F9F1D3",
"d  c #F8F0CE",
"f  c #D5BD82",
"g  c #E7D8A7",
"h  c #D0B578",
"j  c #F7F0CE",
"k  c #C6A869",
"l  c #F6EDCA",
"z  c #E5D5A4",
"x  c #C8AB6A",
"c  c #C8AB6B",
"v  c #D6BE83",
"b  c #C3A362",
"n  c #CAAD6D",
"m  c #F7F0CF",
"M  c #F9F1D2",
"N  c #ECDFB2",
"B  c #F7EFCD",
"V  c #F6EDCA",
"C  c #D2BB7E",
"Z  c #E5D4A1",
"A  c #F3E8C0",
"S  c #E7D7A3",
"D  c #F0E4B9",
"F  c #EBDEAD",
"G  c #C9AE6D",
"H  c #C9AD6D",
"J  c #D3BB7E",
"K  c #DECB95",
"L  c #D1B97B",
"P  c #E1D09C",
"I  c #D5BC80",
"U  c #C3A463",
"Y  c #C5A766",
"T  c #BF9E5B",
"R  c #C9AD6D",
"E  c #C9AE6D",
"W  c #C6A766",
"Q  c #D7C085",
"!  c #C9AC6B",
"~  c #CBB06F",
"^  c #CDAF70",
"/  c #CEB474",
"(  c #D2B97B",
")  c #F9F1D2",
"_  c #F8F0D0",
"`  c #F6EDCB",
"'  c #F1E5BB",
"]  c #F8F0CF",
"[  c #F9F1D3",
"{  c #F0E4BA",
"}  c #F0E4B9",
"|  c #F9F1D1",
" . c #F8F1D0",
".. c #F9F1D2",
"X. c #EADCAD",
"o. c #EDDFB3",
"O. c #F7EFCD",
"+. c #E6D7A6",
"@. c #F9F1D2",
"#. c #ECDDAE",
"$. c #EFE2B7",
"%. c #E8D9A7",
"&. c #F8F0CF",
"*. c #DCC890",
"=. c #D6BE82",
"-. c #F0E4B9",
";. c #F8F0D0",
":. c #F7F0CE",
">. c #F8F1D0",
",. c #F8F0D1",
"<. c #EDE0B3",
"1. c #D9C48A",
"2. c #DDCB94",
"3. c #E1CD98",
"4. c #E3D19D",
"5. c #EDDFB3",
"6. c #EFE2B5",
"7. c #F8F0CE",
"8. c #E7D9A9",
"9. c #EFE3B7",
"0. c #F7EFCC",
"q. c None",
"w. c #ECDFB1",
"e. c #EEE2B5",
"r. c #F2E7BE",
"t. c #F2E7BF",
"y. c #F2E6BE",
"u. c #F1E6BD",
"i. c #F0E4BA",
"p. c #F2E8BF",
"a. c #F1E6BC",
"s. c #F9F1D2",
"d. c #F8F1D1",
"f. c #F8F0D0",
"g. c #F8F1D1",
"h. c #F7EFCD",
"j. c #F4EBC6",
"k. c #F8F0D0",
"l. c #F9F1D2",
"z. c #F2E8C0",
"x. c #F3E8C0",
"c. c #F3E8C1",
"v. c #F3E9C1",
"b. c #F3E9C2",
"n. c #F3EAC3",
"m. c #F4EAC3",
"M. c #F4EBC5",
"N. c #F4EAC4",
"B. c #F4EBC5",
"V. c #F4EBC4",
"C. c #F5EBC6",
"Z. c #F5ECC6",
"A. c #F5ECC7",
"S. c #F5EDC7",
"D. c #F5EDC8",
"F. c #F7EFCE",
"G. c #F7EFCE",
"H. c #F7F0CD",
"J. c #F9F1D1",
"K. c #F9F1D0",
"L. c #F6EECA",
"P. c #F5EDC8",
"I. c #F5EDC9",
"U. c #F5ECC8",
"Y. c #F6EDC9",
"T. c #F6EECA",
"R. c #F6EECB",
"E. c #F6EFCB",
"W. c #F7EFCC",
"Q. c #F8F0CF",
"!. c #F8F1D0",
"~. c #F6EFCC",
"^. c #F7EFCC",
"/. c #F7EFCD",
"(. c #F6EFCD",
"). c #F8F0D0",
"_. c #F7F0CE",
"`. c #F5ECC6",
"'. c #F7F0CD",
"]. c #F7F0CE",
"[. c #F7F0CF",
"{. c #F8F0CF",
"}. c #F8F0CE",
"|. c #F7F0CE",
" X c #F9F1D2",
".X c #F8F0D0",
"XX c #F9F1D1",
"oX c #F8F1D1",
"OX c #F9F1D2",
"+X c #F8F0D1",
/* pixels */
"                                                                                                                                ",
"                                                                                                                                ",
"                                                                                                                                ",
"                                                        * .                                                                     ",
"                                                      u h.X.*                                                                   ",
"                                                      X.t.A.;.*                                                                 ",
"                                                    * 9.t.t.T.{                                                                 ",
"                                                    s A.t.e.t.T.u                                                               ",
"                                                  . &.A.e.t.e.T.5.*                                                             ",
"                                                  u T.A.e.t.w.t.[.{                                                             ",
"                                                * 5.A.e.w.t.e.e.[.A.e                                                           ",
"                                              * ;.T.t.w.w.t.t.w.T.T.-.*                                                         ",
"                                            5 ;.A.t.w.q.e.A.t.w.T.T.t.#.5                                                       ",
"                                          s 9.A.t.e.w.w.A.T.p.e.T.}.t.w.8.m *                                                   ",
"                                      1 { T.A.A.A.t.t.A.T.T.A.t.}..XA.e.w.t.5.m *                                               ",
"                                  $ m d.T.T.T.T.T.A.T.}..X}.T.T..X.XT.t.w.q.w.t.9.{ w .                                         ",
"                                u ;.[.T.A.T.[.T.[.[..X.X.X}.T.[..X.X.XA.e.q.q.w.w.t.j.;.j *                                     ",
"                            5 X.A.A.A.i.t.T.T.T.T.T.[.}..X[.[.[.}.}..X}.t.w.w.t.t.w.w.e.A.9.{ w .                               ",
"                        . m h.T.t.e.w.w.i.A.T.[.[.A.A.T.[.T.T.t.t.A.T.T.T.t.e.t.A.A.t.e.w.t.A.T.;.s *                           ",
"                      w ;..X.X}.T.t.w.q.i.T..X.XA.e.w.A.T.T.A.q.e.T.&.m T.t.e.t.t.A.T.T.A.A.T.}..X;._ m *                       ",
"                    j h..X.X.X}.T.t.w.i.T..X.XT.t.w.4.t.T.T.A.q.t.T.X.* { T.e.e.t.e.t.x.A.T.[.}.T.&.j m { s                     ",
"                . ` A.T.T.T.A.A.t.e.A.}..X.X.XA.e.4.q.A.T.T.A.q.t.T.T.;.;.l.T.w.e.t.e.e.e.t.p.A.T.T..X;._ ;._ .                 ",
"              $ { e.i.t.t.t.e.w.e.T.}..X.X.XT.A.w.4.e.A.T.[.A.4.w.i.t.A.T.T..XA.w.e.t.t.e.t.e.e.t.p.A.T.T.d.}.m                 ",
"            . X.e.w.w.w.w.w.q.t.T.}..X.X.X}.A.t.q.w.A.T..X.XA.3.3.4.q.e.A.T.[.T.t.q.e.t.t.A.A.t.e.e.e.t.A.T.}.T.w               ",
"            m e.w.4.4.4.4.4.t.}.}.T.T.T.T.A.t.w.w.t.A.T.}.T.T.4.=.3.w.t.A.T.{ ` }.t.q.w.t.A.A.[.T.A.e.w.e.t.A.T.&..             ",
"          5 9.w.4.3.1.1.4.t..X.XT.A.t.t.t.w.q.w.t.A.A.T.T.9.T.w.1.4.w.A.T.d.5 * 5.T.e.q.w.t.A.T.}.T.T.A.t.e.e.A.T.w             ",
"          { w.q.3.1.=.4.A.T.h..X}.A.e.w.4.3.q.t.A.A.T.}.h.{ [.t.3.4.w.A.}.5.$   s l.T.w.q.w.t.A.T.T.;.{ h.T.p.e.A._             ",
"        * 9.w.4.1.1.w.}.;.{ s..XT.T.A.w.4.3.i.A.A.A.T..X;.s h.T.q.3.w.A.T.h.w   . m T.T.w.q.w.t.A.T.h.{ l X.T.T.T.;..           ",
"        u e.q.3.3.t..X&.{ s.T.T.A.A.t.w.4.w.A.A.T.T.}.Q.m * &.}.t.4.q.t.T..X5.w   . m T.A.w.q.w.e.A.T.T.;.u u &.}.9.*           ",
"        F w.4.4.t.T.{ ` T.T.A.t.t.w.q.4.w.A.A.T.}..X.XT.;.;.s..XA.q.4.w.A.T..Xh.{ * . _ [.A.w.w.w.t.A.T.T.5.u * ) T.j           ",
"        #.w.q.t.T.{ w d.T.A.t.w.q.4.1.3.t.A.T..X.X.X.X.X.X.X.X.XT.t.3.q.e.p.A.}..X;.w * _ T.t.w.w.t.A.A.A.T.h.m * { ;.          ",
"      . <.q.e.A.[.@.;.T.A.A.e.w.q.4.=.q.A.T..X.X.X.X[.[.}.T.[..X.XT.q.3.q.e.t.A.T..Xh.s * { T.i.q.e.A.A.A.A.T.T._ _ h.*         ",
"      * 8.w.t.A.[..X}.T.A.A.t.t.w.4.3.t.A.T..X.X}.T.A.A.A.A.A.A.}.[.e.1.3.4.w.t.A.A.T.T.u * ;.T.w.q.w.t.p.p.A.A.[.T.T.r         ",
"      * 8.w.A.A.T.[.T.A.A.A.A.p.w.4.w.A.T.}..X}.T.A.A.A.t.p.A.A.A.}.A.3.1.3.4.w.e.A.A.T.9.* e h.x.4.q.w.e.t.t.p.A.T.A.z         ",
"      . <.e.A.A.A.A.A.x.x.A.A.i.q.4.t.A.T..X.XT.A.A.t.t.t.t.t.p.A.T.T.w.=.1.3.4.w.t.A.A..X{ * &.T.w.3.q.w.e.t.t.t.A.A.Z         ",
"        X.e.t.t.t.t.t.t.t.t.t.w.4.w.t.A.T.}.T.A.A.t.i.i.e.e.e.t.t.A.T.t.1.( 1.3.4.w.t.A.}.T.;.h.T.t.3.3.q.w.e.t.t.t.t.`         ",
"        m e.e.t.i.i.e.e.t.t.w.q.2.w.i.A.T.T.A.t.i.e.e.e.e.e.e.e.i.t.A.p.4.( ( 1.3.q.e.t.A.T.}.T.T.A.4.1.3.4.q.w.i.e.w.F         ",
"        5 9.w.w.w.w.w.w.e.e.q.3.1.w.e.t.A.A.i.e.e.e.w.w.w.w.e.e.e.e.i.i.w.( ( =.1.4.w.i.t.A.A.T.A.A.w.1.1.3.4.q.w.e.w.Z         ",
"        . #.q.w.q.q.w.w.e.w.4.1.=.w.e.e.i.i.e.w.w.w.w.w.w.w.w.w.w.w.e.e.e.1.( ( 1.2.q.e.e.i.t.A.x.t.e.1.( 1.3.q.w.e.w.Z         ",
"          X.q.q.q.q.q.w.w.q.3.=.=.w.w.w.w.w.w.w.w.w.w.w.w.w.w.w.w.w.w.w.w.4.~ ( ( 1.4.w.w.e.e.e.e.e.e.4.( =.2.4.q.w.w.f         ",
"          Z 4.4.4.4.q.w.w.q.1.( ( q.q.q.q.q.q.q.q.q.q.q.q.q.q.q.q.q.q.w.w.q.^ ~ ( 1.4.w.w.w.w.w.w.w.w.q.=.( 1.3.q.w.w.e         ",
"          f 1.1.3.4.q.q.w.4.1.( ( q.q.q.q.q.q.q.q.q.q.q.q.q.q.q.4.q.q.q.q.q.( ~ ( =.3.q.w.q.q.q.q.q.q.q.2.( =.2.4.q.8.*         ",
"          1 ( 1.3.4.q.q.q.4.1.( ( 4.q.q.q.q.q.q.q.4.4.4.4.4.4.4.4.q.q.q.q.q.( ~ ( =.2.q.q.q.q.q.q.q.q.q.4.1.1.2.4.q.X.          ",
"          . I 1.2.4.4.q.q.4.1.=.=.2.q.q.q.q.q.4.4.4.4.4.4.4.4.4.4.4.4.4.q.q./ ~ ( =.2.q.q.4.4.4.4.4.4.q.q.2.2.2.4.q.z           ",
"            f 1.2.3.4.q.q.4.2.1.1.2.q.q.q.q.q.4.2.2.2.4.4.4.4.4.4.2.4.4.q.4.~ ~ ( 1.2.q.q.4.2.2.2.3.4.4.q.4.4.4.q.2.1           ",
"            * Q 1.2.2.4.4.4.4.2.2.4.q.4.4.4.4.4.4.2.2.2.2.2.2.2.2.2.2.4.q.1.^ ( ( 1.4.q.4.2.2.2.2.2.2.4.4.4.4.4.4.P             ",
"              x 1.2.2.2.2.4.4.4.4.4.4.4.2.4.4.4.2.2.2.2.1.1.1.1.2.2.2.2.4.1.( ( 1.2.4.4.2.2.2.1.1.2.2.2.4.4.4.4.2.e             ",
"              % Q 1.2.2.2.2.4.4.4.2.2.2.2.2.2.2.2.2.2.2.1.1.1.2.2.2.2.4.4.2.1.1.2.2.4.2.2.2.2.1.1.1.2.2.2.2.2.2.J               ",
"                f 1.1.1.2.2.2.2.2.2.2.2.2.2.2.2.2.2.2.2.2.2.1.2.2.2.2.4.2.2.2.2.2.2.2.2.2.1.1.1.=.1.1.2.2.2.2.*.,               ",
"                  C 1.1.1.1.2.2.2.2.1.1.1.1.2.2.2.2.2.2.2.2.2.2.2.2.2.2.2.2.2.2.2.2.2.1.1.1.1.1.( 1.1.1.1.1.1.7                 ",
"                  # J =.1.1.1.1.1.1.1.1.1.1.1.1.1.2.2.2.2.2.2.2.2.2.2.2.2.2.2.2.2.1.1.1.1.1.1.( ( ( 1.1.1.=.u                   ",
"                    $ J ( =.1.=.1.=.=.=.=.=.1.1.1.1.1.1.2.2.2.2.2.2.2.2.2.2.2.1.1.1.1.1.1.=.( ( / ( ( =.Q q                     ",
"                      $ C ( ( ( ( ( ( ( ( ( =.=.1.1.1.1.1.1.1.1.1.1.1.1.1.1.1.1.1.1.=.=.( ( ( / ~ / / G 1                       ",
"                          f ! / / / / ~ / / ( ( =.=.=.=.=.=.1.1.1.1.1.1.1.=.=.=.=.=.( ( ( / / ~ ! W f +                         ",
"                            , x ! ~ ! ! ! ~ / ( ( ( ( ( ( ( ( ( ( ( ( ( ( ( ( ( ( ( ( / / ~ ~ W x >                             ",
"                                1 x U T ! ! ~ / / / ( ( ( ( ( ( ( ( ( ( ( ( / / / / / ~ ~ U k ,                                 ",
"                                    % 7 x U ! ~ ~ ~ / / / / / / / / / / / / / ~ ~ ! U x 7 #                                     ",
"                                          + , q x G H E ! ! ! ~ ~ ! ! ! E H G x q , +                                           ",
"                                                    . # % , , 5 7 1 , % $ .                                                     ",
"                                                                                                                                ",
"                                                                                                                                ",
"                                                                                                                                ",
"                                                                                                                                ",
"                                                                                                                                "
};
